ricette/lut/Architettura-di-pietra-33.cube
# LUT generata da Camera Oscura BN
# Ricetta: Architettura di pietra
# Pellicola: pietra
# Nota: grana, vignetta e interventi locali non sono inclusi nella LUT.
TITLE "Architettura di pietra"
LUT_3D_SIZE 9
DOMAIN_MIN 0.0 0.0 0.0
DOMAIN_MAX 1.0 1.0 1.0
0.000000 0.000000 0.000000
0.053509 0.053509 0.053509
0.134799 0.134799 0.134799
0.255133 0.255133 0.255133
0.395531 0.395531 0.395531
0.529418 0.529418 0.529418
0.661682 0.661682 0.661682
0.782631 0.782631 0.782631
0.871218 0.871218 0.871218
0.024844 0.024844 0.024844
0.066282 0.066282 0.066282
0.155919 0.155919 0.155919
0.282180 0.282180 0.282180
0.423286 0.423286 0.423286
0.555082 0.555082 0.555082
0.687545 0.687545 0.687545
0.802596 0.802596 0.802596
0.885969 0.885969 0.885969
0.052168 0.052168 0.052168
0.104692 0.104692 0.104692
0.178522 0.178522 0.178522
0.309833 0.309833 0.309833
0.450482 0.450482 0.450482
0.581176 0.581176 0.581176
0.712710 0.712710 0.712710
0.821140 0.821140 0.821140
0.900092 0.900092 0.900092
0.086053 0.086053 0.086053
0.153497 0.153497 0.153497
0.239801 0.239801 0.239801
0.337868 0.337868 0.337868
0.477008 0.477008 0.477008
0.607577 0.607577 0.607577
0.736931 0.736931 0.736931
0.838544 0.838544 0.838544
0.913688 0.913688 0.913688
0.130315 0.130315 0.130315
0.211356 0.211356 0.211356
0.306736 0.306736 0.306736
0.407235 0.407235 0.407235
0.502909 0.502909 0.502909
0.634070 0.634070 0.634070
0.759968 0.759968 0.759968
0.854943 0.854943 0.854943
0.926846 0.926846 0.926846
0.184315 0.184315 0.184315
0.276109 0.276109 0.276109
0.376134 0.376134 0.376134
0.474089 0.474089 0.474089
0.565994 0.565994 0.565994
0.660392 0.660392 0.660392
0.781604 0.781604 0.781604
0.870472 0.870472 0.870472
0.939647 0.939647 0.939647
0.246290 0.246290 0.246290
0.344822 0.344822 0.344822
0.444498 0.444498 0.444498
0.537278 0.537278 0.537278
0.631129 0.631129 0.631129
0.723007 0.723007 0.723007
0.801647 0.801647 0.801647
0.885256 0.885256 0.885256
0.952154 0.952154 0.952154
0.313623 0.313623 0.313623
0.414086 0.414086 0.414086
0.509187 0.509187 0.509187
0.601693 0.601693 0.601693
0.695399 0.695399 0.695399
0.779274 0.779274 0.779274
0.845540 0.845540 0.845540
0.899407 0.899407 0.899407
0.964421 0.964421 0.964421
0.383076 0.383076 0.383076
0.480564 0.480564 0.480564
0.572440 0.572440 0.572440
0.666834 0.666834 0.666834
0.754963 0.754963 0.754963
0.826624 0.826624 0.826624
0.883649 0.883649 0.883649
0.932259 0.932259 0.932259
0.976487 0.976487 0.976487
0.000000 0.000000 0.000000
0.052168 0.052168 0.052168
0.132553 0.132553 0.132553
0.252175 0.252175 0.252175
0.392423 0.392423 0.392423
0.526602 0.526602 0.526602
0.658777 0.658777 0.658777
0.780316 0.780316 0.780316
0.869539 0.869539 0.869539
0.013527 0.013527 0.013527
0.067949 0.067949 0.067949
0.158627 0.158627 0.158627
0.285563 0.285563 0.285563
0.426681 0.426681 0.426681
0.558284 0.558284 0.558284
0.690696 0.690696 0.690696
0.804951 0.804951 0.804951
0.887744 0.887744 0.887744
0.039352 0.039352 0.039352
0.106901 0.106901 0.106901
0.181406 0.181406 0.181406
0.313278 0.313278 0.313278
0.453791 0.453791 0.453791
0.584422 0.584422 0.584422
0.715755 0.715755 0.715755
0.823345 0.823345 0.823345
0.901796 0.901796 0.901796
0.069647 0.069647 0.069647
0.156190 0.156190 0.156190
0.243037 0.243037 0.243037
0.341344 0.341344 0.341344
0.480241 0.480241 0.480241
0.610848 0.610848 0.610848
0.739839 0.739839 0.739839
0.840617 0.840617 0.840617
0.915333 0.915333 0.915333
0.109128 0.109128 0.109128
0.214449 0.214449 0.214449
0.310177 0.310177 0.310177
0.410665 0.410665 0.410665
0.506052 0.506052 0.506052
0.637333 0.637333 0.637333
0.762716 0.762716 0.762716
0.856904 0.856904 0.856904
0.928445 0.928445 0.928445
0.158899 0.158899 0.158899
0.279477 0.279477 0.279477
0.379606 0.379606 0.379606
0.477332 0.477332 0.477332
0.569215 0.569215 0.569215
0.663617 0.663617 0.663617
0.784171 0.784171 0.784171
0.872338 0.872338 0.872338
0.941207 0.941207 0.941207
0.217563 0.217563 0.217563
0.348302 0.348302 0.348302
0.447829 0.447829 0.447829
0.540441 0.540441 0.540441
0.634396 0.634396 0.634396
0.725997 0.725997 0.725997
0.804015 0.804015 0.804015
0.887036 0.887036 0.887036
0.953681 0.953681 0.953681
0.282857 0.282857 0.282857
0.417500 0.417500 0.417500
0.512309 0.512309 0.512309
0.604961 0.604961 0.604961
0.698521 0.698521 0.698521
0.781860 0.781860 0.781860
0.847566 0.847566 0.847566
0.901115 0.901115 0.901115
0.965920 0.965920 0.965920
0.351782 0.351782 0.351782
0.483789 0.483789 0.483789
0.575672 0.575672 0.575672
0.670046 0.670046 0.670046
0.757747 0.757747 0.757747
0.828792 0.828792 0.828792
0.885434 0.885434 0.885434
0.933841 0.933841 0.933841
0.977964 0.977964 0.977964
0.000000 0.000000 0.000000
0.042318 0.042318 0.042318
0.130315 0.130315 0.130315
0.249224 0.249224 0.249224
0.389311 0.389311 0.389311
0.523795 0.523795 0.523795
0.655865 0.655865 0.655865
0.777971 0.777971 0.777971
0.867844 0.867844 0.867844
0.005083 0.005083 0.005083
0.056936 0.056936 0.056936
0.156190 0.156190 0.156190
0.282518 0.282518 0.282518
0.423626 0.423626 0.423626
0.555402 0.555402 0.555402
0.687861 0.687861 0.687861
0.802833 0.802833 0.802833
0.886148 0.886148 0.886148
0.027412 0.027412 0.027412
0.088016 0.088016 0.088016
0.184315 0.184315 0.184315
0.316728 0.316728 0.316728
0.457088 0.457088 0.457088
0.587671 0.587671 0.587671
0.718790 0.718790 0.718790
0.825538 0.825538 0.825538
0.903494 0.903494 0.903494
0.055174 0.055174 0.055174
0.132801 0.132801 0.132801
0.246290 0.246290 0.246290
0.344822 0.344822 0.344822
0.483468 0.483468 0.483468
0.614120 0.614120 0.614120
0.742735 0.742735 0.742735
0.842678 0.842678 0.842678
0.916973 0.916973 0.916973
0.090014 0.090014 0.090014
0.187244 0.187244 0.187244
0.313623 0.313623 0.313623
0.414086 0.414086 0.414086
0.509187 0.509187 0.509187
0.640594 0.640594 0.640594
0.765445 0.765445 0.765445
0.858852 0.858852 0.858852
0.930037 0.930037 0.930037
0.135304 0.135304 0.135304
0.249552 0.249552 0.249552
0.383076 0.383076 0.383076
0.480564 0.480564 0.480564
0.572440 0.572440 0.572440
0.666834 0.666834 0.666834
0.786706 0.786706 0.786706
0.874187 0.874187 0.874187
0.942760 0.942760 0.942760
0.190187 0.190187 0.190187
0.317073 0.317073 0.317073
0.451145 0.451145 0.451145
0.543609 0.543609 0.543609
0.637660 0.637660 0.637660
0.728975 0.728975 0.728975
0.806356 0.806356 0.806356
0.888805 0.888805 0.888805
0.955204 0.955204 0.955204
0.252831 0.252831 0.252831
0.386541 0.386541 0.386541
0.515415 0.515415 0.515415
0.608231 0.608231 0.608231
0.701627 0.701627 0.701627
0.784428 0.784428 0.784428
0.849577 0.849577 0.849577
0.902817 0.902817 0.902817
0.967418 0.967418 0.967418
0.320530 0.320530 0.320530
0.454450 0.454450 0.454450
0.578908 0.578908 0.578908
0.673247 0.673247 0.673247
0.760517 0.760517 0.760517
0.830938 0.830938 0.830938
0.887213 0.887213 0.887213
0.935416 0.935416 0.935416
0.979439 0.979439 0.979439
0.000000 0.000000 0.000000
0.033031 0.033031 0.033031
0.114006 0.114006 0.114006
0.246290 0.246290 0.246290
0.386194 0.386194 0.386194
0.520998 0.520998 0.520998
0.652950 0.652950 0.652950
0.775614 0.775614 0.775614
0.866145 0.866145 0.866145
0.000000 0.000000 0.000000
0.046766 0.046766 0.046766
0.138207 0.138207 0.138207
0.279477 0.279477 0.279477
0.420569 0.420569 0.420569
0.552523 0.552523 0.552523
0.685020 0.685020 0.685020
0.800699 0.800699 0.800699
0.884542 0.884542 0.884542
0.018704 0.018704 0.018704
0.075140 0.075140 0.075140
0.164817 0.164817 0.164817
0.313623 0.313623 0.313623
0.454120 0.454120 0.454120
0.584747 0.584747 0.584747
0.716059 0.716059 0.716059
0.823564 0.823564 0.823564
0.901966 0.901966 0.901966
0.042108 0.042108 0.042108
0.111378 0.111378 0.111378
0.217563 0.217563 0.217563
0.348302 0.348302 0.348302
0.486681 0.486681 0.486681
0.617392 0.617392 0.617392
0.745611 0.745611 0.745611
0.844727 0.844727 0.844727
0.918609 0.918609 0.918609
0.073103 0.073103 0.073103
0.161642 0.161642 0.161642
0.282857 0.282857 0.282857
0.417500 0.417500 0.417500
0.512309 0.512309 0.512309
0.643853 0.643853 0.643853
0.768158 0.768158 0.768158
0.860790 0.860790 0.860790
0.931626 0.931626 0.931626
0.113662 0.113662 0.113662
0.220694 0.220694 0.220694
0.351782 0.351782 0.351782
0.483789 0.483789 0.483789
0.575672 0.575672 0.575672
0.670046 0.670046 0.670046
0.789224 0.789224 0.789224
0.876029 0.876029 0.876029
0.944310 0.944310 0.944310
0.164400 0.164400 0.164400
0.286243 0.286243 0.286243
0.420909 0.420909 0.420909
0.546786 0.546786 0.546786
0.640920 0.640920 0.640920
0.731936 0.731936 0.731936
0.808680 0.808680 0.808680
0.890565 0.890565 0.890565
0.956723 0.956723 0.956723
0.223835 0.223835 0.223835
0.355263 0.355263 0.355263
0.487002 0.487002 0.487002
0.611502 0.611502 0.611502
0.704725 0.704725 0.704725
0.786959 0.786959 0.786959
0.851578 0.851578 0.851578
0.904508 0.904508 0.904508
0.968911 0.968911 0.968911
0.289639 0.289639 0.289639
0.424305 0.424305 0.424305
0.549972 0.549972 0.549972
0.676441 0.676441 0.676441
0.763266 0.763266 0.763266
0.833070 0.833070 0.833070
0.888982 0.888982 0.888982
0.936987 0.936987 0.936987
0.980911 0.980911 0.980911
0.000000 0.000000 0.000000
0.024142 0.024142 0.024142
0.098882 0.098882 0.098882
0.224310 0.224310 0.224310
0.383076 0.383076 0.383076
0.518206 0.518206 0.518206
0.650030 0.650030 0.650030
0.773236 0.773236 0.773236
0.864433 0.864433 0.864433
0.000000 0.000000 0.000000
0.037244 0.037244 0.037244
0.121363 0.121363 0.121363
0.256617 0.256617 0.256617
0.417500 0.417500 0.417500
0.549653 0.549653 0.549653
0.682167 0.682167 0.682167
0.798542 0.798542 0.798542
0.882929 0.882929 0.882929
0.010188 0.010188 0.010188
0.063492 0.063492 0.063492
0.146338 0.146338 0.146338
0.290149 0.290149 0.290149
0.451145 0.451145 0.451145
0.581825 0.581825 0.581825
0.713322 0.713322 0.713322
0.821585 0.821585 0.821585
0.900434 0.900434 0.900434
0.032833 0.032833 0.032833
0.096464 0.096464 0.096464
0.196595 0.196595 0.196595
0.324510 0.324510 0.324510
0.483789 0.483789 0.483789
0.614447 0.614447 0.614447
0.743023 0.743023 0.743023
0.842883 0.842883 0.842883
0.917137 0.917137 0.917137
0.058248 0.058248 0.058248
0.137828 0.137828 0.137828
0.252831 0.252831 0.252831
0.386541 0.386541 0.386541
0.515415 0.515415 0.515415
0.647105 0.647105 0.647105
0.770837 0.770837 0.770837
0.862712 0.862712 0.862712
0.933208 0.933208 0.933208
0.094076 0.094076 0.094076
0.193159 0.193159 0.193159
0.320530 0.320530 0.320530
0.454450 0.454450 0.454450
0.578908 0.578908 0.578908
0.673247 0.673247 0.673247
0.791713 0.791713 0.791713
0.877860 0.877860 0.877860
0.945857 0.945857 0.945857
0.140385 0.140385 0.140385
0.256122 0.256122 0.256122
0.390002 0.390002 0.390002
0.518516 0.518516 0.518516
0.644179 0.644179 0.644179
0.734877 0.734877 0.734877
0.810991 0.810991 0.810991
0.892318 0.892318 0.892318
0.958240 0.958240 0.958240
0.196145 0.196145 0.196145
0.323990 0.323990 0.323990
0.457747 0.457747 0.457747
0.582149 0.582149 0.582149
0.707807 0.707807 0.707807
0.789473 0.789473 0.789473
0.853560 0.853560 0.853560
0.906193 0.906193 0.906193
0.970402 0.970402 0.970402
0.259422 0.259422 0.259422
0.393460 0.393460 0.393460
0.521618 0.521618 0.521618
0.647430 0.647430 0.647430
0.765988 0.765988 0.765988
0.835191 0.835191 0.835191
0.890740 0.890740 0.890740
0.938554 0.938554 0.938554
0.982380 0.982380 0.982380
0.000000 0.000000 0.000000
0.015516 0.015516 0.015516
0.084980 0.084980 0.084980
0.203084 0.203084 0.203084
0.359266 0.359266 0.359266
0.515415 0.515415 0.515415
0.647105 0.647105 0.647105
0.770837 0.770837 0.770837
0.862712 0.862712 0.862712
0.000000 0.000000 0.000000
0.028190 0.028190 0.028190
0.105686 0.105686 0.105686
0.234330 0.234330 0.234330
0.393979 0.393979 0.393979
0.546786 0.546786 0.546786
0.679310 0.679310 0.679310
0.796376 0.796376 0.796376
0.881310 0.881310 0.881310
0.001774 0.001774 0.001774
0.052837 0.052837 0.052837
0.128969 0.128969 0.128969
0.267066 0.267066 0.267066
0.428202 0.428202 0.428202
0.578908 0.578908 0.578908
0.710569 0.710569 0.710569
0.819582 0.819582 0.819582
0.898892 0.898892 0.898892
0.023951 0.023951 0.023951
0.082777 0.082777 0.082777
0.176508 0.176508 0.176508
0.300903 0.300903 0.300903
0.461522 0.461522 0.461522
0.611502 0.611502 0.611502
0.740420 0.740420 0.740420
0.841031 0.841031 0.841031
0.915662 0.915662 0.915662
0.047990 0.047990 0.047990
0.121007 0.121007 0.121007
0.230657 0.230657 0.230657
0.362747 0.362747 0.362747
0.493876 0.493876 0.493876
0.644179 0.644179 0.644179
0.768426 0.768426 0.768426
0.860983 0.860983 0.860983
0.931784 0.931784 0.931784
0.076659 0.076659 0.076659
0.167178 0.167178 0.167178
0.289639 0.289639 0.289639
0.424305 0.424305 0.424305
0.549972 0.549972 0.549972
0.676441 0.676441 0.676441
0.794174 0.794174 0.794174
0.879678 0.879678 0.879678
0.947398 0.947398 0.947398
0.118294 0.118294 0.118294
0.227001 0.227001 0.227001
0.358744 0.358744 0.358744
0.490204 0.490204 0.490204
0.614774 0.614774 0.614774
0.737805 0.737805 0.737805
0.813274 0.813274 0.813274
0.894059 0.894059 0.894059
0.959752 0.959752 0.959752
0.169986 0.169986 0.169986
0.293045 0.293045 0.293045
0.427695 0.427695 0.427695
0.553163 0.553163 0.553163
0.679628 0.679628 0.679628
0.791962 0.791962 0.791962
0.855531 0.855531 0.855531
0.907871 0.907871 0.907871
0.971891 0.971891 0.971891
0.230178 0.230178 0.230178
0.362225 0.362225 0.362225
0.493399 0.493399 0.493399
0.618047 0.618047 0.618047
0.740711 0.740711 0.740711
0.837287 0.837287 0.837287
0.892493 0.892493 0.892493
0.940115 0.940115 0.940115
0.983848 0.983848 0.983848
0.000000 0.000000 0.000000
0.007048 0.007048 0.007048
0.072406 0.072406 0.072406
0.182715 0.182715 0.182715
0.335436 0.335436 0.335436
0.493876 0.493876 0.493876
0.644179 0.644179 0.644179
0.768426 0.768426 0.768426
0.860983 0.860983 0.860983
0.000000 0.000000 0.000000
0.019457 0.019457 0.019457
0.091217 0.091217 0.091217
0.212745 0.212745 0.212745
0.370226 0.370226 0.370226
0.525198 0.525198 0.525198
0.676441 0.676441 0.676441
0.794174 0.794174 0.794174
0.879678 0.879678 0.879678
0.000000 0.000000 0.000000
0.042948 0.042948 0.042948
0.112746 0.112746 0.112746
0.244498 0.244498 0.244498
0.404833 0.404833 0.404833
0.556842 0.556842 0.556842
0.707807 0.707807 0.707807
0.817572 0.817572 0.817572
0.897347 0.897347 0.897347
0.015329 0.015329 0.015329
0.070414 0.070414 0.070414
0.157409 0.157409 0.157409
0.277624 0.277624 0.277624
0.438814 0.438814 0.438814
0.589136 0.589136 0.589136
0.737805 0.737805 0.737805
0.839166 0.839166 0.839166
0.914181 0.914181 0.914181
0.038397 0.038397 0.038397
0.105354 0.105354 0.105354
0.209195 0.209195 0.209195
0.338910 0.338910 0.338910
0.471814 0.471814 0.471814
0.621809 0.621809 0.621809
0.765988 0.765988 0.765988
0.859240 0.859240 0.859240
0.930355 0.930355 0.930355
0.064880 0.064880 0.064880
0.148579 0.148579 0.148579
0.266565 0.266565 0.266565
0.400875 0.400875 0.400875
0.528321 0.528321 0.528321
0.654410 0.654410 0.654410
0.791962 0.791962 0.791962
0.878044 0.878044 0.878044
0.946012 0.946012 0.946012
0.098243 0.098243 0.098243
0.199147 0.199147 0.199147
0.327454 0.327454 0.327454
0.461030 0.461030 0.461030
0.585397 0.585397 0.585397
0.710875 0.710875 0.710875
0.815544 0.815544 0.815544
0.895793 0.895793 0.895793
0.961261 0.961261 0.961261
0.145557 0.145557 0.145557
0.262739 0.262739 0.262739
0.396912 0.396912 0.396912
0.524731 0.524731 0.524731
0.650679 0.650679 0.650679
0.768694 0.768694 0.768694
0.857493 0.857493 0.857493
0.909541 0.909541 0.909541
0.973376 0.973376 0.973376
0.202175 0.202175 0.202175
0.330923 0.330923 0.330923
0.464307 0.464307 0.464307
0.588648 0.588648 0.588648
0.713933 0.713933 0.713933
0.817797 0.817797 0.817797
0.894233 0.894233 0.894233
0.941673 0.941673 0.941673
0.985312 0.985312 0.985312
0.000000 0.000000 0.000000
0.000000 0.000000 0.000000
0.061003 0.061003 0.061003
0.163289 0.163289 0.163289
0.311726 0.311726 0.311726
0.471814 0.471814 0.471814
0.621809 0.621809 0.621809
0.765988 0.765988 0.765988
0.859240 0.859240 0.859240
0.000000 0.000000 0.000000
0.010929 0.010929 0.010929
0.078028 0.078028 0.078028
0.191970 0.191970 0.191970
0.346388 0.346388 0.346388
0.503853 0.503853 0.503853
0.654410 0.654410 0.654410
0.791962 0.791962 0.791962
0.878044 0.878044 0.878044
0.000000 0.000000 0.000000
0.033626 0.033626 0.033626
0.097716 0.097716 0.097716
0.222578 0.222578 0.222578
0.381168 0.381168 0.381168
0.535073 0.535073 0.535073
0.686440 0.686440 0.686440
0.815544 0.815544 0.815544
0.895793 0.895793 0.895793
0.006864 0.006864 0.006864
0.059190 0.059190 0.059190
0.139360 0.139360 0.139360
0.254803 0.254803 0.254803
0.415625 0.415625 0.415625
0.566959 0.566959 0.566959
0.717425 0.717425 0.717425
0.837287 0.837287 0.837287
0.912696 0.912696 0.912696
0.029292 0.029292 0.029292
0.090916 0.090916 0.090916
0.188568 0.188568 0.188568
0.315175 0.315175 0.315175
0.449321 0.449321 0.449321
0.599407 0.599407 0.599407
0.746899 0.746899 0.746899
0.857493 0.857493 0.857493
0.928924 0.928924 0.928924
0.054115 0.054115 0.054115
0.131061 0.131061 0.131061
0.244010 0.244010 0.244010
0.377177 0.377177 0.377177
0.506995 0.506995 0.506995
0.632109 0.632109 0.632109
0.774425 0.774425 0.774425
0.876395 0.876395 0.876395
0.944620 0.944620 0.944620
0.084406 0.084406 0.084406
0.178954 0.178954 0.178954
0.303819 0.303819 0.303819
0.438311 0.438311 0.438311
0.563260 0.563260 0.563260
0.689597 0.689597 0.689597
0.799625 0.799625 0.799625
0.894233 0.894233 0.894233
0.959903 0.959903 0.959903
0.123027 0.123027 0.123027
0.233368 0.233368 0.233368
0.365704 0.365704 0.365704
0.496578 0.496578 0.496578
0.621319 0.621319 0.621319
0.743598 0.743598 0.743598
0.839373 0.839373 0.839373
0.911205 0.911205 0.911205
0.974859 0.974859 0.974859
0.175653 0.175653 0.175653
0.299877 0.299877 0.299877
0.434446 0.434446 0.434446
0.559567 0.559567 0.559567
0.685967 0.685967 0.685967
0.796857 0.796857 0.796857
0.878226 0.878226 0.878226
0.943226 0.943226 0.943226
0.986775 0.986775 0.986775
0.000000 0.000000 0.000000
0.000000 0.000000 0.000000
0.050539 0.050539 0.050539
0.144908 0.144908 0.144908
0.288281 0.288281 0.288281
0.449321 0.449321 0.449321
0.599407 0.599407 0.599407
0.746899 0.746899 0.746899
0.857493 0.857493 0.857493
0.000000 0.000000 0.000000
0.002509 0.002509 0.002509
0.066115 0.066115 0.066115
0.172096 0.172096 0.172096
0.322605 0.322605 0.322605
0.482017 0.482017 0.482017
0.632109 0.632109 0.632109
0.774425 0.774425 0.774425
0.876395 0.876395 0.876395
0.000000 0.000000 0.000000
0.024717 0.024717 0.024717
0.083926 0.083926 0.083926
0.201417 0.201417 0.201417
0.357352 0.357352 0.357352
0.513709 0.513709 0.513709
0.664584 0.664584 0.664584
0.799625 0.799625 0.799625
0.894233 0.894233 0.894233
0.000000 0.000000 0.000000
0.048857 0.048857 0.048857
0.122429 0.122429 0.122429
0.232571 0.232571 0.232571
0.392077 0.392077 0.392077
0.545039 0.545039 0.545039
0.696336 0.696336 0.696336
0.822575 0.822575 0.822575
0.911205 0.911205 0.911205
0.020528 0.020528 0.020528
0.077754 0.077754 0.077754
0.168861 0.168861 0.168861
0.291681 0.291681 0.291681
0.426342 0.426342 0.426342
0.577126 0.577126 0.577126
0.726893 0.726893 0.726893
0.843805 0.843805 0.843805
0.927486 0.927486 0.927486
0.044137 0.044137 0.044137
0.114693 0.114693 0.114693
0.222107 0.222107 0.222107
0.353348 0.353348 0.353348
0.485235 0.485235 0.485235
0.609703 0.609703 0.609703
0.755800 0.755800 0.755800
0.863576 0.863576 0.863576
0.943226 0.943226 0.943226
0.071883 0.071883 0.071883
0.159722 0.159722 0.159722
0.280489 0.280489 0.280489
0.415113 0.415113 0.415113
0.541390 0.541390 0.541390
0.667798 0.667798 0.667798
0.782631 0.782631 0.782631
0.882119 0.882119 0.882119
0.958542 0.958542 0.958542
0.107232 0.107232 0.107232
0.211819 0.211819 0.211819
0.341866 0.341866 0.341866
0.474576 0.474576 0.474576
0.598917 0.598917 0.598917
0.723458 0.723458 0.723458
0.824773 0.824773 0.824773
0.899664 0.899664 0.899664
0.973524 0.973524 0.973524
0.150825 0.150825 0.150825
0.269400 0.269400 0.269400
0.403801 0.403801 0.403801
0.530985 0.530985 0.530985
0.657160 0.657160 0.657160
0.774029 0.774029 0.774029
0.861367 0.861367 0.861367
0.929083 0.929083 0.929083
0.988235 0.988235 0.988235
