ricette/lut/Architettura-di-pietra-33.cube
# LUT generata da Camera Oscura BN
# Ricetta: Architettura di pietra
# Pellicola: pietra
# Nota: grana, vignetta e interventi locali non sono inclusi nella LUT.
TITLE "Architettura di pietra"
LUT_3D_SIZE 33
DOMAIN_MIN 0.0 0.0 0.0
DOMAIN_MAX 1.0 1.0 1.0
0.000000 0.000000 0.000000
0.012567 0.012567 0.012567
0.025419 0.025419 0.025419
0.038908 0.038908 0.038908
0.053509 0.053509 0.053509
0.069860 0.069860 0.069860
0.088711 0.088711 0.088711
0.110422 0.110422 0.110422
0.134799 0.134799 0.134799
0.161710 0.161710 0.161710
0.190930 0.190930 0.190930
0.222185 0.222185 0.222185
0.255133 0.255133 0.255133
0.289385 0.289385 0.289385
0.324510 0.324510 0.324510
0.360049 0.360049 0.360049
0.395531 0.395531 0.395531
0.430485 0.430485 0.430485
0.464471 0.464471 0.464471
0.497452 0.497452 0.497452
0.529418 0.529418 0.529418
0.561894 0.561894 0.561894
0.595001 0.595001 0.595001
0.628433 0.628433 0.628433
0.661682 0.661682 0.661682
0.694228 0.694228 0.694228
0.725549 0.725549 0.725549
0.755174 0.755174 0.755174
0.782631 0.782631 0.782631
0.807583 0.807583 0.807583
0.830402 0.830402 0.830402
0.851528 0.851528 0.851528
0.871218 0.871218 0.871218
0.006127 0.006127 0.006127
0.015081 0.015081 0.015081
0.028028 0.028028 0.028028
0.041693 0.041693 0.041693
0.056589 0.056589 0.056589
0.073364 0.073364 0.073364
0.092797 0.092797 0.092797
0.115036 0.115036 0.115036
0.139937 0.139937 0.139937
0.167317 0.167317 0.167317
0.196970 0.196970 0.196970
0.228584 0.228584 0.228584
0.261827 0.261827 0.261827
0.296284 0.296284 0.296284
0.331530 0.331530 0.331530
0.367096 0.367096 0.367096
0.402510 0.402510 0.402510
0.437306 0.437306 0.437306
0.471081 0.471081 0.471081
0.503853 0.503853 0.503853
0.535782 0.535782 0.535782
0.568409 0.568409 0.568409
0.601611 0.601611 0.601611
0.635049 0.635049 0.635049
0.668200 0.668200 0.668200
0.700542 0.700542 0.700542
0.731566 0.731566 0.731566
0.760792 0.760792 0.760792
0.787781 0.787781 0.787781
0.812247 0.812247 0.812247
0.834713 0.834713 0.834713
0.855531 0.855531 0.855531
0.874973 0.874973 0.874973
0.012289 0.012289 0.012289
0.021347 0.021347 0.021347
0.030663 0.030663 0.030663
0.044526 0.044526 0.044526
0.059739 0.059739 0.059739
0.076979 0.076979 0.076979
0.096986 0.096986 0.096986
0.119763 0.119763 0.119763
0.145168 0.145168 0.145168
0.173021 0.173021 0.173021
0.203084 0.203084 0.203084
0.235053 0.235053 0.235053
0.268566 0.268566 0.268566
0.303218 0.303218 0.303218
0.338563 0.338563 0.338563
0.374137 0.374137 0.374137
0.409466 0.409466 0.409466
0.444081 0.444081 0.444081
0.477657 0.477657 0.477657
0.510201 0.510201 0.510201
0.542181 0.542181 0.542181
0.574945 0.574945 0.574945
0.608231 0.608231 0.608231
0.641653 0.641653 0.641653
0.674688 0.674688 0.674688
0.706805 0.706805 0.706805
0.737515 0.737515 0.737515
0.766327 0.766327 0.766327
0.792827 0.792827 0.792827
0.816839 0.816839 0.816839
0.838959 0.838959 0.838959
0.859483 0.859483 0.859483
0.878680 0.878680 0.878680
0.018516 0.018516 0.018516
0.027736 0.027736 0.027736
0.037311 0.037311 0.037311
0.047414 0.047414 0.047414
0.062964 0.062964 0.062964
0.080708 0.080708 0.080708
0.101276 0.101276 0.101276
0.124593 0.124593 0.124593
0.150491 0.150491 0.150491
0.178810 0.178810 0.178810
0.209272 0.209272 0.209272
0.241581 0.241581 0.241581
0.275351 0.275351 0.275351
0.310177 0.310177 0.310177
0.345605 0.345605 0.345605
0.381168 0.381168 0.381168
0.416392 0.416392 0.416392
0.450814 0.450814 0.450814
0.484191 0.484191 0.484191
0.516500 0.516500 0.516500
0.548617 0.548617 0.548617
0.581501 0.581501 0.581501
0.614856 0.614856 0.614856
0.648243 0.648243 0.648243
0.681135 0.681135 0.681135
0.713016 0.713016 0.713016
0.743382 0.743382 0.743382
0.771775 0.771775 0.771775
0.797760 0.797760 0.797760
0.821362 0.821362 0.821362
0.843139 0.843139 0.843139
0.863385 0.863385 0.863385
0.882344 0.882344 0.882344
0.024844 0.024844 0.024844
0.034293 0.034293 0.034293
0.044207 0.044207 0.044207
0.054795 0.054795 0.054795
0.066282 0.066282 0.066282
0.084549 0.084549 0.084549
0.105686 0.105686 0.105686
0.129519 0.129519 0.129519
0.155919 0.155919 0.155919
0.184679 0.184679 0.184679
0.215539 0.215539 0.215539
0.248163 0.248163 0.248163
0.282180 0.282180 0.282180
0.317159 0.317159 0.317159
0.352652 0.352652 0.352652
0.388186 0.388186 0.388186
0.423286 0.423286 0.423286
0.457500 0.457500 0.457500
0.490684 0.490684 0.490684
0.522781 0.522781 0.522781
0.555082 0.555082 0.555082
0.588078 0.588078 0.588078
0.621482 0.621482 0.621482
0.654814 0.654814 0.654814
0.687545 0.687545 0.687545
0.719166 0.719166 0.719166
0.749176 0.749176 0.749176
0.777125 0.777125 0.777125
0.802596 0.802596 0.802596
0.825809 0.825809 0.825809
0.847262 0.847262 0.847262
0.867232 0.867232 0.867232
0.885969 0.885969 0.885969
0.031317 0.031317 0.031317
0.041071 0.041071 0.041071
0.051424 0.051424 0.051424
0.062604 0.062604 0.062604
0.074872 0.074872 0.074872
0.088510 0.088510 0.088510
0.110196 0.110196 0.110196
0.134547 0.134547 0.134547
0.161436 0.161436 0.161436
0.190633 0.190633 0.190633
0.221871 0.221871 0.221871
0.254803 0.254803 0.254803
0.289045 0.289045 0.289045
0.324163 0.324163 0.324163
0.359701 0.359701 0.359701
0.395186 0.395186 0.395186
0.430147 0.430147 0.430147
0.464144 0.464144 0.464144
0.497134 0.497134 0.497134
0.529104 0.529104 0.529104
0.561573 0.561573 0.561573
0.594675 0.594675 0.594675
0.628106 0.628106 0.628106
0.661359 0.661359 0.661359
0.693914 0.693914 0.693914
0.725250 0.725250 0.725250
0.754892 0.754892 0.754892
0.782374 0.782374 0.782374
0.807350 0.807350 0.807350
0.830187 0.830187 0.830187
0.851330 0.851330 0.851330
0.871032 0.871032 0.871032
0.889556 0.889556 0.889556
0.037988 0.037988 0.037988
0.048134 0.048134 0.048134
0.059033 0.059033 0.059033
0.070925 0.070925 0.070925
0.084118 0.084118 0.084118
0.098775 0.098775 0.098775
0.114807 0.114807 0.114807
0.139681 0.139681 0.139681
0.167039 0.167039 0.167039
0.196670 0.196670 0.196670
0.228267 0.228267 0.228267
0.261495 0.261495 0.261495
0.295943 0.295943 0.295943
0.331183 0.331183 0.331183
0.366748 0.366748 0.366748
0.402166 0.402166 0.402166
0.436971 0.436971 0.436971
0.470755 0.470755 0.470755
0.503539 0.503539 0.503539
0.535467 0.535467 0.535467
0.568087 0.568087 0.568087
0.601285 0.601285 0.601285
0.634722 0.634722 0.634722
0.667879 0.667879 0.667879
0.700232 0.700232 0.700232
0.731270 0.731270 0.731270
0.760517 0.760517 0.760517
0.787528 0.787528 0.787528
0.812019 0.812019 0.812019
0.834501 0.834501 0.834501
0.855335 0.855335 0.855335
0.874788 0.874788 0.874788
0.893102 0.893102 0.893102
0.044916 0.044916 0.044916
0.055552 0.055552 0.055552
0.067115 0.067115 0.067115
0.079866 0.079866 0.079866
0.094076 0.094076 0.094076
0.109690 0.109690 0.109690
0.126643 0.126643 0.126643
0.144908 0.144908 0.144908
0.172737 0.172737 0.172737
0.202781 0.202781 0.202781
0.234732 0.234732 0.234732
0.268233 0.268233 0.268233
0.302875 0.302875 0.302875
0.338215 0.338215 0.338215
0.373789 0.373789 0.373789
0.409123 0.409123 0.409123
0.443748 0.443748 0.443748
0.477332 0.477332 0.477332
0.509889 0.509889 0.509889
0.541864 0.541864 0.541864
0.574621 0.574621 0.574621
0.607904 0.607904 0.607904
0.641327 0.641327 0.641327
0.674368 0.674368 0.674368
0.706497 0.706497 0.706497
0.737224 0.737224 0.737224
0.766055 0.766055 0.766055
0.792582 0.792582 0.792582
0.816614 0.816614 0.816614
0.838752 0.838752 0.838752
0.859288 0.859288 0.859288
0.878499 0.878499 0.878499
0.896613 0.896613 0.896613
0.052168 0.052168 0.052168
0.063410 0.063410 0.063410
0.075764 0.075764 0.075764
0.089513 0.089513 0.089513
0.104692 0.104692 0.104692
0.121244 0.121244 0.121244
0.139104 0.139104 0.139104
0.158221 0.158221 0.158221
0.178522 0.178522 0.178522
0.208964 0.208964 0.208964
0.241257 0.241257 0.241257
0.275014 0.275014 0.275014
0.309833 0.309833 0.309833
0.345257 0.345257 0.345257
0.380821 0.380821 0.380821
0.416052 0.416052 0.416052
0.450482 0.450482 0.450482
0.483870 0.483870 0.483870
0.516190 0.516190 0.516190
0.548298 0.548298 0.548298
0.581176 0.581176 0.581176
0.614529 0.614529 0.614529
0.647918 0.647918 0.647918
0.680818 0.680818 0.680818
0.712710 0.712710 0.712710
0.743094 0.743094 0.743094
0.771507 0.771507 0.771507
0.797519 0.797519 0.797519
0.821140 0.821140 0.821140
0.842934 0.842934 0.842934
0.863192 0.863192 0.863192
0.882164 0.882164 0.882164
0.900092 0.900092 0.900092
0.059818 0.059818 0.059818
0.071796 0.071796 0.071796
0.085076 0.085076 0.085076
0.099839 0.099839 0.099839
0.115963 0.115963 0.115963
0.133423 0.133423 0.133423
0.152161 0.152161 0.152161
0.172096 0.172096 0.172096
0.193159 0.193159 0.193159
0.215227 0.215227 0.215227
0.247838 0.247838 0.247838
0.281842 0.281842 0.281842
0.316814 0.316814 0.316814
0.352304 0.352304 0.352304
0.387840 0.387840 0.387840
0.422947 0.422947 0.422947
0.457170 0.457170 0.457170
0.490364 0.490364 0.490364
0.522471 0.522471 0.522471
0.554762 0.554762 0.554762
0.587753 0.587753 0.587753
0.621155 0.621155 0.621155
0.654490 0.654490 0.654490
0.687230 0.687230 0.687230
0.718865 0.718865 0.718865
0.748891 0.748891 0.748891
0.776864 0.776864 0.776864
0.802359 0.802359 0.802359
0.825592 0.825592 0.825592
0.847060 0.847060 0.847060
0.867043 0.867043 0.867043
0.885791 0.885791 0.885791
0.903536 0.903536 0.903536
0.067949 0.067949 0.067949
0.080801 0.080801 0.080801
0.095107 0.095107 0.095107
0.110815 0.110815 0.110815
0.127867 0.127867 0.127867
0.146207 0.146207 0.146207
0.165789 0.165789 0.165789
0.186509 0.186509 0.186509
0.208275 0.208275 0.208275
0.230976 0.230976 0.230976
0.254473 0.254473 0.254473
0.288705 0.288705 0.288705
0.323817 0.323817 0.323817
0.359353 0.359353 0.359353
0.394841 0.394841 0.394841
0.429809 0.429809 0.429809
0.463817 0.463817 0.463817
0.496817 0.496817 0.496817
0.528791 0.528791 0.528791
0.561252 0.561252 0.561252
0.594349 0.594349 0.594349
0.627779 0.627779 0.627779
0.661037 0.661037 0.661037
0.693600 0.693600 0.693600
0.724951 0.724951 0.724951
0.754611 0.754611 0.754611
0.782117 0.782117 0.782117
0.807116 0.807116 0.807116
0.829972 0.829972 0.829972
0.851130 0.851130 0.851130
0.870845 0.870845 0.870845
0.889380 0.889380 0.889380
0.906948 0.906948 0.906948
0.076659 0.076659 0.076659
0.090515 0.090515 0.090515
0.105796 0.105796 0.105796
0.122429 0.122429 0.122429
0.140385 0.140385 0.140385
0.159585 0.159585 0.159585
0.179961 0.179961 0.179961
0.201417 0.201417 0.201417
0.223835 0.223835 0.223835
0.247105 0.247105 0.247105
0.271075 0.271075 0.271075
0.295602 0.295602 0.295602
0.330836 0.330836 0.330836
0.366400 0.366400 0.366400
0.401822 0.401822 0.401822
0.436635 0.436635 0.436635
0.470429 0.470429 0.470429
0.503224 0.503224 0.503224
0.535152 0.535152 0.535152
0.567764 0.567764 0.567764
0.600958 0.600958 0.600958
0.634396 0.634396 0.634396
0.667557 0.667557 0.667557
0.699921 0.699921 0.699921
0.730974 0.730974 0.730974
0.760243 0.760243 0.760243
0.787275 0.787275 0.787275
0.811791 0.811791 0.811791
0.834289 0.834289 0.834289
0.855139 0.855139 0.855139
0.874603 0.874603 0.874603
0.892928 0.892928 0.892928
0.910332 0.910332 0.910332
0.086053 0.086053 0.086053
0.100904 0.100904 0.100904
0.117129 0.117129 0.117129
0.134673 0.134673 0.134673
0.153497 0.153497 0.153497
0.173519 0.173519 0.173519
0.194645 0.194645 0.194645
0.216784 0.216784 0.216784
0.239801 0.239801 0.239801
0.263568 0.263568 0.263568
0.287941 0.287941 0.287941
0.312760 0.312760 0.312760
0.337868 0.337868 0.337868
0.373442 0.373442 0.373442
0.408780 0.408780 0.408780
0.443414 0.443414 0.443414
0.477008 0.477008 0.477008
0.509577 0.509577 0.509577
0.541548 0.541548 0.541548
0.574298 0.574298 0.574298
0.607577 0.607577 0.607577
0.641002 0.641002 0.641002
0.674048 0.674048 0.674048
0.706189 0.706189 0.706189
0.736931 0.736931 0.736931
0.765784 0.765784 0.765784
0.792335 0.792335 0.792335
0.816389 0.816389 0.816389
0.838544 0.838544 0.838544
0.859094 0.859094 0.859094
0.878317 0.878317 0.878317
0.896441 0.896441 0.896441
0.913688 0.913688 0.913688
0.096151 0.096151 0.096151
0.111944 0.111944 0.111944
0.129091 0.129091 0.129091
0.147524 0.147524 0.147524
0.167178 0.167178 0.167178
0.187980 0.187980 0.187980
0.209812 0.209812 0.209812
0.232571 0.232571 0.232571
0.256122 0.256122 0.256122
0.280320 0.280320 0.280320
0.305020 0.305020 0.305020
0.330055 0.330055 0.330055
0.355263 0.355263 0.355263
0.380474 0.380474 0.380474
0.415711 0.415711 0.415711
0.450150 0.450150 0.450150
0.483548 0.483548 0.483548
0.515880 0.515880 0.515880
0.547979 0.547979 0.547979
0.580852 0.580852 0.580852
0.614201 0.614201 0.614201
0.647593 0.647593 0.647593
0.680501 0.680501 0.680501
0.712404 0.712404 0.712404
0.742807 0.742807 0.742807
0.771239 0.771239 0.771239
0.797278 0.797278 0.797278
0.820917 0.820917 0.820917
0.842730 0.842730 0.842730
0.863000 0.863000 0.863000
0.881984 0.881984 0.881984
0.899921 0.899921 0.899921
0.917014 0.917014 0.917014
0.106901 0.106901 0.106901
0.123629 0.123629 0.123629
0.141666 0.141666 0.141666
0.160956 0.160956 0.160956
0.181406 0.181406 0.181406
0.202933 0.202933 0.202933
0.225418 0.225418 0.225418
0.248733 0.248733 0.248733
0.272751 0.272751 0.272751
0.297311 0.297311 0.297311
0.322259 0.322259 0.322259
0.347432 0.347432 0.347432
0.372660 0.372660 0.372660
0.397774 0.397774 0.397774
0.422607 0.422607 0.422607
0.456841 0.456841 0.456841
0.490045 0.490045 0.490045
0.522161 0.522161 0.522161
0.554443 0.554443 0.554443
0.587428 0.587428 0.587428
0.620828 0.620828 0.620828
0.654166 0.654166 0.654166
0.686914 0.686914 0.686914
0.718564 0.718564 0.718564
0.748606 0.748606 0.748606
0.776603 0.776603 0.776603
0.802121 0.802121 0.802121
0.825375 0.825375 0.825375
0.846857 0.846857 0.846857
0.866855 0.866855 0.866855
0.885613 0.885613 0.885613
0.903367 0.903367 0.903367
0.920316 0.920316 0.920316
0.118294 0.118294 0.118294
0.135935 0.135935 0.135935
0.154836 0.154836 0.154836
0.174941 0.174941 0.174941
0.196145 0.196145 0.196145
0.218342 0.218342 0.218342
0.241419 0.241419 0.241419
0.265231 0.265231 0.265231
0.289639 0.289639 0.289639
0.314485 0.314485 0.314485
0.339605 0.339605 0.339605
0.364834 0.364834 0.364834
0.390002 0.390002 0.390002
0.414942 0.414942 0.414942
0.439484 0.439484 0.439484
0.463489 0.463489 0.463489
0.496499 0.496499 0.496499
0.528477 0.528477 0.528477
0.560931 0.560931 0.560931
0.594023 0.594023 0.594023
0.627452 0.627452 0.627452
0.660714 0.660714 0.660714
0.693286 0.693286 0.693286
0.724652 0.724652 0.724652
0.754329 0.754329 0.754329
0.781860 0.781860 0.781860
0.806882 0.806882 0.806882
0.829758 0.829758 0.829758
0.850930 0.850930 0.850930
0.870659 0.870659 0.870659
0.889203 0.889203 0.889203
0.906781 0.906781 0.906781
0.923594 0.923594 0.923594
0.130315 0.130315 0.130315
0.148842 0.148842 0.148842
0.168580 0.168580 0.168580
0.189450 0.189450 0.189450
0.211356 0.211356 0.211356
0.234170 0.234170 0.234170
0.257771 0.257771 0.257771
0.282011 0.282011 0.282011
0.306736 0.306736 0.306736
0.331790 0.331790 0.331790
0.357003 0.357003 0.357003
0.382209 0.382209 0.382209
0.407235 0.407235 0.407235
0.431921 0.431921 0.431921
0.456099 0.456099 0.456099
0.479757 0.479757 0.479757
0.502909 0.502909 0.502909
0.534837 0.534837 0.534837
0.567442 0.567442 0.567442
0.600631 0.600631 0.600631
0.634070 0.634070 0.634070
0.667236 0.667236 0.667236
0.699611 0.699611 0.699611
0.730678 0.730678 0.730678
0.759968 0.759968 0.759968
0.787022 0.787022 0.787022
0.811562 0.811562 0.811562
0.834077 0.834077 0.834077
0.854943 0.854943 0.854943
0.874418 0.874418 0.874418
0.892754 0.892754 0.892754
0.910166 0.910166 0.910166
0.926846 0.926846 0.926846
0.142958 0.142958 0.142958
0.162328 0.162328 0.162328
0.182860 0.182860 0.182860
0.204451 0.204451 0.204451
0.227001 0.227001 0.227001
0.250372 0.250372 0.250372
0.274427 0.274427 0.274427
0.299021 0.299021 0.299021
0.323990 0.323990 0.323990
0.349172 0.349172 0.349172
0.374397 0.374397 0.374397
0.399499 0.399499 0.399499
0.424305 0.424305 0.424305
0.448658 0.448658 0.448658
0.472465 0.472465 0.472465
0.495783 0.495783 0.495783
0.518516 0.518516 0.518516
0.541232 0.541232 0.541232
0.573975 0.573975 0.573975
0.607250 0.607250 0.607250
0.640676 0.640676 0.640676
0.673728 0.673728 0.673728
0.705881 0.705881 0.705881
0.736637 0.736637 0.736637
0.765513 0.765513 0.765513
0.792086 0.792086 0.792086
0.816164 0.816164 0.816164
0.838335 0.838335 0.838335
0.858900 0.858900 0.858900
0.878135 0.878135 0.878135
0.896268 0.896268 0.896268
0.913523 0.913523 0.913523
0.930077 0.930077 0.930077
0.156190 0.156190 0.156190
0.176364 0.176364 0.176364
0.197646 0.197646 0.197646
0.219909 0.219909 0.219909
0.243037 0.243037 0.243037
0.266899 0.266899 0.266899
0.291340 0.291340 0.291340
0.316211 0.316211 0.316211
0.341344 0.341344 0.341344
0.366574 0.366574 0.366574
0.391731 0.391731 0.391731
0.416648 0.416648 0.416648
0.441160 0.441160 0.441160
0.465125 0.465125 0.465125
0.488606 0.488606 0.488606
0.511528 0.511528 0.511528
0.534128 0.534128 0.534128
0.557162 0.557162 0.557162
0.580528 0.580528 0.580528
0.613874 0.613874 0.613874
0.647268 0.647268 0.647268
0.680184 0.680184 0.680184
0.712098 0.712098 0.712098
0.742519 0.742519 0.742519
0.770971 0.770971 0.770971
0.797038 0.797038 0.797038
0.820695 0.820695 0.820695
0.842525 0.842525 0.842525
0.862808 0.862808 0.862808
0.881804 0.881804 0.881804
0.899750 0.899750 0.899750
0.916851 0.916851 0.916851
0.933287 0.933287 0.933287
0.169986 0.169986 0.169986
0.190930 0.190930 0.190930
0.212900 0.212900 0.212900
0.235776 0.235776 0.235776
0.259422 0.259422 0.259422
0.283702 0.283702 0.283702
0.308456 0.308456 0.308456
0.333525 0.333525 0.333525
0.358744 0.358744 0.358744
0.383942 0.383942 0.383942
0.408951 0.408951 0.408951
0.433604 0.433604 0.433604
0.457747 0.457747 0.457747
0.481371 0.481371 0.481371
0.504481 0.504481 0.504481
0.527070 0.527070 0.527070
0.549972 0.549972 0.549972
0.573248 0.573248 0.573248
0.596795 0.596795 0.596795
0.620501 0.620501 0.620501
0.653842 0.653842 0.653842
0.686598 0.686598 0.686598
0.718260 0.718260 0.718260
0.748322 0.748322 0.748322
0.776341 0.776341 0.776341
0.801884 0.801884 0.801884
0.825158 0.825158 0.825158
0.846655 0.846655 0.846655
0.866667 0.866667 0.866667
0.885434 0.885434 0.885434
0.903198 0.903198 0.903198
0.920153 0.920153 0.920153
0.936477 0.936477 0.936477
0.184315 0.184315 0.184315
0.205981 0.205981 0.205981
0.228584 0.228584 0.228584
0.252011 0.252011 0.252011
0.276109 0.276109 0.276109
0.300732 0.300732 0.300732
0.325722 0.325722 0.325722
0.350912 0.350912 0.350912
0.376134 0.376134 0.376134
0.401220 0.401220 0.401220
0.426003 0.426003 0.426003
0.450316 0.450316 0.450316
0.474089 0.474089 0.474089
0.497373 0.497373 0.497373
0.520067 0.520067 0.520067
0.542815 0.542815 0.542815
0.565994 0.565994 0.565994
0.589462 0.589462 0.589462
0.613138 0.613138 0.613138
0.636844 0.636844 0.636844
0.660392 0.660392 0.660392
0.692972 0.692972 0.692972
0.724354 0.724354 0.724354
0.754048 0.754048 0.754048
0.781604 0.781604 0.781604
0.806648 0.806648 0.806648
0.829543 0.829543 0.829543
0.850729 0.850729 0.850729
0.870472 0.870472 0.870472
0.889026 0.889026 0.889026
0.906613 0.906613 0.906613
0.923432 0.923432 0.923432
0.939647 0.939647 0.939647
0.199147 0.199147 0.199147
0.221479 0.221479 0.221479
0.244661 0.244661 0.244661
0.268566 0.268566 0.268566
0.293045 0.293045 0.293045
0.317936 0.317936 0.317936
0.343083 0.343083 0.343083
0.368313 0.368313 0.368313
0.393460 0.393460 0.393460
0.418353 0.418353 0.418353
0.442831 0.442831 0.442831
0.466760 0.466760 0.466760
0.490204 0.490204 0.490204
0.513089 0.513089 0.513089
0.535703 0.535703 0.535703
0.558765 0.558765 0.558765
0.582149 0.582149 0.582149
0.605778 0.605778 0.605778
0.629495 0.629495 0.629495
0.653112 0.653112 0.653112
0.676441 0.676441 0.676441
0.699301 0.699301 0.699301
0.730382 0.730382 0.730382
0.759693 0.759693 0.759693
0.786769 0.786769 0.786769
0.811334 0.811334 0.811334
0.833865 0.833865 0.833865
0.854746 0.854746 0.854746
0.874233 0.874233 0.874233
0.892580 0.892580 0.892580
0.909999 0.909999 0.909999
0.926686 0.926686 0.926686
0.942799 0.942799 0.942799
0.214449 0.214449 0.214449
0.237383 0.237383 0.237383
0.261080 0.261080 0.261080
0.285394 0.285394 0.285394
0.310177 0.310177 0.310177
0.335262 0.335262 0.335262
0.360484 0.360484 0.360484
0.385674 0.385674 0.385674
0.410665 0.410665 0.410665
0.435288 0.435288 0.435288
0.459388 0.459388 0.459388
0.482985 0.482985 0.482985
0.506052 0.506052 0.506052
0.528634 0.528634 0.528634
0.551566 0.551566 0.551566
0.574864 0.574864 0.574864
0.598427 0.598427 0.598427
0.622137 0.622137 0.622137
0.645804 0.645804 0.645804
0.669244 0.669244 0.669244
0.692265 0.692265 0.692265
0.714692 0.714692 0.714692
0.736344 0.736344 0.736344
0.765241 0.765241 0.765241
0.791838 0.791838 0.791838
0.815938 0.815938 0.815938
0.838126 0.838126 0.838126
0.858706 0.858706 0.858706
0.877952 0.877952 0.877952
0.896095 0.896095 0.896095
0.913358 0.913358 0.913358
0.929918 0.929918 0.929918
0.945935 0.945935 0.945935
0.230178 0.230178 0.230178
0.253650 0.253650 0.253650
0.277793 0.277793 0.277793
0.302446 0.302446 0.302446
0.327454 0.327454 0.327454
0.352652 0.352652 0.352652
0.377871 0.377871 0.377871
0.402940 0.402940 0.402940
0.427695 0.427695 0.427695
0.451974 0.451974 0.451974
0.475711 0.475711 0.475711
0.498958 0.498958 0.498958
0.521618 0.521618 0.521618
0.544403 0.544403 0.544403
0.567603 0.567603 0.567603
0.591090 0.591090 0.591090
0.614774 0.614774 0.614774
0.638475 0.638475 0.638475
0.662004 0.662004 0.662004
0.685178 0.685178 0.685178
0.707807 0.707807 0.707807
0.729716 0.729716 0.729716
0.750741 0.750741 0.750741
0.770703 0.770703 0.770703
0.796797 0.796797 0.796797
0.820472 0.820472 0.820472
0.842320 0.842320 0.842320
0.862616 0.862616 0.862616
0.881624 0.881624 0.881624
0.899578 0.899578 0.899578
0.916687 0.916687 0.916687
0.933129 0.933129 0.933129
0.949052 0.949052 0.949052
0.246290 0.246290 0.246290
0.270237 0.270237 0.270237
0.294749 0.294749 0.294749
0.319665 0.319665 0.319665
0.344822 0.344822 0.344822
0.370052 0.370052 0.370052
0.395186 0.395186 0.395186
0.420057 0.420057 0.420057
0.444498 0.444498 0.444498
0.468393 0.468393 0.468393
0.491802 0.491802 0.491802
0.514639 0.514639 0.514639
0.537278 0.537278 0.537278
0.560370 0.560370 0.560370
0.583772 0.583772 0.583772
0.607413 0.607413 0.607413
0.631129 0.631129 0.631129
0.654733 0.654733 0.654733
0.678035 0.678035 0.678035
0.700852 0.700852 0.700852
0.723007 0.723007 0.723007
0.744317 0.744317 0.744317
0.764630 0.764630 0.764630
0.783786 0.783786 0.783786
0.801647 0.801647 0.801647
0.824938 0.824938 0.824938
0.846452 0.846452 0.846452
0.866478 0.866478 0.866478
0.885256 0.885256 0.885256
0.903029 0.903029 0.903029
0.919991 0.919991 0.919991
0.936320 0.936320 0.936320
0.952154 0.952154 0.952154
0.262739 0.262739 0.262739
0.287092 0.287092 0.287092
0.311898 0.311898 0.311898
0.336999 0.336999 0.336999
0.362225 0.362225 0.362225
0.387407 0.387407 0.387407
0.412376 0.412376 0.412376
0.436971 0.436971 0.436971
0.461030 0.461030 0.461030
0.484593 0.484593 0.484593
0.507623 0.507623 0.507623
0.530202 0.530202 0.530202
0.553163 0.553163 0.553163
0.576480 0.576480 0.576480
0.600060 0.600060 0.600060
0.623773 0.623773 0.623773
0.647430 0.647430 0.647430
0.670846 0.670846 0.670846
0.693835 0.693835 0.693835
0.716210 0.716210 0.716210
0.737805 0.737805 0.737805
0.758443 0.758443 0.758443
0.777971 0.777971 0.777971
0.796255 0.796255 0.796255
0.813274 0.813274 0.813274
0.829329 0.829329 0.829329
0.850529 0.850529 0.850529
0.870285 0.870285 0.870285
0.888850 0.888850 0.888850
0.906445 0.906445 0.906445
0.923271 0.923271 0.923271
0.939491 0.939491 0.939491
0.955242 0.955242 0.955242
0.279477 0.279477 0.279477
0.304162 0.304162 0.304162
0.329188 0.329188 0.329188
0.354393 0.354393 0.354393
0.379606 0.379606 0.379606
0.404661 0.404661 0.404661
0.429386 0.429386 0.429386
0.453626 0.453626 0.453626
0.477332 0.477332 0.477332
0.500538 0.500538 0.500538
0.523171 0.523171 0.523171
0.545992 0.545992 0.545992
0.569215 0.569215 0.569215
0.592718 0.592718 0.592718
0.616410 0.616410 0.616410
0.640106 0.640106 0.640106
0.663617 0.663617 0.663617
0.686756 0.686756 0.686756
0.709345 0.709345 0.709345
0.731196 0.731196 0.731196
0.752148 0.752148 0.752148
