ricette/lut/Architettura-di-pietra-33.cube
# LUT generata da Camera Oscura BN
# Ricetta: Architettura di pietra
# Pellicola: pietra
# Nota: grana, vignetta e interventi locali non sono inclusi nella LUT.
TITLE "Architettura di pietra"
LUT_3D_SIZE 5
DOMAIN_MIN 0.0 0.0 0.0
DOMAIN_MAX 1.0 1.0 1.0
0.000000 0.000000 0.000000
0.134799 0.134799 0.134799
0.395531 0.395531 0.395531
0.661682 0.661682 0.661682
0.871218 0.871218 0.871218
0.052168 0.052168 0.052168
0.178522 0.178522 0.178522
0.450482 0.450482 0.450482
0.712710 0.712710 0.712710
0.900092 0.900092 0.900092
0.130315 0.130315 0.130315
0.306736 0.306736 0.306736
0.502909 0.502909 0.502909
0.759968 0.759968 0.759968
0.926846 0.926846 0.926846
0.246290 0.246290 0.246290
0.444498 0.444498 0.444498
0.631129 0.631129 0.631129
0.801647 0.801647 0.801647
0.952154 0.952154 0.952154
0.383076 0.383076 0.383076
0.572440 0.572440 0.572440
0.754963 0.754963 0.754963
0.883649 0.883649 0.883649
0.976487 0.976487 0.976487
0.000000 0.000000 0.000000
0.130315 0.130315 0.130315
0.389311 0.389311 0.389311
0.655865 0.655865 0.655865
0.867844 0.867844 0.867844
0.027412 0.027412 0.027412
0.184315 0.184315 0.184315
0.457088 0.457088 0.457088
0.718790 0.718790 0.718790
0.903494 0.903494 0.903494
0.090014 0.090014 0.090014
0.313623 0.313623 0.313623
0.509187 0.509187 0.509187
0.765445 0.765445 0.765445
0.930037 0.930037 0.930037
0.190187 0.190187 0.190187
0.451145 0.451145 0.451145
0.637660 0.637660 0.637660
0.806356 0.806356 0.806356
0.955204 0.955204 0.955204
0.320530 0.320530 0.320530
0.578908 0.578908 0.578908
0.760517 0.760517 0.760517
0.887213 0.887213 0.887213
0.979439 0.979439 0.979439
0.000000 0.000000 0.000000
0.098882 0.098882 0.098882
0.383076 0.383076 0.383076
0.650030 0.650030 0.650030
0.864433 0.864433 0.864433
0.010188 0.010188 0.010188
0.146338 0.146338 0.146338
0.451145 0.451145 0.451145
0.713322 0.713322 0.713322
0.900434 0.900434 0.900434
0.058248 0.058248 0.058248
0.252831 0.252831 0.252831
0.515415 0.515415 0.515415
0.770837 0.770837 0.770837
0.933208 0.933208 0.933208
0.140385 0.140385 0.140385
0.390002 0.390002 0.390002
0.644179 0.644179 0.644179
0.810991 0.810991 0.810991
0.958240 0.958240 0.958240
0.259422 0.259422 0.259422
0.521618 0.521618 0.521618
0.765988 0.765988 0.765988
0.890740 0.890740 0.890740
0.982380 0.982380 0.982380
0.000000 0.000000 0.000000
0.072406 0.072406 0.072406
0.335436 0.335436 0.335436
0.644179 0.644179 0.644179
0.860983 0.860983 0.860983
0.000000 0.000000 0.000000
0.112746 0.112746 0.112746
0.404833 0.404833 0.404833
0.707807 0.707807 0.707807
0.897347 0.897347 0.897347
0.038397 0.038397 0.038397
0.209195 0.209195 0.209195
0.471814 0.471814 0.471814
0.765988 0.765988 0.765988
0.930355 0.930355 0.930355
0.098243 0.098243 0.098243
0.327454 0.327454 0.327454
0.585397 0.585397 0.585397
0.815544 0.815544 0.815544
0.961261 0.961261 0.961261
0.202175 0.202175 0.202175
0.464307 0.464307 0.464307
0.713933 0.713933 0.713933
0.894233 0.894233 0.894233
0.985312 0.985312 0.985312
0.000000 0.000000 0.000000
0.050539 0.050539 0.050539
0.288281 0.288281 0.288281
0.599407 0.599407 0.599407
0.857493 0.857493 0.857493
0.000000 0.000000 0.000000
0.083926 0.083926 0.083926
0.357352 0.357352 0.357352
0.664584 0.664584 0.664584
0.894233 0.894233 0.894233
0.020528 0.020528 0.020528
0.168861 0.168861 0.168861
0.426342 0.426342 0.426342
0.726893 0.726893 0.726893
0.927486 0.927486 0.927486
0.071883 0.071883 0.071883
0.280489 0.280489 0.280489
0.541390 0.541390 0.541390
0.782631 0.782631 0.782631
0.958542 0.958542 0.958542
0.150825 0.150825 0.150825
0.403801 0.403801 0.403801
0.657160 0.657160 0.657160
0.861367 0.861367 0.861367
0.988235 0.988235 0.988235
