ricette/lut/Bottega-100-33.cube
# LUT generata da Camera Oscura BN
# Ricetta: Bottega 100
# Pellicola: apx100
# Nota: grana, vignetta e interventi locali non sono inclusi nella LUT.
TITLE "Bottega 100"
LUT_3D_SIZE 33
DOMAIN_MIN 0.0 0.0 0.0
DOMAIN_MAX 1.0 1.0 1.0
0.000000 0.000000 0.000000
0.005107 0.005107 0.005107
0.010265 0.010265 0.010265
0.015494 0.015494 0.015494
0.020826 0.020826 0.020826
0.026300 0.026300 0.026300
0.031965 0.031965 0.031965
0.037877 0.037877 0.037877
0.044104 0.044104 0.044104
0.050722 0.050722 0.050722
0.057818 0.057818 0.057818
0.065496 0.065496 0.065496
0.073872 0.073872 0.073872
0.083087 0.083087 0.083087
0.093358 0.093358 0.093358
0.104659 0.104659 0.104659
0.116907 0.116907 0.116907
0.130019 0.130019 0.130019
0.143863 0.143863 0.143863
0.158313 0.158313 0.158313
0.173225 0.173225 0.173225
0.188444 0.188444 0.188444
0.203803 0.203803 0.203803
0.219326 0.219326 0.219326
0.235397 0.235397 0.235397
0.251989 0.251989 0.251989
0.269044 0.269044 0.269044
0.286501 0.286501 0.286501
0.304296 0.304296 0.304296
0.322356 0.322356 0.322356
0.340609 0.340609 0.340609
0.358984 0.358984 0.358984
0.377408 0.377408 0.377408
0.005107 0.005107 0.005107
0.007678 0.007678 0.007678
0.012868 0.012868 0.012868
0.018145 0.018145 0.018145
0.023544 0.023544 0.023544
0.029107 0.029107 0.029107
0.034887 0.034887 0.034887
0.040944 0.040944 0.040944
0.047356 0.047356 0.047356
0.054205 0.054205 0.054205
0.061583 0.061583 0.061583
0.069594 0.069594 0.069594
0.078352 0.078352 0.078352
0.088078 0.088078 0.088078
0.098883 0.098883 0.098883
0.110677 0.110677 0.110677
0.123370 0.123370 0.123370
0.136856 0.136856 0.136856
0.151015 0.151015 0.151015
0.165719 0.165719 0.165719
0.180807 0.180807 0.180807
0.196118 0.196118 0.196118
0.211504 0.211504 0.211504
0.227289 0.227289 0.227289
0.243628 0.243628 0.243628
0.260463 0.260463 0.260463
0.277729 0.277729 0.277729
0.295363 0.295363 0.295363
0.313296 0.313296 0.313296
0.331461 0.331461 0.331461
0.349785 0.349785 0.349785
0.368194 0.368194 0.368194
0.386614 0.386614 0.386614
0.010265 0.010265 0.010265
0.012868 0.012868 0.012868
0.015494 0.015494 0.015494
0.020826 0.020826 0.020826
0.026300 0.026300 0.026300
0.031965 0.031965 0.031965
0.037877 0.037877 0.037877
0.044104 0.044104 0.044104
0.050722 0.050722 0.050722
0.057818 0.057818 0.057818
0.065496 0.065496 0.065496
0.073872 0.073872 0.073872
0.083087 0.083087 0.083087
0.093358 0.093358 0.093358
0.104659 0.104659 0.104659
0.116907 0.116907 0.116907
0.130019 0.130019 0.130019
0.143863 0.143863 0.143863
0.158313 0.158313 0.158313
0.173225 0.173225 0.173225
0.188444 0.188444 0.188444
0.203803 0.203803 0.203803
0.219326 0.219326 0.219326
0.235397 0.235397 0.235397
0.251989 0.251989 0.251989
0.269044 0.269044 0.269044
0.286501 0.286501 0.286501
0.304296 0.304296 0.304296
0.322356 0.322356 0.322356
0.340609 0.340609 0.340609
0.358984 0.358984 0.358984
0.377408 0.377408 0.377408
0.395806 0.395806 0.395806
0.015494 0.015494 0.015494
0.018145 0.018145 0.018145
0.020826 0.020826 0.020826
0.023544 0.023544 0.023544
0.029107 0.029107 0.029107
0.034887 0.034887 0.034887
0.040944 0.040944 0.040944
0.047356 0.047356 0.047356
0.054205 0.054205 0.054205
0.061583 0.061583 0.061583
0.069594 0.069594 0.069594
0.078352 0.078352 0.078352
0.088078 0.088078 0.088078
0.098883 0.098883 0.098883
0.110677 0.110677 0.110677
0.123370 0.123370 0.123370
0.136856 0.136856 0.136856
0.151015 0.151015 0.151015
0.165719 0.165719 0.165719
0.180807 0.180807 0.180807
0.196118 0.196118 0.196118
0.211504 0.211504 0.211504
0.227289 0.227289 0.227289
0.243628 0.243628 0.243628
0.260463 0.260463 0.260463
0.277729 0.277729 0.277729
0.295363 0.295363 0.295363
0.313296 0.313296 0.313296
0.331461 0.331461 0.331461
0.349785 0.349785 0.349785
0.368194 0.368194 0.368194
0.386614 0.386614 0.386614
0.404973 0.404973 0.404973
0.020826 0.020826 0.020826
0.023544 0.023544 0.023544
0.026300 0.026300 0.026300
0.029107 0.029107 0.029107
0.031965 0.031965 0.031965
0.037877 0.037877 0.037877
0.044104 0.044104 0.044104
0.050722 0.050722 0.050722
0.057818 0.057818 0.057818
0.065496 0.065496 0.065496
0.073872 0.073872 0.073872
0.083087 0.083087 0.083087
0.093358 0.093358 0.093358
0.104659 0.104659 0.104659
0.116907 0.116907 0.116907
0.130019 0.130019 0.130019
0.143863 0.143863 0.143863
0.158313 0.158313 0.158313
0.173225 0.173225 0.173225
0.188444 0.188444 0.188444
0.203803 0.203803 0.203803
0.219326 0.219326 0.219326
0.235397 0.235397 0.235397
0.251989 0.251989 0.251989
0.269044 0.269044 0.269044
0.286501 0.286501 0.286501
0.304296 0.304296 0.304296
0.322356 0.322356 0.322356
0.340609 0.340609 0.340609
0.358984 0.358984 0.358984
0.377408 0.377408 0.377408
0.395806 0.395806 0.395806
0.414105 0.414105 0.414105
0.026300 0.026300 0.026300
0.029107 0.029107 0.029107
0.031965 0.031965 0.031965
0.034887 0.034887 0.034887
0.037877 0.037877 0.037877
0.040944 0.040944 0.040944
0.047356 0.047356 0.047356
0.054205 0.054205 0.054205
0.061583 0.061583 0.061583
0.069594 0.069594 0.069594
0.078352 0.078352 0.078352
0.088078 0.088078 0.088078
0.098883 0.098883 0.098883
0.110677 0.110677 0.110677
0.123370 0.123370 0.123370
0.136856 0.136856 0.136856
0.151015 0.151015 0.151015
0.165719 0.165719 0.165719
0.180807 0.180807 0.180807
0.196118 0.196118 0.196118
0.211504 0.211504 0.211504
0.227289 0.227289 0.227289
0.243628 0.243628 0.243628
0.260463 0.260463 0.260463
0.277729 0.277729 0.277729
0.295363 0.295363 0.295363
0.313296 0.313296 0.313296
0.331461 0.331461 0.331461
0.349785 0.349785 0.349785
0.368194 0.368194 0.368194
0.386614 0.386614 0.386614
0.404973 0.404973 0.404973
0.423197 0.423197 0.423197
0.031965 0.031965 0.031965
0.034887 0.034887 0.034887
0.037877 0.037877 0.037877
0.040944 0.040944 0.040944
0.044104 0.044104 0.044104
0.047356 0.047356 0.047356
0.050722 0.050722 0.050722
0.057818 0.057818 0.057818
0.065496 0.065496 0.065496
0.073872 0.073872 0.073872
0.083087 0.083087 0.083087
0.093358 0.093358 0.093358
0.104659 0.104659 0.104659
0.116907 0.116907 0.116907
0.130019 0.130019 0.130019
0.143863 0.143863 0.143863
0.158313 0.158313 0.158313
0.173225 0.173225 0.173225
0.188444 0.188444 0.188444
0.203803 0.203803 0.203803
0.219326 0.219326 0.219326
0.235397 0.235397 0.235397
0.251989 0.251989 0.251989
0.269044 0.269044 0.269044
0.286501 0.286501 0.286501
0.304296 0.304296 0.304296
0.322356 0.322356 0.322356
0.340609 0.340609 0.340609
0.358984 0.358984 0.358984
0.377408 0.377408 0.377408
0.395806 0.395806 0.395806
0.414105 0.414105 0.414105
0.432234 0.432234 0.432234
0.037877 0.037877 0.037877
0.040944 0.040944 0.040944
0.044104 0.044104 0.044104
0.047356 0.047356 0.047356
0.050722 0.050722 0.050722
0.054205 0.054205 0.054205
0.057818 0.057818 0.057818
0.061583 0.061583 0.061583
0.069594 0.069594 0.069594
0.078352 0.078352 0.078352
0.088078 0.088078 0.088078
0.098883 0.098883 0.098883
0.110677 0.110677 0.110677
0.123370 0.123370 0.123370
0.136856 0.136856 0.136856
0.151015 0.151015 0.151015
0.165719 0.165719 0.165719
0.180807 0.180807 0.180807
0.196118 0.196118 0.196118
0.211504 0.211504 0.211504
0.227289 0.227289 0.227289
0.243628 0.243628 0.243628
0.260463 0.260463 0.260463
0.277729 0.277729 0.277729
0.295363 0.295363 0.295363
0.313296 0.313296 0.313296
0.331461 0.331461 0.331461
0.349785 0.349785 0.349785
0.368194 0.368194 0.368194
0.386614 0.386614 0.386614
0.404973 0.404973 0.404973
0.423197 0.423197 0.423197
0.441214 0.441214 0.441214
0.044104 0.044104 0.044104
0.047356 0.047356 0.047356
0.050722 0.050722 0.050722
0.054205 0.054205 0.054205
0.057818 0.057818 0.057818
0.061583 0.061583 0.061583
0.065496 0.065496 0.065496
0.069594 0.069594 0.069594
0.073872 0.073872 0.073872
0.083087 0.083087 0.083087
0.093358 0.093358 0.093358
0.104659 0.104659 0.104659
0.116907 0.116907 0.116907
0.130019 0.130019 0.130019
0.143863 0.143863 0.143863
0.158313 0.158313 0.158313
0.173225 0.173225 0.173225
0.188444 0.188444 0.188444
0.203803 0.203803 0.203803
0.219326 0.219326 0.219326
0.235397 0.235397 0.235397
0.251989 0.251989 0.251989
0.269044 0.269044 0.269044
0.286501 0.286501 0.286501
0.304296 0.304296 0.304296
0.322356 0.322356 0.322356
0.340609 0.340609 0.340609
0.358984 0.358984 0.358984
0.377408 0.377408 0.377408
0.395806 0.395806 0.395806
0.414105 0.414105 0.414105
0.432234 0.432234 0.432234
0.450123 0.450123 0.450123
0.050722 0.050722 0.050722
0.054205 0.054205 0.054205
0.057818 0.057818 0.057818
0.061583 0.061583 0.061583
0.065496 0.065496 0.065496
0.069594 0.069594 0.069594
0.073872 0.073872 0.073872
0.078352 0.078352 0.078352
0.083087 0.083087 0.083087
0.088078 0.088078 0.088078
0.098883 0.098883 0.098883
0.110677 0.110677 0.110677
0.123370 0.123370 0.123370
0.136856 0.136856 0.136856
0.151015 0.151015 0.151015
0.165719 0.165719 0.165719
0.180807 0.180807 0.180807
0.196118 0.196118 0.196118
0.211504 0.211504 0.211504
0.227289 0.227289 0.227289
0.243628 0.243628 0.243628
0.260463 0.260463 0.260463
0.277729 0.277729 0.277729
0.295363 0.295363 0.295363
0.313296 0.313296 0.313296
0.331461 0.331461 0.331461
0.349785 0.349785 0.349785
0.368194 0.368194 0.368194
0.386614 0.386614 0.386614
0.404973 0.404973 0.404973
0.423197 0.423197 0.423197
0.441214 0.441214 0.441214
0.458959 0.458959 0.458959
0.057818 0.057818 0.057818
0.061583 0.061583 0.061583
0.065496 0.065496 0.065496
0.069594 0.069594 0.069594
0.073872 0.073872 0.073872
0.078352 0.078352 0.078352
0.083087 0.083087 0.083087
0.088078 0.088078 0.088078
0.093358 0.093358 0.093358
0.098883 0.098883 0.098883
0.104659 0.104659 0.104659
0.116907 0.116907 0.116907
0.130019 0.130019 0.130019
0.143863 0.143863 0.143863
0.158313 0.158313 0.158313
0.173225 0.173225 0.173225
0.188444 0.188444 0.188444
0.203803 0.203803 0.203803
0.219326 0.219326 0.219326
0.235397 0.235397 0.235397
0.251989 0.251989 0.251989
0.269044 0.269044 0.269044
0.286501 0.286501 0.286501
0.304296 0.304296 0.304296
0.322356 0.322356 0.322356
0.340609 0.340609 0.340609
0.358984 0.358984 0.358984
0.377408 0.377408 0.377408
0.395806 0.395806 0.395806
0.414105 0.414105 0.414105
0.432234 0.432234 0.432234
0.450123 0.450123 0.450123
0.467740 0.467740 0.467740
0.065496 0.065496 0.065496
0.069594 0.069594 0.069594
0.073872 0.073872 0.073872
0.078352 0.078352 0.078352
0.083087 0.083087 0.083087
0.088078 0.088078 0.088078
0.093358 0.093358 0.093358
0.098883 0.098883 0.098883
0.104659 0.104659 0.104659
0.110677 0.110677 0.110677
0.116907 0.116907 0.116907
0.123370 0.123370 0.123370
0.136856 0.136856 0.136856
0.151015 0.151015 0.151015
0.165719 0.165719 0.165719
0.180807 0.180807 0.180807
0.196118 0.196118 0.196118
0.211504 0.211504 0.211504
0.227289 0.227289 0.227289
0.243628 0.243628 0.243628
0.260463 0.260463 0.260463
0.277729 0.277729 0.277729
0.295363 0.295363 0.295363
0.313296 0.313296 0.313296
0.331461 0.331461 0.331461
0.349785 0.349785 0.349785
0.368194 0.368194 0.368194
0.386614 0.386614 0.386614
0.404973 0.404973 0.404973
0.423197 0.423197 0.423197
0.441214 0.441214 0.441214
0.458959 0.458959 0.458959
0.476472 0.476472 0.476472
0.073872 0.073872 0.073872
0.078352 0.078352 0.078352
0.083087 0.083087 0.083087
0.088078 0.088078 0.088078
0.093358 0.093358 0.093358
0.098883 0.098883 0.098883
0.104659 0.104659 0.104659
0.110677 0.110677 0.110677
0.116907 0.116907 0.116907
0.123370 0.123370 0.123370
0.130019 0.130019 0.130019
0.136856 0.136856 0.136856
0.143863 0.143863 0.143863
0.158313 0.158313 0.158313
0.173225 0.173225 0.173225
0.188444 0.188444 0.188444
0.203803 0.203803 0.203803
0.219326 0.219326 0.219326
0.235397 0.235397 0.235397
0.251989 0.251989 0.251989
0.269044 0.269044 0.269044
0.286501 0.286501 0.286501
0.304296 0.304296 0.304296
0.322356 0.322356 0.322356
0.340609 0.340609 0.340609
0.358984 0.358984 0.358984
0.377408 0.377408 0.377408
0.395806 0.395806 0.395806
0.414105 0.414105 0.414105
0.432234 0.432234 0.432234
0.450123 0.450123 0.450123
0.467740 0.467740 0.467740
0.485153 0.485153 0.485153
0.083087 0.083087 0.083087
0.088078 0.088078 0.088078
0.093358 0.093358 0.093358
0.098883 0.098883 0.098883
0.104659 0.104659 0.104659
0.110677 0.110677 0.110677
0.116907 0.116907 0.116907
0.123370 0.123370 0.123370
0.130019 0.130019 0.130019
0.136856 0.136856 0.136856
0.143863 0.143863 0.143863
0.151015 0.151015 0.151015
0.158313 0.158313 0.158313
0.165719 0.165719 0.165719
0.180807 0.180807 0.180807
0.196118 0.196118 0.196118
0.211504 0.211504 0.211504
0.227289 0.227289 0.227289
0.243628 0.243628 0.243628
0.260463 0.260463 0.260463
0.277729 0.277729 0.277729
0.295363 0.295363 0.295363
0.313296 0.313296 0.313296
0.331461 0.331461 0.331461
0.349785 0.349785 0.349785
0.368194 0.368194 0.368194
0.386614 0.386614 0.386614
0.404973 0.404973 0.404973
0.423197 0.423197 0.423197
0.441214 0.441214 0.441214
0.458959 0.458959 0.458959
0.476472 0.476472 0.476472
0.493772 0.493772 0.493772
0.093358 0.093358 0.093358
0.098883 0.098883 0.098883
0.104659 0.104659 0.104659
0.110677 0.110677 0.110677
0.116907 0.116907 0.116907
0.123370 0.123370 0.123370
0.130019 0.130019 0.130019
0.136856 0.136856 0.136856
0.143863 0.143863 0.143863
0.151015 0.151015 0.151015
0.158313 0.158313 0.158313
0.165719 0.165719 0.165719
0.173225 0.173225 0.173225
0.180807 0.180807 0.180807
0.188444 0.188444 0.188444
0.203803 0.203803 0.203803
0.219326 0.219326 0.219326
0.235397 0.235397 0.235397
0.251989 0.251989 0.251989
0.269044 0.269044 0.269044
0.286501 0.286501 0.286501
0.304296 0.304296 0.304296
0.322356 0.322356 0.322356
0.340609 0.340609 0.340609
0.358984 0.358984 0.358984
0.377408 0.377408 0.377408
0.395806 0.395806 0.395806
0.414105 0.414105 0.414105
0.432234 0.432234 0.432234
0.450123 0.450123 0.450123
0.467740 0.467740 0.467740
0.485153 0.485153 0.485153
0.502325 0.502325 0.502325
0.104659 0.104659 0.104659
0.110677 0.110677 0.110677
0.116907 0.116907 0.116907
0.123370 0.123370 0.123370
0.130019 0.130019 0.130019
0.136856 0.136856 0.136856
0.143863 0.143863 0.143863
0.151015 0.151015 0.151015
0.158313 0.158313 0.158313
0.165719 0.165719 0.165719
0.173225 0.173225 0.173225
0.180807 0.180807 0.180807
0.188444 0.188444 0.188444
0.196118 0.196118 0.196118
0.203803 0.203803 0.203803
0.211504 0.211504 0.211504
0.227289 0.227289 0.227289
0.243628 0.243628 0.243628
0.260463 0.260463 0.260463
0.277729 0.277729 0.277729
0.295363 0.295363 0.295363
0.313296 0.313296 0.313296
0.331461 0.331461 0.331461
0.349785 0.349785 0.349785
0.368194 0.368194 0.368194
0.386614 0.386614 0.386614
0.404973 0.404973 0.404973
0.423197 0.423197 0.423197
0.441214 0.441214 0.441214
0.458959 0.458959 0.458959
0.476472 0.476472 0.476472
0.493772 0.493772 0.493772
0.510808 0.510808 0.510808
0.116907 0.116907 0.116907
0.123370 0.123370 0.123370
0.130019 0.130019 0.130019
0.136856 0.136856 0.136856
0.143863 0.143863 0.143863
0.151015 0.151015 0.151015
0.158313 0.158313 0.158313
0.165719 0.165719 0.165719
0.173225 0.173225 0.173225
0.180807 0.180807 0.180807
0.188444 0.188444 0.188444
0.196118 0.196118 0.196118
0.203803 0.203803 0.203803
0.211504 0.211504 0.211504
0.219326 0.219326 0.219326
0.227289 0.227289 0.227289
0.235397 0.235397 0.235397
0.251989 0.251989 0.251989
0.269044 0.269044 0.269044
0.286501 0.286501 0.286501
0.304296 0.304296 0.304296
0.322356 0.322356 0.322356
0.340609 0.340609 0.340609
0.358984 0.358984 0.358984
0.377408 0.377408 0.377408
0.395806 0.395806 0.395806
0.414105 0.414105 0.414105
0.432234 0.432234 0.432234
0.450123 0.450123 0.450123
0.467740 0.467740 0.467740
0.485153 0.485153 0.485153
0.502325 0.502325 0.502325
0.519205 0.519205 0.519205
0.130019 0.130019 0.130019
0.136856 0.136856 0.136856
0.143863 0.143863 0.143863
0.151015 0.151015 0.151015
0.158313 0.158313 0.158313
0.165719 0.165719 0.165719
0.173225 0.173225 0.173225
0.180807 0.180807 0.180807
0.188444 0.188444 0.188444
0.196118 0.196118 0.196118
0.203803 0.203803 0.203803
0.211504 0.211504 0.211504
0.219326 0.219326 0.219326
0.227289 0.227289 0.227289
0.235397 0.235397 0.235397
0.243628 0.243628 0.243628
0.251989 0.251989 0.251989
0.260463 0.260463 0.260463
0.277729 0.277729 0.277729
0.295363 0.295363 0.295363
0.313296 0.313296 0.313296
0.331461 0.331461 0.331461
0.349785 0.349785 0.349785
0.368194 0.368194 0.368194
0.386614 0.386614 0.386614
0.404973 0.404973 0.404973
0.423197 0.423197 0.423197
0.441214 0.441214 0.441214
0.458959 0.458959 0.458959
0.476472 0.476472 0.476472
0.493772 0.493772 0.493772
0.510808 0.510808 0.510808
0.527562 0.527562 0.527562
0.143863 0.143863 0.143863
0.151015 0.151015 0.151015
0.158313 0.158313 0.158313
0.165719 0.165719 0.165719
0.173225 0.173225 0.173225
0.180807 0.180807 0.180807
0.188444 0.188444 0.188444
0.196118 0.196118 0.196118
0.203803 0.203803 0.203803
0.211504 0.211504 0.211504
0.219326 0.219326 0.219326
0.227289 0.227289 0.227289
0.235397 0.235397 0.235397
0.243628 0.243628 0.243628
0.251989 0.251989 0.251989
0.260463 0.260463 0.260463
0.269044 0.269044 0.269044
0.277729 0.277729 0.277729
0.286501 0.286501 0.286501
0.304296 0.304296 0.304296
0.322356 0.322356 0.322356
0.340609 0.340609 0.340609
0.358984 0.358984 0.358984
0.377408 0.377408 0.377408
0.395806 0.395806 0.395806
0.414105 0.414105 0.414105
0.432234 0.432234 0.432234
0.450123 0.450123 0.450123
0.467740 0.467740 0.467740
0.485153 0.485153 0.485153
0.502325 0.502325 0.502325
0.519205 0.519205 0.519205
0.535961 0.535961 0.535961
0.158313 0.158313 0.158313
0.165719 0.165719 0.165719
0.173225 0.173225 0.173225
0.180807 0.180807 0.180807
0.188444 0.188444 0.188444
0.196118 0.196118 0.196118
0.203803 0.203803 0.203803
0.211504 0.211504 0.211504
0.219326 0.219326 0.219326
0.227289 0.227289 0.227289
0.235397 0.235397 0.235397
0.243628 0.243628 0.243628
0.251989 0.251989 0.251989
0.260463 0.260463 0.260463
0.269044 0.269044 0.269044
0.277729 0.277729 0.277729
0.286501 0.286501 0.286501
0.295363 0.295363 0.295363
0.304296 0.304296 0.304296
0.313296 0.313296 0.313296
0.331461 0.331461 0.331461
0.349785 0.349785 0.349785
0.368194 0.368194 0.368194
0.386614 0.386614 0.386614
0.404973 0.404973 0.404973
0.423197 0.423197 0.423197
0.441214 0.441214 0.441214
0.458959 0.458959 0.458959
0.476472 0.476472 0.476472
0.493772 0.493772 0.493772
0.510808 0.510808 0.510808
0.527562 0.527562 0.527562
0.544402 0.544402 0.544402
0.173225 0.173225 0.173225
0.180807 0.180807 0.180807
0.188444 0.188444 0.188444
0.196118 0.196118 0.196118
0.203803 0.203803 0.203803
0.211504 0.211504 0.211504
0.219326 0.219326 0.219326
0.227289 0.227289 0.227289
0.235397 0.235397 0.235397
0.243628 0.243628 0.243628
0.251989 0.251989 0.251989
0.260463 0.260463 0.260463
0.269044 0.269044 0.269044
0.277729 0.277729 0.277729
0.286501 0.286501 0.286501
0.295363 0.295363 0.295363
0.304296 0.304296 0.304296
0.313296 0.313296 0.313296
0.322356 0.322356 0.322356
0.331461 0.331461 0.331461
0.340609 0.340609 0.340609
0.358984 0.358984 0.358984
0.377408 0.377408 0.377408
0.395806 0.395806 0.395806
0.414105 0.414105 0.414105
0.432234 0.432234 0.432234
0.450123 0.450123 0.450123
0.467740 0.467740 0.467740
0.485153 0.485153 0.485153
0.502325 0.502325 0.502325
0.519205 0.519205 0.519205
0.535961 0.535961 0.535961
0.552881 0.552881 0.552881
0.188444 0.188444 0.188444
0.196118 0.196118 0.196118
0.203803 0.203803 0.203803
0.211504 0.211504 0.211504
0.219326 0.219326 0.219326
0.227289 0.227289 0.227289
0.235397 0.235397 0.235397
0.243628 0.243628 0.243628
0.251989 0.251989 0.251989
0.260463 0.260463 0.260463
0.269044 0.269044 0.269044
0.277729 0.277729 0.277729
0.286501 0.286501 0.286501
0.295363 0.295363 0.295363
0.304296 0.304296 0.304296
0.313296 0.313296 0.313296
0.322356 0.322356 0.322356
0.331461 0.331461 0.331461
0.340609 0.340609 0.340609
0.349785 0.349785 0.349785
0.358984 0.358984 0.358984
0.368194 0.368194 0.368194
0.386614 0.386614 0.386614
0.404973 0.404973 0.404973
0.423197 0.423197 0.423197
0.441214 0.441214 0.441214
0.458959 0.458959 0.458959
0.476472 0.476472 0.476472
0.493772 0.493772 0.493772
0.510808 0.510808 0.510808
0.527562 0.527562 0.527562
0.544402 0.544402 0.544402
0.561392 0.561392 0.561392
0.203803 0.203803 0.203803
0.211504 0.211504 0.211504
0.219326 0.219326 0.219326
0.227289 0.227289 0.227289
0.235397 0.235397 0.235397
0.243628 0.243628 0.243628
0.251989 0.251989 0.251989
0.260463 0.260463 0.260463
0.269044 0.269044 0.269044
0.277729 0.277729 0.277729
0.286501 0.286501 0.286501
0.295363 0.295363 0.295363
0.304296 0.304296 0.304296
0.313296 0.313296 0.313296
0.322356 0.322356 0.322356
0.331461 0.331461 0.331461
0.340609 0.340609 0.340609
0.349785 0.349785 0.349785
0.358984 0.358984 0.358984
0.368194 0.368194 0.368194
0.377408 0.377408 0.377408
0.386614 0.386614 0.386614
0.395806 0.395806 0.395806
0.414105 0.414105 0.414105
0.432234 0.432234 0.432234
0.450123 0.450123 0.450123
0.467740 0.467740 0.467740
0.485153 0.485153 0.485153
0.502325 0.502325 0.502325
0.519205 0.519205 0.519205
0.535961 0.535961 0.535961
0.552881 0.552881 0.552881
0.569926 0.569926 0.569926
0.219326 0.219326 0.219326
0.227289 0.227289 0.227289
0.235397 0.235397 0.235397
0.243628 0.243628 0.243628
0.251989 0.251989 0.251989
0.260463 0.260463 0.260463
0.269044 0.269044 0.269044
0.277729 0.277729 0.277729
0.286501 0.286501 0.286501
0.295363 0.295363 0.295363
0.304296 0.304296 0.304296
0.313296 0.313296 0.313296
0.322356 0.322356 0.322356
0.331461 0.331461 0.331461
0.340609 0.340609 0.340609
0.349785 0.349785 0.349785
0.358984 0.358984 0.358984
0.368194 0.368194 0.368194
0.377408 0.377408 0.377408
0.386614 0.386614 0.386614
0.395806 0.395806 0.395806
0.404973 0.404973 0.404973
0.414105 0.414105 0.414105
0.423197 0.423197 0.423197
0.441214 0.441214 0.441214
0.458959 0.458959 0.458959
0.476472 0.476472 0.476472
0.493772 0.493772 0.493772
0.510808 0.510808 0.510808
0.527562 0.527562 0.527562
0.544402 0.544402 0.544402
0.561392 0.561392 0.561392
0.578477 0.578477 0.578477
0.235397 0.235397 0.235397
0.243628 0.243628 0.243628
0.251989 0.251989 0.251989
0.260463 0.260463 0.260463
0.269044 0.269044 0.269044
0.277729 0.277729 0.277729
0.286501 0.286501 0.286501
0.295363 0.295363 0.295363
0.304296 0.304296 0.304296
0.313296 0.313296 0.313296
0.322356 0.322356 0.322356
0.331461 0.331461 0.331461
0.340609 0.340609 0.340609
0.349785 0.349785 0.349785
0.358984 0.358984 0.358984
0.368194 0.368194 0.368194
0.377408 0.377408 0.377408
0.386614 0.386614 0.386614
0.395806 0.395806 0.395806
0.404973 0.404973 0.404973
0.414105 0.414105 0.414105
0.423197 0.423197 0.423197
0.432234 0.432234 0.432234
0.441214 0.441214 0.441214
0.450123 0.450123 0.450123
0.467740 0.467740 0.467740
0.485153 0.485153 0.485153
0.502325 0.502325 0.502325
0.519205 0.519205 0.519205
0.535961 0.535961 0.535961
0.552881 0.552881 0.552881
0.569926 0.569926 0.569926
0.587041 0.587041 0.587041
0.251989 0.251989 0.251989
0.260463 0.260463 0.260463
0.269044 0.269044 0.269044
0.277729 0.277729 0.277729
0.286501 0.286501 0.286501
0.295363 0.295363 0.295363
0.304296 0.304296 0.304296
0.313296 0.313296 0.313296
0.322356 0.322356 0.322356
0.331461 0.331461 0.331461
0.340609 0.340609 0.340609
0.349785 0.349785 0.349785
0.358984 0.358984 0.358984
0.368194 0.368194 0.368194
0.377408 0.377408 0.377408
0.386614 0.386614 0.386614
0.395806 0.395806 0.395806
0.404973 0.404973 0.404973
0.414105 0.414105 0.414105
0.423197 0.423197 0.423197
0.432234 0.432234 0.432234
0.441214 0.441214 0.441214
0.450123 0.450123 0.450123
0.458959 0.458959 0.458959
0.467740 0.467740 0.467740
0.476472 0.476472 0.476472
0.493772 0.493772 0.493772
0.510808 0.510808 0.510808
0.527562 0.527562 0.527562
0.544402 0.544402 0.544402
0.561392 0.561392 0.561392
0.578477 0.578477 0.578477
0.595616 0.595616 0.595616
0.269044 0.269044 0.269044
0.277729 0.277729 0.277729
0.286501 0.286501 0.286501
0.295363 0.295363 0.295363
0.304296 0.304296 0.304296
0.313296 0.313296 0.313296
0.322356 0.322356 0.322356
0.331461 0.331461 0.331461
0.340609 0.340609 0.340609
0.349785 0.349785 0.349785
0.358984 0.358984 0.358984
0.368194 0.368194 0.368194
0.377408 0.377408 0.377408
0.386614 0.386614 0.386614
0.395806 0.395806 0.395806
0.404973 0.404973 0.404973
0.414105 0.414105 0.414105
0.423197 0.423197 0.423197
0.432234 0.432234 0.432234
0.441214 0.441214 0.441214
0.450123 0.450123 0.450123
0.458959 0.458959 0.458959
