ricette/lut/Bottega-100-33.cube
# LUT generata da Camera Oscura BN
# Ricetta: Bottega 100
# Pellicola: apx100
# Nota: grana, vignetta e interventi locali non sono inclusi nella LUT.
TITLE "Bottega 100"
LUT_3D_SIZE 9
DOMAIN_MIN 0.0 0.0 0.0
DOMAIN_MAX 1.0 1.0 1.0
0.000000 0.000000 0.000000
0.020826 0.020826 0.020826
0.044104 0.044104 0.044104
0.073872 0.073872 0.073872
0.116907 0.116907 0.116907
0.173225 0.173225 0.173225
0.235397 0.235397 0.235397
0.304296 0.304296 0.304296
0.377408 0.377408 0.377408
0.020826 0.020826 0.020826
0.031965 0.031965 0.031965
0.057818 0.057818 0.057818
0.093358 0.093358 0.093358
0.143863 0.143863 0.143863
0.203803 0.203803 0.203803
0.269044 0.269044 0.269044
0.340609 0.340609 0.340609
0.414105 0.414105 0.414105
0.044104 0.044104 0.044104
0.057818 0.057818 0.057818
0.073872 0.073872 0.073872
0.116907 0.116907 0.116907
0.173225 0.173225 0.173225
0.235397 0.235397 0.235397
0.304296 0.304296 0.304296
0.377408 0.377408 0.377408
0.450123 0.450123 0.450123
0.073872 0.073872 0.073872
0.093358 0.093358 0.093358
0.116907 0.116907 0.116907
0.143863 0.143863 0.143863
0.203803 0.203803 0.203803
0.269044 0.269044 0.269044
0.340609 0.340609 0.340609
0.414105 0.414105 0.414105
0.485153 0.485153 0.485153
0.116907 0.116907 0.116907
0.143863 0.143863 0.143863
0.173225 0.173225 0.173225
0.203803 0.203803 0.203803
0.235397 0.235397 0.235397
0.304296 0.304296 0.304296
0.377408 0.377408 0.377408
0.450123 0.450123 0.450123
0.519205 0.519205 0.519205
0.173225 0.173225 0.173225
0.203803 0.203803 0.203803
0.235397 0.235397 0.235397
0.269044 0.269044 0.269044
0.304296 0.304296 0.304296
0.340609 0.340609 0.340609
0.414105 0.414105 0.414105
0.485153 0.485153 0.485153
0.552881 0.552881 0.552881
0.235397 0.235397 0.235397
0.269044 0.269044 0.269044
0.304296 0.304296 0.304296
0.340609 0.340609 0.340609
0.377408 0.377408 0.377408
0.414105 0.414105 0.414105
0.450123 0.450123 0.450123
0.519205 0.519205 0.519205
0.587041 0.587041 0.587041
0.304296 0.304296 0.304296
0.340609 0.340609 0.340609
0.377408 0.377408 0.377408
0.414105 0.414105 0.414105
0.450123 0.450123 0.450123
0.485153 0.485153 0.485153
0.519205 0.519205 0.519205
0.552881 0.552881 0.552881
0.621335 0.621335 0.621335
0.377408 0.377408 0.377408
0.414105 0.414105 0.414105
0.450123 0.450123 0.450123
0.485153 0.485153 0.485153
0.519205 0.519205 0.519205
0.552881 0.552881 0.552881
0.587041 0.587041 0.587041
0.621335 0.621335 0.621335
0.655345 0.655345 0.655345
0.010265 0.010265 0.010265
0.044104 0.044104 0.044104
0.073872 0.073872 0.073872
0.116907 0.116907 0.116907
0.173225 0.173225 0.173225
0.235397 0.235397 0.235397
0.304296 0.304296 0.304296
0.377408 0.377408 0.377408
0.450123 0.450123 0.450123
0.031965 0.031965 0.031965
0.057818 0.057818 0.057818
0.093358 0.093358 0.093358
0.143863 0.143863 0.143863
0.203803 0.203803 0.203803
0.269044 0.269044 0.269044
0.340609 0.340609 0.340609
0.414105 0.414105 0.414105
0.485153 0.485153 0.485153
0.057818 0.057818 0.057818
0.093358 0.093358 0.093358
0.116907 0.116907 0.116907
0.173225 0.173225 0.173225
0.235397 0.235397 0.235397
0.304296 0.304296 0.304296
0.377408 0.377408 0.377408
0.450123 0.450123 0.450123
0.519205 0.519205 0.519205
0.093358 0.093358 0.093358
0.143863 0.143863 0.143863
0.173225 0.173225 0.173225
0.203803 0.203803 0.203803
0.269044 0.269044 0.269044
0.340609 0.340609 0.340609
0.414105 0.414105 0.414105
0.485153 0.485153 0.485153
0.552881 0.552881 0.552881
0.143863 0.143863 0.143863
0.203803 0.203803 0.203803
0.235397 0.235397 0.235397
0.269044 0.269044 0.269044
0.304296 0.304296 0.304296
0.377408 0.377408 0.377408
0.450123 0.450123 0.450123
0.519205 0.519205 0.519205
0.587041 0.587041 0.587041
0.203803 0.203803 0.203803
0.269044 0.269044 0.269044
0.304296 0.304296 0.304296
0.340609 0.340609 0.340609
0.377408 0.377408 0.377408
0.414105 0.414105 0.414105
0.485153 0.485153 0.485153
0.552881 0.552881 0.552881
0.621335 0.621335 0.621335
0.269044 0.269044 0.269044
0.340609 0.340609 0.340609
0.377408 0.377408 0.377408
0.414105 0.414105 0.414105
0.450123 0.450123 0.450123
0.485153 0.485153 0.485153
0.519205 0.519205 0.519205
0.587041 0.587041 0.587041
0.655345 0.655345 0.655345
0.340609 0.340609 0.340609
0.414105 0.414105 0.414105
0.450123 0.450123 0.450123
0.485153 0.485153 0.485153
0.519205 0.519205 0.519205
0.552881 0.552881 0.552881
0.587041 0.587041 0.587041
0.621335 0.621335 0.621335
0.688603 0.688603 0.688603
0.414105 0.414105 0.414105
0.485153 0.485153 0.485153
0.519205 0.519205 0.519205
0.552881 0.552881 0.552881
0.587041 0.587041 0.587041
0.621335 0.621335 0.621335
0.655345 0.655345 0.655345
0.688603 0.688603 0.688603
0.720667 0.720667 0.720667
0.020826 0.020826 0.020826
0.057818 0.057818 0.057818
0.116907 0.116907 0.116907
0.173225 0.173225 0.173225
0.235397 0.235397 0.235397
0.304296 0.304296 0.304296
0.377408 0.377408 0.377408
0.450123 0.450123 0.450123
0.519205 0.519205 0.519205
0.044104 0.044104 0.044104
0.073872 0.073872 0.073872
0.143863 0.143863 0.143863
0.203803 0.203803 0.203803
0.269044 0.269044 0.269044
0.340609 0.340609 0.340609
0.414105 0.414105 0.414105
0.485153 0.485153 0.485153
0.552881 0.552881 0.552881
0.073872 0.073872 0.073872
0.116907 0.116907 0.116907
0.173225 0.173225 0.173225
0.235397 0.235397 0.235397
0.304296 0.304296 0.304296
0.377408 0.377408 0.377408
0.450123 0.450123 0.450123
0.519205 0.519205 0.519205
0.587041 0.587041 0.587041
0.116907 0.116907 0.116907
0.173225 0.173225 0.173225
0.235397 0.235397 0.235397
0.269044 0.269044 0.269044
0.340609 0.340609 0.340609
0.414105 0.414105 0.414105
0.485153 0.485153 0.485153
0.552881 0.552881 0.552881
0.621335 0.621335 0.621335
0.173225 0.173225 0.173225
0.235397 0.235397 0.235397
0.304296 0.304296 0.304296
0.340609 0.340609 0.340609
0.377408 0.377408 0.377408
0.450123 0.450123 0.450123
0.519205 0.519205 0.519205
0.587041 0.587041 0.587041
0.655345 0.655345 0.655345
0.235397 0.235397 0.235397
0.304296 0.304296 0.304296
0.377408 0.377408 0.377408
0.414105 0.414105 0.414105
0.450123 0.450123 0.450123
0.485153 0.485153 0.485153
0.552881 0.552881 0.552881
0.621335 0.621335 0.621335
0.688603 0.688603 0.688603
0.304296 0.304296 0.304296
0.377408 0.377408 0.377408
0.450123 0.450123 0.450123
0.485153 0.485153 0.485153
0.519205 0.519205 0.519205
0.552881 0.552881 0.552881
0.587041 0.587041 0.587041
0.655345 0.655345 0.655345
0.720667 0.720667 0.720667
0.377408 0.377408 0.377408
0.450123 0.450123 0.450123
0.519205 0.519205 0.519205
0.552881 0.552881 0.552881
0.587041 0.587041 0.587041
0.621335 0.621335 0.621335
0.655345 0.655345 0.655345
0.688603 0.688603 0.688603
0.751112 0.751112 0.751112
0.450123 0.450123 0.450123
0.519205 0.519205 0.519205
0.587041 0.587041 0.587041
0.621335 0.621335 0.621335
0.655345 0.655345 0.655345
0.688603 0.688603 0.688603
0.720667 0.720667 0.720667
0.751112 0.751112 0.751112
0.779538 0.779538 0.779538
0.031965 0.031965 0.031965
0.073872 0.073872 0.073872
0.143863 0.143863 0.143863
0.235397 0.235397 0.235397
0.304296 0.304296 0.304296
0.377408 0.377408 0.377408
0.450123 0.450123 0.450123
0.519205 0.519205 0.519205
0.587041 0.587041 0.587041
0.057818 0.057818 0.057818
0.093358 0.093358 0.093358
0.173225 0.173225 0.173225
0.269044 0.269044 0.269044
0.340609 0.340609 0.340609
0.414105 0.414105 0.414105
0.485153 0.485153 0.485153
0.552881 0.552881 0.552881
0.621335 0.621335 0.621335
0.093358 0.093358 0.093358
0.143863 0.143863 0.143863
0.203803 0.203803 0.203803
0.304296 0.304296 0.304296
0.377408 0.377408 0.377408
0.450123 0.450123 0.450123
0.519205 0.519205 0.519205
0.587041 0.587041 0.587041
0.655345 0.655345 0.655345
0.143863 0.143863 0.143863
0.203803 0.203803 0.203803
0.269044 0.269044 0.269044
0.340609 0.340609 0.340609
0.414105 0.414105 0.414105
0.485153 0.485153 0.485153
0.552881 0.552881 0.552881
0.621335 0.621335 0.621335
0.688603 0.688603 0.688603
0.203803 0.203803 0.203803
0.269044 0.269044 0.269044
0.340609 0.340609 0.340609
0.414105 0.414105 0.414105
0.450123 0.450123 0.450123
0.519205 0.519205 0.519205
0.587041 0.587041 0.587041
0.655345 0.655345 0.655345
0.720667 0.720667 0.720667
0.269044 0.269044 0.269044
0.340609 0.340609 0.340609
0.414105 0.414105 0.414105
0.485153 0.485153 0.485153
0.519205 0.519205 0.519205
0.552881 0.552881 0.552881
0.621335 0.621335 0.621335
0.688603 0.688603 0.688603
0.751112 0.751112 0.751112
0.340609 0.340609 0.340609
0.414105 0.414105 0.414105
0.485153 0.485153 0.485153
0.552881 0.552881 0.552881
0.587041 0.587041 0.587041
0.621335 0.621335 0.621335
0.655345 0.655345 0.655345
0.720667 0.720667 0.720667
0.779538 0.779538 0.779538
0.414105 0.414105 0.414105
0.485153 0.485153 0.485153
0.552881 0.552881 0.552881
0.621335 0.621335 0.621335
0.655345 0.655345 0.655345
0.688603 0.688603 0.688603
0.720667 0.720667 0.720667
0.751112 0.751112 0.751112
0.805604 0.805604 0.805604
0.485153 0.485153 0.485153
0.552881 0.552881 0.552881
0.621335 0.621335 0.621335
0.688603 0.688603 0.688603
0.720667 0.720667 0.720667
0.751112 0.751112 0.751112
0.779538 0.779538 0.779538
0.805604 0.805604 0.805604
0.829203 0.829203 0.829203
0.044104 0.044104 0.044104
0.093358 0.093358 0.093358
0.173225 0.173225 0.173225
0.269044 0.269044 0.269044
0.377408 0.377408 0.377408
0.450123 0.450123 0.450123
0.519205 0.519205 0.519205
0.587041 0.587041 0.587041
0.655345 0.655345 0.655345
0.073872 0.073872 0.073872
0.116907 0.116907 0.116907
0.203803 0.203803 0.203803
0.304296 0.304296 0.304296
0.414105 0.414105 0.414105
0.485153 0.485153 0.485153
0.552881 0.552881 0.552881
0.621335 0.621335 0.621335
0.688603 0.688603 0.688603
0.116907 0.116907 0.116907
0.173225 0.173225 0.173225
0.235397 0.235397 0.235397
0.340609 0.340609 0.340609
0.450123 0.450123 0.450123
0.519205 0.519205 0.519205
0.587041 0.587041 0.587041
0.655345 0.655345 0.655345
0.720667 0.720667 0.720667
0.173225 0.173225 0.173225
0.235397 0.235397 0.235397
0.304296 0.304296 0.304296
0.377408 0.377408 0.377408
0.485153 0.485153 0.485153
0.552881 0.552881 0.552881
0.621335 0.621335 0.621335
0.688603 0.688603 0.688603
0.751112 0.751112 0.751112
0.235397 0.235397 0.235397
0.304296 0.304296 0.304296
0.377408 0.377408 0.377408
0.450123 0.450123 0.450123
0.519205 0.519205 0.519205
0.587041 0.587041 0.587041
0.655345 0.655345 0.655345
0.720667 0.720667 0.720667
0.779538 0.779538 0.779538
0.304296 0.304296 0.304296
0.377408 0.377408 0.377408
0.450123 0.450123 0.450123
0.519205 0.519205 0.519205
0.587041 0.587041 0.587041
0.621335 0.621335 0.621335
0.688603 0.688603 0.688603
0.751112 0.751112 0.751112
0.805604 0.805604 0.805604
0.377408 0.377408 0.377408
0.450123 0.450123 0.450123
0.519205 0.519205 0.519205
0.587041 0.587041 0.587041
0.655345 0.655345 0.655345
0.688603 0.688603 0.688603
0.720667 0.720667 0.720667
0.779538 0.779538 0.779538
0.829203 0.829203 0.829203
0.450123 0.450123 0.450123
0.519205 0.519205 0.519205
0.587041 0.587041 0.587041
0.655345 0.655345 0.655345
0.720667 0.720667 0.720667
0.751112 0.751112 0.751112
0.779538 0.779538 0.779538
0.805604 0.805604 0.805604
0.850886 0.850886 0.850886
0.519205 0.519205 0.519205
0.587041 0.587041 0.587041
0.655345 0.655345 0.655345
0.720667 0.720667 0.720667
0.779538 0.779538 0.779538
0.805604 0.805604 0.805604
0.829203 0.829203 0.829203
0.850886 0.850886 0.850886
0.870962 0.870962 0.870962
0.057818 0.057818 0.057818
0.116907 0.116907 0.116907
0.203803 0.203803 0.203803
0.304296 0.304296 0.304296
0.414105 0.414105 0.414105
0.519205 0.519205 0.519205
0.587041 0.587041 0.587041
0.655345 0.655345 0.655345
0.720667 0.720667 0.720667
0.093358 0.093358 0.093358
0.143863 0.143863 0.143863
0.235397 0.235397 0.235397
0.340609 0.340609 0.340609
0.450123 0.450123 0.450123
0.552881 0.552881 0.552881
0.621335 0.621335 0.621335
0.688603 0.688603 0.688603
0.751112 0.751112 0.751112
0.143863 0.143863 0.143863
0.203803 0.203803 0.203803
0.269044 0.269044 0.269044
0.377408 0.377408 0.377408
0.485153 0.485153 0.485153
0.587041 0.587041 0.587041
0.655345 0.655345 0.655345
0.720667 0.720667 0.720667
0.779538 0.779538 0.779538
0.203803 0.203803 0.203803
0.269044 0.269044 0.269044
0.340609 0.340609 0.340609
0.414105 0.414105 0.414105
0.519205 0.519205 0.519205
0.621335 0.621335 0.621335
0.688603 0.688603 0.688603
0.751112 0.751112 0.751112
0.805604 0.805604 0.805604
0.269044 0.269044 0.269044
0.340609 0.340609 0.340609
0.414105 0.414105 0.414105
0.485153 0.485153 0.485153
0.552881 0.552881 0.552881
0.655345 0.655345 0.655345
0.720667 0.720667 0.720667
0.779538 0.779538 0.779538
0.829203 0.829203 0.829203
0.340609 0.340609 0.340609
0.414105 0.414105 0.414105
0.485153 0.485153 0.485153
0.552881 0.552881 0.552881
0.621335 0.621335 0.621335
0.688603 0.688603 0.688603
0.751112 0.751112 0.751112
0.805604 0.805604 0.805604
0.850886 0.850886 0.850886
0.414105 0.414105 0.414105
0.485153 0.485153 0.485153
0.552881 0.552881 0.552881
0.621335 0.621335 0.621335
0.688603 0.688603 0.688603
0.751112 0.751112 0.751112
0.779538 0.779538 0.779538
0.829203 0.829203 0.829203
0.870962 0.870962 0.870962
0.485153 0.485153 0.485153
0.552881 0.552881 0.552881
0.621335 0.621335 0.621335
0.688603 0.688603 0.688603
0.751112 0.751112 0.751112
0.805604 0.805604 0.805604
0.829203 0.829203 0.829203
0.850886 0.850886 0.850886
0.889689 0.889689 0.889689
0.552881 0.552881 0.552881
0.621335 0.621335 0.621335
0.688603 0.688603 0.688603
0.751112 0.751112 0.751112
0.805604 0.805604 0.805604
0.850886 0.850886 0.850886
0.870962 0.870962 0.870962
0.889689 0.889689 0.889689
0.907323 0.907323 0.907323
0.073872 0.073872 0.073872
0.143863 0.143863 0.143863
0.235397 0.235397 0.235397
0.340609 0.340609 0.340609
0.450123 0.450123 0.450123
0.552881 0.552881 0.552881
0.655345 0.655345 0.655345
0.720667 0.720667 0.720667
0.779538 0.779538 0.779538
0.116907 0.116907 0.116907
0.173225 0.173225 0.173225
0.269044 0.269044 0.269044
0.377408 0.377408 0.377408
0.485153 0.485153 0.485153
0.587041 0.587041 0.587041
0.688603 0.688603 0.688603
0.751112 0.751112 0.751112
0.805604 0.805604 0.805604
0.173225 0.173225 0.173225
0.235397 0.235397 0.235397
0.304296 0.304296 0.304296
0.414105 0.414105 0.414105
0.519205 0.519205 0.519205
0.621335 0.621335 0.621335
0.720667 0.720667 0.720667
0.779538 0.779538 0.779538
0.829203 0.829203 0.829203
0.235397 0.235397 0.235397
0.304296 0.304296 0.304296
0.377408 0.377408 0.377408
0.450123 0.450123 0.450123
0.552881 0.552881 0.552881
0.655345 0.655345 0.655345
0.751112 0.751112 0.751112
0.805604 0.805604 0.805604
0.850886 0.850886 0.850886
0.304296 0.304296 0.304296
0.377408 0.377408 0.377408
0.450123 0.450123 0.450123
0.519205 0.519205 0.519205
0.587041 0.587041 0.587041
0.688603 0.688603 0.688603
0.779538 0.779538 0.779538
0.829203 0.829203 0.829203
0.870962 0.870962 0.870962
0.377408 0.377408 0.377408
0.450123 0.450123 0.450123
0.519205 0.519205 0.519205
0.587041 0.587041 0.587041
0.655345 0.655345 0.655345
0.720667 0.720667 0.720667
0.805604 0.805604 0.805604
0.850886 0.850886 0.850886
0.889689 0.889689 0.889689
0.450123 0.450123 0.450123
0.519205 0.519205 0.519205
0.587041 0.587041 0.587041
0.655345 0.655345 0.655345
0.720667 0.720667 0.720667
0.779538 0.779538 0.779538
0.829203 0.829203 0.829203
0.870962 0.870962 0.870962
0.907323 0.907323 0.907323
0.519205 0.519205 0.519205
0.587041 0.587041 0.587041
0.655345 0.655345 0.655345
0.720667 0.720667 0.720667
0.779538 0.779538 0.779538
0.829203 0.829203 0.829203
0.870962 0.870962 0.870962
0.889689 0.889689 0.889689
0.924075 0.924075 0.924075
0.587041 0.587041 0.587041
0.655345 0.655345 0.655345
0.720667 0.720667 0.720667
0.779538 0.779538 0.779538
0.829203 0.829203 0.829203
0.870962 0.870962 0.870962
0.907323 0.907323 0.907323
0.924075 0.924075 0.924075
0.940131 0.940131 0.940131
0.093358 0.093358 0.093358
0.173225 0.173225 0.173225
0.269044 0.269044 0.269044
0.377408 0.377408 0.377408
0.485153 0.485153 0.485153
0.587041 0.587041 0.587041
0.688603 0.688603 0.688603
0.779538 0.779538 0.779538
0.829203 0.829203 0.829203
0.143863 0.143863 0.143863
0.203803 0.203803 0.203803
0.304296 0.304296 0.304296
0.414105 0.414105 0.414105
0.519205 0.519205 0.519205
0.621335 0.621335 0.621335
0.720667 0.720667 0.720667
0.805604 0.805604 0.805604
0.850886 0.850886 0.850886
0.203803 0.203803 0.203803
0.269044 0.269044 0.269044
0.340609 0.340609 0.340609
0.450123 0.450123 0.450123
0.552881 0.552881 0.552881
0.655345 0.655345 0.655345
0.751112 0.751112 0.751112
0.829203 0.829203 0.829203
0.870962 0.870962 0.870962
0.269044 0.269044 0.269044
0.340609 0.340609 0.340609
0.414105 0.414105 0.414105
0.485153 0.485153 0.485153
0.587041 0.587041 0.587041
0.688603 0.688603 0.688603
0.779538 0.779538 0.779538
0.850886 0.850886 0.850886
0.889689 0.889689 0.889689
0.340609 0.340609 0.340609
0.414105 0.414105 0.414105
0.485153 0.485153 0.485153
0.552881 0.552881 0.552881
0.621335 0.621335 0.621335
0.720667 0.720667 0.720667
0.805604 0.805604 0.805604
0.870962 0.870962 0.870962
0.907323 0.907323 0.907323
0.414105 0.414105 0.414105
0.485153 0.485153 0.485153
0.552881 0.552881 0.552881
0.621335 0.621335 0.621335
0.688603 0.688603 0.688603
0.751112 0.751112 0.751112
0.829203 0.829203 0.829203
0.889689 0.889689 0.889689
0.924075 0.924075 0.924075
0.485153 0.485153 0.485153
0.552881 0.552881 0.552881
0.621335 0.621335 0.621335
0.688603 0.688603 0.688603
0.751112 0.751112 0.751112
0.805604 0.805604 0.805604
0.850886 0.850886 0.850886
0.907323 0.907323 0.907323
0.940131 0.940131 0.940131
0.552881 0.552881 0.552881
0.621335 0.621335 0.621335
0.688603 0.688603 0.688603
0.751112 0.751112 0.751112
0.805604 0.805604 0.805604
0.850886 0.850886 0.850886
0.889689 0.889689 0.889689
0.924075 0.924075 0.924075
0.955647 0.955647 0.955647
0.621335 0.621335 0.621335
0.688603 0.688603 0.688603
0.751112 0.751112 0.751112
0.805604 0.805604 0.805604
0.850886 0.850886 0.850886
0.889689 0.889689 0.889689
0.924075 0.924075 0.924075
0.955647 0.955647 0.955647
0.970742 0.970742 0.970742
0.116907 0.116907 0.116907
0.203803 0.203803 0.203803
0.304296 0.304296 0.304296
0.414105 0.414105 0.414105
0.519205 0.519205 0.519205
0.621335 0.621335 0.621335
0.720667 0.720667 0.720667
0.805604 0.805604 0.805604
0.870962 0.870962 0.870962
0.173225 0.173225 0.173225
0.235397 0.235397 0.235397
0.340609 0.340609 0.340609
0.450123 0.450123 0.450123
0.552881 0.552881 0.552881
0.655345 0.655345 0.655345
0.751112 0.751112 0.751112
0.829203 0.829203 0.829203
0.889689 0.889689 0.889689
0.235397 0.235397 0.235397
0.304296 0.304296 0.304296
0.377408 0.377408 0.377408
0.485153 0.485153 0.485153
0.587041 0.587041 0.587041
0.688603 0.688603 0.688603
0.779538 0.779538 0.779538
0.850886 0.850886 0.850886
0.907323 0.907323 0.907323
0.304296 0.304296 0.304296
0.377408 0.377408 0.377408
0.450123 0.450123 0.450123
0.519205 0.519205 0.519205
0.621335 0.621335 0.621335
0.720667 0.720667 0.720667
0.805604 0.805604 0.805604
0.870962 0.870962 0.870962
0.924075 0.924075 0.924075
0.377408 0.377408 0.377408
0.450123 0.450123 0.450123
0.519205 0.519205 0.519205
0.587041 0.587041 0.587041
0.655345 0.655345 0.655345
0.751112 0.751112 0.751112
0.829203 0.829203 0.829203
0.889689 0.889689 0.889689
0.940131 0.940131 0.940131
0.450123 0.450123 0.450123
0.519205 0.519205 0.519205
0.587041 0.587041 0.587041
0.655345 0.655345 0.655345
0.720667 0.720667 0.720667
0.779538 0.779538 0.779538
0.850886 0.850886 0.850886
0.907323 0.907323 0.907323
0.955647 0.955647 0.955647
0.519205 0.519205 0.519205
0.587041 0.587041 0.587041
0.655345 0.655345 0.655345
0.720667 0.720667 0.720667
0.779538 0.779538 0.779538
0.829203 0.829203 0.829203
0.870962 0.870962 0.870962
0.924075 0.924075 0.924075
0.970742 0.970742 0.970742
0.587041 0.587041 0.587041
0.655345 0.655345 0.655345
0.720667 0.720667 0.720667
0.779538 0.779538 0.779538
0.829203 0.829203 0.829203
0.870962 0.870962 0.870962
0.907323 0.907323 0.907323
0.940131 0.940131 0.940131
0.985507 0.985507 0.985507
0.655345 0.655345 0.655345
0.720667 0.720667 0.720667
0.779538 0.779538 0.779538
0.829203 0.829203 0.829203
0.870962 0.870962 0.870962
0.907323 0.907323 0.907323
0.940131 0.940131 0.940131
0.970742 0.970742 0.970742
1.000000 1.000000 1.000000
