ricette/lut/Bottega-100-33.cube
# LUT generata da Camera Oscura BN
# Ricetta: Bottega 100
# Pellicola: apx100
# Nota: grana, vignetta e interventi locali non sono inclusi nella LUT.
TITLE "Bottega 100"
LUT_3D_SIZE 5
DOMAIN_MIN 0.0 0.0 0.0
DOMAIN_MAX 1.0 1.0 1.0
0.000000 0.000000 0.000000
0.044104 0.044104 0.044104
0.116907 0.116907 0.116907
0.235397 0.235397 0.235397
0.377408 0.377408 0.377408
0.044104 0.044104 0.044104
0.073872 0.073872 0.073872
0.173225 0.173225 0.173225
0.304296 0.304296 0.304296
0.450123 0.450123 0.450123
0.116907 0.116907 0.116907
0.173225 0.173225 0.173225
0.235397 0.235397 0.235397
0.377408 0.377408 0.377408
0.519205 0.519205 0.519205
0.235397 0.235397 0.235397
0.304296 0.304296 0.304296
0.377408 0.377408 0.377408
0.450123 0.450123 0.450123
0.587041 0.587041 0.587041
0.377408 0.377408 0.377408
0.450123 0.450123 0.450123
0.519205 0.519205 0.519205
0.587041 0.587041 0.587041
0.655345 0.655345 0.655345
0.020826 0.020826 0.020826
0.116907 0.116907 0.116907
0.235397 0.235397 0.235397
0.377408 0.377408 0.377408
0.519205 0.519205 0.519205
0.073872 0.073872 0.073872
0.173225 0.173225 0.173225
0.304296 0.304296 0.304296
0.450123 0.450123 0.450123
0.587041 0.587041 0.587041
0.173225 0.173225 0.173225
0.304296 0.304296 0.304296
0.377408 0.377408 0.377408
0.519205 0.519205 0.519205
0.655345 0.655345 0.655345
0.304296 0.304296 0.304296
0.450123 0.450123 0.450123
0.519205 0.519205 0.519205
0.587041 0.587041 0.587041
0.720667 0.720667 0.720667
0.450123 0.450123 0.450123
0.587041 0.587041 0.587041
0.655345 0.655345 0.655345
0.720667 0.720667 0.720667
0.779538 0.779538 0.779538
0.044104 0.044104 0.044104
0.173225 0.173225 0.173225
0.377408 0.377408 0.377408
0.519205 0.519205 0.519205
0.655345 0.655345 0.655345
0.116907 0.116907 0.116907
0.235397 0.235397 0.235397
0.450123 0.450123 0.450123
0.587041 0.587041 0.587041
0.720667 0.720667 0.720667
0.235397 0.235397 0.235397
0.377408 0.377408 0.377408
0.519205 0.519205 0.519205
0.655345 0.655345 0.655345
0.779538 0.779538 0.779538
0.377408 0.377408 0.377408
0.519205 0.519205 0.519205
0.655345 0.655345 0.655345
0.720667 0.720667 0.720667
0.829203 0.829203 0.829203
0.519205 0.519205 0.519205
0.655345 0.655345 0.655345
0.779538 0.779538 0.779538
0.829203 0.829203 0.829203
0.870962 0.870962 0.870962
0.073872 0.073872 0.073872
0.235397 0.235397 0.235397
0.450123 0.450123 0.450123
0.655345 0.655345 0.655345
0.779538 0.779538 0.779538
0.173225 0.173225 0.173225
0.304296 0.304296 0.304296
0.519205 0.519205 0.519205
0.720667 0.720667 0.720667
0.829203 0.829203 0.829203
0.304296 0.304296 0.304296
0.450123 0.450123 0.450123
0.587041 0.587041 0.587041
0.779538 0.779538 0.779538
0.870962 0.870962 0.870962
0.450123 0.450123 0.450123
0.587041 0.587041 0.587041
0.720667 0.720667 0.720667
0.829203 0.829203 0.829203
0.907323 0.907323 0.907323
0.587041 0.587041 0.587041
0.720667 0.720667 0.720667
0.829203 0.829203 0.829203
0.907323 0.907323 0.907323
0.940131 0.940131 0.940131
0.116907 0.116907 0.116907
0.304296 0.304296 0.304296
0.519205 0.519205 0.519205
0.720667 0.720667 0.720667
0.870962 0.870962 0.870962
0.235397 0.235397 0.235397
0.377408 0.377408 0.377408
0.587041 0.587041 0.587041
0.779538 0.779538 0.779538
0.907323 0.907323 0.907323
0.377408 0.377408 0.377408
0.519205 0.519205 0.519205
0.655345 0.655345 0.655345
0.829203 0.829203 0.829203
0.940131 0.940131 0.940131
0.519205 0.519205 0.519205
0.655345 0.655345 0.655345
0.779538 0.779538 0.779538
0.870962 0.870962 0.870962
0.970742 0.970742 0.970742
0.655345 0.655345 0.655345
0.779538 0.779538 0.779538
0.870962 0.870962 0.870962
0.940131 0.940131 0.940131
1.000000 1.000000 1.000000
