ricette/lut/Classica-125-33.cube
# LUT generata da Camera Oscura BN
# Ricetta: Classica 125
# Pellicola: fp4
# Nota: grana, vignetta e interventi locali non sono inclusi nella LUT.
TITLE "Classica 125"
LUT_3D_SIZE 33
DOMAIN_MIN 0.0 0.0 0.0
DOMAIN_MAX 1.0 1.0 1.0
0.003922 0.003922 0.003922
0.013334 0.013334 0.013334
0.022865 0.022865 0.022865
0.032515 0.032515 0.032515
0.042286 0.042286 0.042286
0.052183 0.052183 0.052183
0.062209 0.062209 0.062209
0.072369 0.072369 0.072369
0.082666 0.082666 0.082666
0.093106 0.093106 0.093106
0.103696 0.103696 0.103696
0.114444 0.114444 0.114444
0.125357 0.125357 0.125357
0.136441 0.136441 0.136441
0.147707 0.147707 0.147707
0.159161 0.159161 0.159161
0.170815 0.170815 0.170815
0.182681 0.182681 0.182681
0.194766 0.194766 0.194766
0.207080 0.207080 0.207080
0.219634 0.219634 0.219634
0.232438 0.232438 0.232438
0.245512 0.245512 0.245512
0.258855 0.258855 0.258855
0.272446 0.272446 0.272446
0.286262 0.286262 0.286262
0.300280 0.300280 0.300280
0.314475 0.314475 0.314475
0.328823 0.328823 0.328823
0.343296 0.343296 0.343296
0.357868 0.357868 0.357868
0.372512 0.372512 0.372512
0.387202 0.387202 0.387202
0.013334 0.013334 0.013334
0.018085 0.018085 0.018085
0.027673 0.027673 0.027673
0.037385 0.037385 0.037385
0.047219 0.047219 0.047219
0.057180 0.057180 0.057180
0.067272 0.067272 0.067272
0.077499 0.077499 0.077499
0.087867 0.087867 0.087867
0.098383 0.098383 0.098383
0.109051 0.109051 0.109051
0.119880 0.119880 0.119880
0.130876 0.130876 0.130876
0.142049 0.142049 0.142049
0.153410 0.153410 0.153410
0.164964 0.164964 0.164964
0.176723 0.176723 0.176723
0.188695 0.188695 0.188695
0.200891 0.200891 0.200891
0.213325 0.213325 0.213325
0.226005 0.226005 0.226005
0.238942 0.238942 0.238942
0.252151 0.252151 0.252151
0.265619 0.265619 0.265619
0.279326 0.279326 0.279326
0.293248 0.293248 0.293248
0.307358 0.307358 0.307358
0.321632 0.321632 0.321632
0.336045 0.336045 0.336045
0.350570 0.350570 0.350570
0.365182 0.365182 0.365182
0.379853 0.379853 0.379853
0.394556 0.394556 0.394556
0.022865 0.022865 0.022865
0.027673 0.027673 0.027673
0.032515 0.032515 0.032515
0.042286 0.042286 0.042286
0.052183 0.052183 0.052183
0.062209 0.062209 0.062209
0.072369 0.072369 0.072369
0.082666 0.082666 0.082666
0.093106 0.093106 0.093106
0.103696 0.103696 0.103696
0.114444 0.114444 0.114444
0.125357 0.125357 0.125357
0.136441 0.136441 0.136441
0.147707 0.147707 0.147707
0.159161 0.159161 0.159161
0.170815 0.170815 0.170815
0.182681 0.182681 0.182681
0.194766 0.194766 0.194766
0.207080 0.207080 0.207080
0.219634 0.219634 0.219634
0.232438 0.232438 0.232438
0.245512 0.245512 0.245512
0.258855 0.258855 0.258855
0.272446 0.272446 0.272446
0.286262 0.286262 0.286262
0.300280 0.300280 0.300280
0.314475 0.314475 0.314475
0.328823 0.328823 0.328823
0.343296 0.343296 0.343296
0.357868 0.357868 0.357868
0.372512 0.372512 0.372512
0.387202 0.387202 0.387202
0.401911 0.401911 0.401911
0.032515 0.032515 0.032515
0.037385 0.037385 0.037385
0.042286 0.042286 0.042286
0.047219 0.047219 0.047219
0.057180 0.057180 0.057180
0.067272 0.067272 0.067272
0.077499 0.077499 0.077499
0.087867 0.087867 0.087867
0.098383 0.098383 0.098383
0.109051 0.109051 0.109051
0.119880 0.119880 0.119880
0.130876 0.130876 0.130876
0.142049 0.142049 0.142049
0.153410 0.153410 0.153410
0.164964 0.164964 0.164964
0.176723 0.176723 0.176723
0.188695 0.188695 0.188695
0.200891 0.200891 0.200891
0.213325 0.213325 0.213325
0.226005 0.226005 0.226005
0.238942 0.238942 0.238942
0.252151 0.252151 0.252151
0.265619 0.265619 0.265619
0.279326 0.279326 0.279326
0.293248 0.293248 0.293248
0.307358 0.307358 0.307358
0.321632 0.321632 0.321632
0.336045 0.336045 0.336045
0.350570 0.350570 0.350570
0.365182 0.365182 0.365182
0.379853 0.379853 0.379853
0.394556 0.394556 0.394556
0.409264 0.409264 0.409264
0.042286 0.042286 0.042286
0.047219 0.047219 0.047219
0.052183 0.052183 0.052183
0.057180 0.057180 0.057180
0.062209 0.062209 0.062209
0.072369 0.072369 0.072369
0.082666 0.082666 0.082666
0.093106 0.093106 0.093106
0.103696 0.103696 0.103696
0.114444 0.114444 0.114444
0.125357 0.125357 0.125357
0.136441 0.136441 0.136441
0.147707 0.147707 0.147707
0.159161 0.159161 0.159161
0.170815 0.170815 0.170815
0.182681 0.182681 0.182681
0.194766 0.194766 0.194766
0.207080 0.207080 0.207080
0.219634 0.219634 0.219634
0.232438 0.232438 0.232438
0.245512 0.245512 0.245512
0.258855 0.258855 0.258855
0.272446 0.272446 0.272446
0.286262 0.286262 0.286262
0.300280 0.300280 0.300280
0.314475 0.314475 0.314475
0.328823 0.328823 0.328823
0.343296 0.343296 0.343296
0.357868 0.357868 0.357868
0.372512 0.372512 0.372512
0.387202 0.387202 0.387202
0.401911 0.401911 0.401911
0.416612 0.416612 0.416612
0.052183 0.052183 0.052183
0.057180 0.057180 0.057180
0.062209 0.062209 0.062209
0.067272 0.067272 0.067272
0.072369 0.072369 0.072369
0.077499 0.077499 0.077499
0.087867 0.087867 0.087867
0.098383 0.098383 0.098383
0.109051 0.109051 0.109051
0.119880 0.119880 0.119880
0.130876 0.130876 0.130876
0.142049 0.142049 0.142049
0.153410 0.153410 0.153410
0.164964 0.164964 0.164964
0.176723 0.176723 0.176723
0.188695 0.188695 0.188695
0.200891 0.200891 0.200891
0.213325 0.213325 0.213325
0.226005 0.226005 0.226005
0.238942 0.238942 0.238942
0.252151 0.252151 0.252151
0.265619 0.265619 0.265619
0.279326 0.279326 0.279326
0.293248 0.293248 0.293248
0.307358 0.307358 0.307358
0.321632 0.321632 0.321632
0.336045 0.336045 0.336045
0.350570 0.350570 0.350570
0.365182 0.365182 0.365182
0.379853 0.379853 0.379853
0.394556 0.394556 0.394556
0.409264 0.409264 0.409264
0.423951 0.423951 0.423951
0.062209 0.062209 0.062209
0.067272 0.067272 0.067272
0.072369 0.072369 0.072369
0.077499 0.077499 0.077499
0.082666 0.082666 0.082666
0.087867 0.087867 0.087867
0.093106 0.093106 0.093106
0.103696 0.103696 0.103696
0.114444 0.114444 0.114444
0.125357 0.125357 0.125357
0.136441 0.136441 0.136441
0.147707 0.147707 0.147707
0.159161 0.159161 0.159161
0.170815 0.170815 0.170815
0.182681 0.182681 0.182681
0.194766 0.194766 0.194766
0.207080 0.207080 0.207080
0.219634 0.219634 0.219634
0.232438 0.232438 0.232438
0.245512 0.245512 0.245512
0.258855 0.258855 0.258855
0.272446 0.272446 0.272446
0.286262 0.286262 0.286262
0.300280 0.300280 0.300280
0.314475 0.314475 0.314475
0.328823 0.328823 0.328823
0.343296 0.343296 0.343296
0.357868 0.357868 0.357868
0.372512 0.372512 0.372512
0.387202 0.387202 0.387202
0.401911 0.401911 0.401911
0.416612 0.416612 0.416612
0.431277 0.431277 0.431277
0.072369 0.072369 0.072369
0.077499 0.077499 0.077499
0.082666 0.082666 0.082666
0.087867 0.087867 0.087867
0.093106 0.093106 0.093106
0.098383 0.098383 0.098383
0.103696 0.103696 0.103696
0.109051 0.109051 0.109051
0.119880 0.119880 0.119880
0.130876 0.130876 0.130876
0.142049 0.142049 0.142049
0.153410 0.153410 0.153410
0.164964 0.164964 0.164964
0.176723 0.176723 0.176723
0.188695 0.188695 0.188695
0.200891 0.200891 0.200891
0.213325 0.213325 0.213325
0.226005 0.226005 0.226005
0.238942 0.238942 0.238942
0.252151 0.252151 0.252151
0.265619 0.265619 0.265619
0.279326 0.279326 0.279326
0.293248 0.293248 0.293248
0.307358 0.307358 0.307358
0.321632 0.321632 0.321632
0.336045 0.336045 0.336045
0.350570 0.350570 0.350570
0.365182 0.365182 0.365182
0.379853 0.379853 0.379853
0.394556 0.394556 0.394556
0.409264 0.409264 0.409264
0.423951 0.423951 0.423951
0.438588 0.438588 0.438588
0.082666 0.082666 0.082666
0.087867 0.087867 0.087867
0.093106 0.093106 0.093106
0.098383 0.098383 0.098383
0.103696 0.103696 0.103696
0.109051 0.109051 0.109051
0.114444 0.114444 0.114444
0.119880 0.119880 0.119880
0.125357 0.125357 0.125357
0.136441 0.136441 0.136441
0.147707 0.147707 0.147707
0.159161 0.159161 0.159161
0.170815 0.170815 0.170815
0.182681 0.182681 0.182681
0.194766 0.194766 0.194766
0.207080 0.207080 0.207080
0.219634 0.219634 0.219634
0.232438 0.232438 0.232438
0.245512 0.245512 0.245512
0.258855 0.258855 0.258855
0.272446 0.272446 0.272446
0.286262 0.286262 0.286262
0.300280 0.300280 0.300280
0.314475 0.314475 0.314475
0.328823 0.328823 0.328823
0.343296 0.343296 0.343296
0.357868 0.357868 0.357868
0.372512 0.372512 0.372512
0.387202 0.387202 0.387202
0.401911 0.401911 0.401911
0.416612 0.416612 0.416612
0.431277 0.431277 0.431277
0.445880 0.445880 0.445880
0.093106 0.093106 0.093106
0.098383 0.098383 0.098383
0.103696 0.103696 0.103696
0.109051 0.109051 0.109051
0.114444 0.114444 0.114444
0.119880 0.119880 0.119880
0.125357 0.125357 0.125357
0.130876 0.130876 0.130876
0.136441 0.136441 0.136441
0.142049 0.142049 0.142049
0.153410 0.153410 0.153410
0.164964 0.164964 0.164964
0.176723 0.176723 0.176723
0.188695 0.188695 0.188695
0.200891 0.200891 0.200891
0.213325 0.213325 0.213325
0.226005 0.226005 0.226005
0.238942 0.238942 0.238942
0.252151 0.252151 0.252151
0.265619 0.265619 0.265619
0.279326 0.279326 0.279326
0.293248 0.293248 0.293248
0.307358 0.307358 0.307358
0.321632 0.321632 0.321632
0.336045 0.336045 0.336045
0.350570 0.350570 0.350570
0.365182 0.365182 0.365182
0.379853 0.379853 0.379853
0.394556 0.394556 0.394556
0.409264 0.409264 0.409264
0.423951 0.423951 0.423951
0.438588 0.438588 0.438588
0.453154 0.453154 0.453154
0.103696 0.103696 0.103696
0.109051 0.109051 0.109051
0.114444 0.114444 0.114444
0.119880 0.119880 0.119880
0.125357 0.125357 0.125357
0.130876 0.130876 0.130876
0.136441 0.136441 0.136441
0.142049 0.142049 0.142049
0.147707 0.147707 0.147707
0.153410 0.153410 0.153410
0.159161 0.159161 0.159161
0.170815 0.170815 0.170815
0.182681 0.182681 0.182681
0.194766 0.194766 0.194766
0.207080 0.207080 0.207080
0.219634 0.219634 0.219634
0.232438 0.232438 0.232438
0.245512 0.245512 0.245512
0.258855 0.258855 0.258855
0.272446 0.272446 0.272446
0.286262 0.286262 0.286262
0.300280 0.300280 0.300280
0.314475 0.314475 0.314475
0.328823 0.328823 0.328823
0.343296 0.343296 0.343296
0.357868 0.357868 0.357868
0.372512 0.372512 0.372512
0.387202 0.387202 0.387202
0.401911 0.401911 0.401911
0.416612 0.416612 0.416612
0.431277 0.431277 0.431277
0.445880 0.445880 0.445880
0.460421 0.460421 0.460421
0.114444 0.114444 0.114444
0.119880 0.119880 0.119880
0.125357 0.125357 0.125357
0.130876 0.130876 0.130876
0.136441 0.136441 0.136441
0.142049 0.142049 0.142049
0.147707 0.147707 0.147707
0.153410 0.153410 0.153410
0.159161 0.159161 0.159161
0.164964 0.164964 0.164964
0.170815 0.170815 0.170815
0.176723 0.176723 0.176723
0.188695 0.188695 0.188695
0.200891 0.200891 0.200891
0.213325 0.213325 0.213325
0.226005 0.226005 0.226005
0.238942 0.238942 0.238942
0.252151 0.252151 0.252151
0.265619 0.265619 0.265619
0.279326 0.279326 0.279326
0.293248 0.293248 0.293248
0.307358 0.307358 0.307358
0.321632 0.321632 0.321632
0.336045 0.336045 0.336045
0.350570 0.350570 0.350570
0.365182 0.365182 0.365182
0.379853 0.379853 0.379853
0.394556 0.394556 0.394556
0.409264 0.409264 0.409264
0.423951 0.423951 0.423951
0.438588 0.438588 0.438588
0.453154 0.453154 0.453154
0.467678 0.467678 0.467678
0.125357 0.125357 0.125357
0.130876 0.130876 0.130876
0.136441 0.136441 0.136441
0.142049 0.142049 0.142049
0.147707 0.147707 0.147707
0.153410 0.153410 0.153410
0.159161 0.159161 0.159161
0.164964 0.164964 0.164964
0.170815 0.170815 0.170815
0.176723 0.176723 0.176723
0.182681 0.182681 0.182681
0.188695 0.188695 0.188695
0.194766 0.194766 0.194766
0.207080 0.207080 0.207080
0.219634 0.219634 0.219634
0.232438 0.232438 0.232438
0.245512 0.245512 0.245512
0.258855 0.258855 0.258855
0.272446 0.272446 0.272446
0.286262 0.286262 0.286262
0.300280 0.300280 0.300280
0.314475 0.314475 0.314475
0.328823 0.328823 0.328823
0.343296 0.343296 0.343296
0.357868 0.357868 0.357868
0.372512 0.372512 0.372512
0.387202 0.387202 0.387202
0.401911 0.401911 0.401911
0.416612 0.416612 0.416612
0.431277 0.431277 0.431277
0.445880 0.445880 0.445880
0.460421 0.460421 0.460421
0.474924 0.474924 0.474924
0.136441 0.136441 0.136441
0.142049 0.142049 0.142049
0.147707 0.147707 0.147707
0.153410 0.153410 0.153410
0.159161 0.159161 0.159161
0.164964 0.164964 0.164964
0.170815 0.170815 0.170815
0.176723 0.176723 0.176723
0.182681 0.182681 0.182681
0.188695 0.188695 0.188695
0.194766 0.194766 0.194766
0.200891 0.200891 0.200891
0.207080 0.207080 0.207080
0.213325 0.213325 0.213325
0.226005 0.226005 0.226005
0.238942 0.238942 0.238942
0.252151 0.252151 0.252151
0.265619 0.265619 0.265619
0.279326 0.279326 0.279326
0.293248 0.293248 0.293248
0.307358 0.307358 0.307358
0.321632 0.321632 0.321632
0.336045 0.336045 0.336045
0.350570 0.350570 0.350570
0.365182 0.365182 0.365182
0.379853 0.379853 0.379853
0.394556 0.394556 0.394556
0.409264 0.409264 0.409264
0.423951 0.423951 0.423951
0.438588 0.438588 0.438588
0.453154 0.453154 0.453154
0.467678 0.467678 0.467678
0.482157 0.482157 0.482157
0.147707 0.147707 0.147707
0.153410 0.153410 0.153410
0.159161 0.159161 0.159161
0.164964 0.164964 0.164964
0.170815 0.170815 0.170815
0.176723 0.176723 0.176723
0.182681 0.182681 0.182681
0.188695 0.188695 0.188695
0.194766 0.194766 0.194766
0.200891 0.200891 0.200891
0.207080 0.207080 0.207080
0.213325 0.213325 0.213325
0.219634 0.219634 0.219634
0.226005 0.226005 0.226005
0.232438 0.232438 0.232438
0.245512 0.245512 0.245512
0.258855 0.258855 0.258855
0.272446 0.272446 0.272446
0.286262 0.286262 0.286262
0.300280 0.300280 0.300280
0.314475 0.314475 0.314475
0.328823 0.328823 0.328823
0.343296 0.343296 0.343296
0.357868 0.357868 0.357868
0.372512 0.372512 0.372512
0.387202 0.387202 0.387202
0.401911 0.401911 0.401911
0.416612 0.416612 0.416612
0.431277 0.431277 0.431277
0.445880 0.445880 0.445880
0.460421 0.460421 0.460421
0.474924 0.474924 0.474924
0.489374 0.489374 0.489374
0.159161 0.159161 0.159161
0.164964 0.164964 0.164964
0.170815 0.170815 0.170815
0.176723 0.176723 0.176723
0.182681 0.182681 0.182681
0.188695 0.188695 0.188695
0.194766 0.194766 0.194766
0.200891 0.200891 0.200891
0.207080 0.207080 0.207080
0.213325 0.213325 0.213325
0.219634 0.219634 0.219634
0.226005 0.226005 0.226005
0.232438 0.232438 0.232438
0.238942 0.238942 0.238942
0.245512 0.245512 0.245512
0.252151 0.252151 0.252151
0.265619 0.265619 0.265619
0.279326 0.279326 0.279326
0.293248 0.293248 0.293248
0.307358 0.307358 0.307358
0.321632 0.321632 0.321632
0.336045 0.336045 0.336045
0.350570 0.350570 0.350570
0.365182 0.365182 0.365182
0.379853 0.379853 0.379853
0.394556 0.394556 0.394556
0.409264 0.409264 0.409264
0.423951 0.423951 0.423951
0.438588 0.438588 0.438588
0.453154 0.453154 0.453154
0.467678 0.467678 0.467678
0.482157 0.482157 0.482157
0.496574 0.496574 0.496574
0.170815 0.170815 0.170815
0.176723 0.176723 0.176723
0.182681 0.182681 0.182681
0.188695 0.188695 0.188695
0.194766 0.194766 0.194766
0.200891 0.200891 0.200891
0.207080 0.207080 0.207080
0.213325 0.213325 0.213325
0.219634 0.219634 0.219634
0.226005 0.226005 0.226005
0.232438 0.232438 0.232438
0.238942 0.238942 0.238942
0.245512 0.245512 0.245512
0.252151 0.252151 0.252151
0.258855 0.258855 0.258855
0.265619 0.265619 0.265619
0.272446 0.272446 0.272446
0.286262 0.286262 0.286262
0.300280 0.300280 0.300280
0.314475 0.314475 0.314475
0.328823 0.328823 0.328823
0.343296 0.343296 0.343296
0.357868 0.357868 0.357868
0.372512 0.372512 0.372512
0.387202 0.387202 0.387202
0.401911 0.401911 0.401911
0.416612 0.416612 0.416612
0.431277 0.431277 0.431277
0.445880 0.445880 0.445880
0.460421 0.460421 0.460421
0.474924 0.474924 0.474924
0.489374 0.489374 0.489374
0.503751 0.503751 0.503751
0.182681 0.182681 0.182681
0.188695 0.188695 0.188695
0.194766 0.194766 0.194766
0.200891 0.200891 0.200891
0.207080 0.207080 0.207080
0.213325 0.213325 0.213325
0.219634 0.219634 0.219634
0.226005 0.226005 0.226005
0.232438 0.232438 0.232438
0.238942 0.238942 0.238942
0.245512 0.245512 0.245512
0.252151 0.252151 0.252151
0.258855 0.258855 0.258855
0.265619 0.265619 0.265619
0.272446 0.272446 0.272446
0.279326 0.279326 0.279326
0.286262 0.286262 0.286262
0.293248 0.293248 0.293248
0.307358 0.307358 0.307358
0.321632 0.321632 0.321632
0.336045 0.336045 0.336045
0.350570 0.350570 0.350570
0.365182 0.365182 0.365182
0.379853 0.379853 0.379853
0.394556 0.394556 0.394556
0.409264 0.409264 0.409264
0.423951 0.423951 0.423951
0.438588 0.438588 0.438588
0.453154 0.453154 0.453154
0.467678 0.467678 0.467678
0.482157 0.482157 0.482157
0.496574 0.496574 0.496574
0.510926 0.510926 0.510926
0.194766 0.194766 0.194766
0.200891 0.200891 0.200891
0.207080 0.207080 0.207080
0.213325 0.213325 0.213325
0.219634 0.219634 0.219634
0.226005 0.226005 0.226005
0.232438 0.232438 0.232438
0.238942 0.238942 0.238942
0.245512 0.245512 0.245512
0.252151 0.252151 0.252151
0.258855 0.258855 0.258855
0.265619 0.265619 0.265619
0.272446 0.272446 0.272446
0.279326 0.279326 0.279326
0.286262 0.286262 0.286262
0.293248 0.293248 0.293248
0.300280 0.300280 0.300280
0.307358 0.307358 0.307358
0.314475 0.314475 0.314475
0.328823 0.328823 0.328823
0.343296 0.343296 0.343296
0.357868 0.357868 0.357868
0.372512 0.372512 0.372512
0.387202 0.387202 0.387202
0.401911 0.401911 0.401911
0.416612 0.416612 0.416612
0.431277 0.431277 0.431277
0.445880 0.445880 0.445880
0.460421 0.460421 0.460421
0.474924 0.474924 0.474924
0.489374 0.489374 0.489374
0.503751 0.503751 0.503751
0.518146 0.518146 0.518146
0.207080 0.207080 0.207080
0.213325 0.213325 0.213325
0.219634 0.219634 0.219634
0.226005 0.226005 0.226005
0.232438 0.232438 0.232438
0.238942 0.238942 0.238942
0.245512 0.245512 0.245512
0.252151 0.252151 0.252151
0.258855 0.258855 0.258855
0.265619 0.265619 0.265619
0.272446 0.272446 0.272446
0.279326 0.279326 0.279326
0.286262 0.286262 0.286262
0.293248 0.293248 0.293248
0.300280 0.300280 0.300280
0.307358 0.307358 0.307358
0.314475 0.314475 0.314475
0.321632 0.321632 0.321632
0.328823 0.328823 0.328823
0.336045 0.336045 0.336045
0.350570 0.350570 0.350570
0.365182 0.365182 0.365182
0.379853 0.379853 0.379853
0.394556 0.394556 0.394556
0.409264 0.409264 0.409264
0.423951 0.423951 0.423951
0.438588 0.438588 0.438588
0.453154 0.453154 0.453154
0.467678 0.467678 0.467678
0.482157 0.482157 0.482157
0.496574 0.496574 0.496574
0.510926 0.510926 0.510926
0.525409 0.525409 0.525409
0.219634 0.219634 0.219634
0.226005 0.226005 0.226005
0.232438 0.232438 0.232438
0.238942 0.238942 0.238942
0.245512 0.245512 0.245512
0.252151 0.252151 0.252151
0.258855 0.258855 0.258855
0.265619 0.265619 0.265619
0.272446 0.272446 0.272446
0.279326 0.279326 0.279326
0.286262 0.286262 0.286262
0.293248 0.293248 0.293248
0.300280 0.300280 0.300280
0.307358 0.307358 0.307358
0.314475 0.314475 0.314475
0.321632 0.321632 0.321632
0.328823 0.328823 0.328823
0.336045 0.336045 0.336045
0.343296 0.343296 0.343296
0.350570 0.350570 0.350570
0.357868 0.357868 0.357868
0.372512 0.372512 0.372512
0.387202 0.387202 0.387202
0.401911 0.401911 0.401911
0.416612 0.416612 0.416612
0.431277 0.431277 0.431277
0.445880 0.445880 0.445880
0.460421 0.460421 0.460421
0.474924 0.474924 0.474924
0.489374 0.489374 0.489374
0.503751 0.503751 0.503751
0.518146 0.518146 0.518146
0.532711 0.532711 0.532711
0.232438 0.232438 0.232438
0.238942 0.238942 0.238942
0.245512 0.245512 0.245512
0.252151 0.252151 0.252151
0.258855 0.258855 0.258855
0.265619 0.265619 0.265619
0.272446 0.272446 0.272446
0.279326 0.279326 0.279326
0.286262 0.286262 0.286262
0.293248 0.293248 0.293248
0.300280 0.300280 0.300280
0.307358 0.307358 0.307358
0.314475 0.314475 0.314475
0.321632 0.321632 0.321632
0.328823 0.328823 0.328823
0.336045 0.336045 0.336045
0.343296 0.343296 0.343296
0.350570 0.350570 0.350570
0.357868 0.357868 0.357868
0.365182 0.365182 0.365182
0.372512 0.372512 0.372512
0.379853 0.379853 0.379853
0.394556 0.394556 0.394556
0.409264 0.409264 0.409264
0.423951 0.423951 0.423951
0.438588 0.438588 0.438588
0.453154 0.453154 0.453154
0.467678 0.467678 0.467678
0.482157 0.482157 0.482157
0.496574 0.496574 0.496574
0.510926 0.510926 0.510926
0.525409 0.525409 0.525409
0.540050 0.540050 0.540050
0.245512 0.245512 0.245512
0.252151 0.252151 0.252151
0.258855 0.258855 0.258855
0.265619 0.265619 0.265619
0.272446 0.272446 0.272446
0.279326 0.279326 0.279326
0.286262 0.286262 0.286262
0.293248 0.293248 0.293248
0.300280 0.300280 0.300280
0.307358 0.307358 0.307358
0.314475 0.314475 0.314475
0.321632 0.321632 0.321632
0.328823 0.328823 0.328823
0.336045 0.336045 0.336045
0.343296 0.343296 0.343296
0.350570 0.350570 0.350570
0.357868 0.357868 0.357868
0.365182 0.365182 0.365182
0.372512 0.372512 0.372512
0.379853 0.379853 0.379853
0.387202 0.387202 0.387202
0.394556 0.394556 0.394556
0.401911 0.401911 0.401911
0.416612 0.416612 0.416612
0.431277 0.431277 0.431277
0.445880 0.445880 0.445880
0.460421 0.460421 0.460421
0.474924 0.474924 0.474924
0.489374 0.489374 0.489374
0.503751 0.503751 0.503751
0.518146 0.518146 0.518146
0.532711 0.532711 0.532711
0.547419 0.547419 0.547419
0.258855 0.258855 0.258855
0.265619 0.265619 0.265619
0.272446 0.272446 0.272446
0.279326 0.279326 0.279326
0.286262 0.286262 0.286262
0.293248 0.293248 0.293248
0.300280 0.300280 0.300280
0.307358 0.307358 0.307358
0.314475 0.314475 0.314475
0.321632 0.321632 0.321632
0.328823 0.328823 0.328823
0.336045 0.336045 0.336045
0.343296 0.343296 0.343296
0.350570 0.350570 0.350570
0.357868 0.357868 0.357868
0.365182 0.365182 0.365182
0.372512 0.372512 0.372512
0.379853 0.379853 0.379853
0.387202 0.387202 0.387202
0.394556 0.394556 0.394556
0.401911 0.401911 0.401911
0.409264 0.409264 0.409264
0.416612 0.416612 0.416612
0.423951 0.423951 0.423951
0.438588 0.438588 0.438588
0.453154 0.453154 0.453154
0.467678 0.467678 0.467678
0.482157 0.482157 0.482157
0.496574 0.496574 0.496574
0.510926 0.510926 0.510926
0.525409 0.525409 0.525409
0.540050 0.540050 0.540050
0.554818 0.554818 0.554818
0.272446 0.272446 0.272446
0.279326 0.279326 0.279326
0.286262 0.286262 0.286262
0.293248 0.293248 0.293248
0.300280 0.300280 0.300280
0.307358 0.307358 0.307358
0.314475 0.314475 0.314475
0.321632 0.321632 0.321632
0.328823 0.328823 0.328823
0.336045 0.336045 0.336045
0.343296 0.343296 0.343296
0.350570 0.350570 0.350570
0.357868 0.357868 0.357868
0.365182 0.365182 0.365182
0.372512 0.372512 0.372512
0.379853 0.379853 0.379853
0.387202 0.387202 0.387202
0.394556 0.394556 0.394556
0.401911 0.401911 0.401911
0.409264 0.409264 0.409264
0.416612 0.416612 0.416612
0.423951 0.423951 0.423951
0.431277 0.431277 0.431277
0.438588 0.438588 0.438588
0.445880 0.445880 0.445880
0.460421 0.460421 0.460421
0.474924 0.474924 0.474924
0.489374 0.489374 0.489374
0.503751 0.503751 0.503751
0.518146 0.518146 0.518146
0.532711 0.532711 0.532711
0.547419 0.547419 0.547419
0.562240 0.562240 0.562240
0.286262 0.286262 0.286262
0.293248 0.293248 0.293248
0.300280 0.300280 0.300280
0.307358 0.307358 0.307358
0.314475 0.314475 0.314475
0.321632 0.321632 0.321632
0.328823 0.328823 0.328823
0.336045 0.336045 0.336045
0.343296 0.343296 0.343296
0.350570 0.350570 0.350570
0.357868 0.357868 0.357868
0.365182 0.365182 0.365182
0.372512 0.372512 0.372512
0.379853 0.379853 0.379853
0.387202 0.387202 0.387202
0.394556 0.394556 0.394556
0.401911 0.401911 0.401911
0.409264 0.409264 0.409264
0.416612 0.416612 0.416612
0.423951 0.423951 0.423951
0.431277 0.431277 0.431277
0.438588 0.438588 0.438588
0.445880 0.445880 0.445880
0.453154 0.453154 0.453154
0.460421 0.460421 0.460421
0.467678 0.467678 0.467678
0.482157 0.482157 0.482157
0.496574 0.496574 0.496574
0.510926 0.510926 0.510926
0.525409 0.525409 0.525409
0.540050 0.540050 0.540050
0.554818 0.554818 0.554818
0.569692 0.569692 0.569692
0.300280 0.300280 0.300280
0.307358 0.307358 0.307358
0.314475 0.314475 0.314475
0.321632 0.321632 0.321632
0.328823 0.328823 0.328823
0.336045 0.336045 0.336045
0.343296 0.343296 0.343296
0.350570 0.350570 0.350570
0.357868 0.357868 0.357868
0.365182 0.365182 0.365182
0.372512 0.372512 0.372512
0.379853 0.379853 0.379853
0.387202 0.387202 0.387202
0.394556 0.394556 0.394556
0.401911 0.401911 0.401911
0.409264 0.409264 0.409264
0.416612 0.416612 0.416612
0.423951 0.423951 0.423951
0.431277 0.431277 0.431277
0.438588 0.438588 0.438588
0.445880 0.445880 0.445880
0.453154 0.453154 0.453154
