ricette/lut/Classica-125-33.cube
# LUT generata da Camera Oscura BN
# Ricetta: Classica 125
# Pellicola: fp4
# Nota: grana, vignetta e interventi locali non sono inclusi nella LUT.
TITLE "Classica 125"
LUT_3D_SIZE 5
DOMAIN_MIN 0.0 0.0 0.0
DOMAIN_MAX 1.0 1.0 1.0
0.003922 0.003922 0.003922
0.082666 0.082666 0.082666
0.170815 0.170815 0.170815
0.272446 0.272446 0.272446
0.387202 0.387202 0.387202
0.082666 0.082666 0.082666
0.125357 0.125357 0.125357
0.219634 0.219634 0.219634
0.328823 0.328823 0.328823
0.445880 0.445880 0.445880
0.170815 0.170815 0.170815
0.219634 0.219634 0.219634
0.272446 0.272446 0.272446
0.387202 0.387202 0.387202
0.503751 0.503751 0.503751
0.272446 0.272446 0.272446
0.328823 0.328823 0.328823
0.387202 0.387202 0.387202
0.445880 0.445880 0.445880
0.562240 0.562240 0.562240
0.387202 0.387202 0.387202
0.445880 0.445880 0.445880
0.503751 0.503751 0.503751
0.562240 0.562240 0.562240
0.622380 0.622380 0.622380
0.042286 0.042286 0.042286
0.170815 0.170815 0.170815
0.272446 0.272446 0.272446
0.387202 0.387202 0.387202
0.503751 0.503751 0.503751
0.125357 0.125357 0.125357
0.219634 0.219634 0.219634
0.328823 0.328823 0.328823
0.445880 0.445880 0.445880
0.562240 0.562240 0.562240
0.219634 0.219634 0.219634
0.328823 0.328823 0.328823
0.387202 0.387202 0.387202
0.503751 0.503751 0.503751
0.622380 0.622380 0.622380
0.328823 0.328823 0.328823
0.445880 0.445880 0.445880
0.503751 0.503751 0.503751
0.562240 0.562240 0.562240
0.682135 0.682135 0.682135
0.445880 0.445880 0.445880
0.562240 0.562240 0.562240
0.622380 0.622380 0.622380
0.682135 0.682135 0.682135
0.739006 0.739006 0.739006
0.082666 0.082666 0.082666
0.219634 0.219634 0.219634
0.387202 0.387202 0.387202
0.503751 0.503751 0.503751
0.622380 0.622380 0.622380
0.170815 0.170815 0.170815
0.272446 0.272446 0.272446
0.445880 0.445880 0.445880
0.562240 0.562240 0.562240
0.682135 0.682135 0.682135
0.272446 0.272446 0.272446
0.387202 0.387202 0.387202
0.503751 0.503751 0.503751
0.622380 0.622380 0.622380
0.739006 0.739006 0.739006
0.387202 0.387202 0.387202
0.503751 0.503751 0.503751
0.622380 0.622380 0.622380
0.682135 0.682135 0.682135
0.790695 0.790695 0.790695
0.503751 0.503751 0.503751
0.622380 0.622380 0.622380
0.739006 0.739006 0.739006
0.790695 0.790695 0.790695
0.836975 0.836975 0.836975
0.125357 0.125357 0.125357
0.272446 0.272446 0.272446
0.445880 0.445880 0.445880
0.622380 0.622380 0.622380
0.739006 0.739006 0.739006
0.219634 0.219634 0.219634
0.328823 0.328823 0.328823
0.503751 0.503751 0.503751
0.682135 0.682135 0.682135
0.790695 0.790695 0.790695
0.328823 0.328823 0.328823
0.445880 0.445880 0.445880
0.562240 0.562240 0.562240
0.739006 0.739006 0.739006
0.836975 0.836975 0.836975
0.445880 0.445880 0.445880
0.562240 0.562240 0.562240
0.682135 0.682135 0.682135
0.790695 0.790695 0.790695
0.879242 0.879242 0.879242
0.562240 0.562240 0.562240
0.682135 0.682135 0.682135
0.790695 0.790695 0.790695
0.879242 0.879242 0.879242
0.918625 0.918625 0.918625
0.170815 0.170815 0.170815
0.328823 0.328823 0.328823
0.503751 0.503751 0.503751
0.682135 0.682135 0.682135
0.836975 0.836975 0.836975
0.272446 0.272446 0.272446
0.387202 0.387202 0.387202
0.562240 0.562240 0.562240
0.739006 0.739006 0.739006
0.879242 0.879242 0.879242
0.387202 0.387202 0.387202
0.503751 0.503751 0.503751
0.622380 0.622380 0.622380
0.790695 0.790695 0.790695
0.918625 0.918625 0.918625
0.503751 0.503751 0.503751
0.622380 0.622380 0.622380
0.739006 0.739006 0.739006
0.836975 0.836975 0.836975
0.956040 0.956040 0.956040
0.622380 0.622380 0.622380
0.739006 0.739006 0.739006
0.836975 0.836975 0.836975
0.918625 0.918625 0.918625
0.992157 0.992157 0.992157
