ricette/lut/Classica-125-33.cube
# LUT generata da Camera Oscura BN
# Ricetta: Classica 125
# Pellicola: fp4
# Nota: grana, vignetta e interventi locali non sono inclusi nella LUT.
TITLE "Classica 125"
LUT_3D_SIZE 9
DOMAIN_MIN 0.0 0.0 0.0
DOMAIN_MAX 1.0 1.0 1.0
0.003922 0.003922 0.003922
0.042286 0.042286 0.042286
0.082666 0.082666 0.082666
0.125357 0.125357 0.125357
0.170815 0.170815 0.170815
0.219634 0.219634 0.219634
0.272446 0.272446 0.272446
0.328823 0.328823 0.328823
0.387202 0.387202 0.387202
0.042286 0.042286 0.042286
0.062209 0.062209 0.062209
0.103696 0.103696 0.103696
0.147707 0.147707 0.147707
0.194766 0.194766 0.194766
0.245512 0.245512 0.245512
0.300280 0.300280 0.300280
0.357868 0.357868 0.357868
0.416612 0.416612 0.416612
0.082666 0.082666 0.082666
0.103696 0.103696 0.103696
0.125357 0.125357 0.125357
0.170815 0.170815 0.170815
0.219634 0.219634 0.219634
0.272446 0.272446 0.272446
0.328823 0.328823 0.328823
0.387202 0.387202 0.387202
0.445880 0.445880 0.445880
0.125357 0.125357 0.125357
0.147707 0.147707 0.147707
0.170815 0.170815 0.170815
0.194766 0.194766 0.194766
0.245512 0.245512 0.245512
0.300280 0.300280 0.300280
0.357868 0.357868 0.357868
0.416612 0.416612 0.416612
0.474924 0.474924 0.474924
0.170815 0.170815 0.170815
0.194766 0.194766 0.194766
0.219634 0.219634 0.219634
0.245512 0.245512 0.245512
0.272446 0.272446 0.272446
0.328823 0.328823 0.328823
0.387202 0.387202 0.387202
0.445880 0.445880 0.445880
0.503751 0.503751 0.503751
0.219634 0.219634 0.219634
0.245512 0.245512 0.245512
0.272446 0.272446 0.272446
0.300280 0.300280 0.300280
0.328823 0.328823 0.328823
0.357868 0.357868 0.357868
0.416612 0.416612 0.416612
0.474924 0.474924 0.474924
0.532711 0.532711 0.532711
0.272446 0.272446 0.272446
0.300280 0.300280 0.300280
0.328823 0.328823 0.328823
0.357868 0.357868 0.357868
0.387202 0.387202 0.387202
0.416612 0.416612 0.416612
0.445880 0.445880 0.445880
0.503751 0.503751 0.503751
0.562240 0.562240 0.562240
0.328823 0.328823 0.328823
0.357868 0.357868 0.357868
0.387202 0.387202 0.387202
0.416612 0.416612 0.416612
0.445880 0.445880 0.445880
0.474924 0.474924 0.474924
0.503751 0.503751 0.503751
0.532711 0.532711 0.532711
0.592201 0.592201 0.592201
0.387202 0.387202 0.387202
0.416612 0.416612 0.416612
0.445880 0.445880 0.445880
0.474924 0.474924 0.474924
0.503751 0.503751 0.503751
0.532711 0.532711 0.532711
0.562240 0.562240 0.562240
0.592201 0.592201 0.592201
0.622380 0.622380 0.622380
0.022865 0.022865 0.022865
0.082666 0.082666 0.082666
0.125357 0.125357 0.125357
0.170815 0.170815 0.170815
0.219634 0.219634 0.219634
0.272446 0.272446 0.272446
0.328823 0.328823 0.328823
0.387202 0.387202 0.387202
0.445880 0.445880 0.445880
0.062209 0.062209 0.062209
0.103696 0.103696 0.103696
0.147707 0.147707 0.147707
0.194766 0.194766 0.194766
0.245512 0.245512 0.245512
0.300280 0.300280 0.300280
0.357868 0.357868 0.357868
0.416612 0.416612 0.416612
0.474924 0.474924 0.474924
0.103696 0.103696 0.103696
0.147707 0.147707 0.147707
0.170815 0.170815 0.170815
0.219634 0.219634 0.219634
0.272446 0.272446 0.272446
0.328823 0.328823 0.328823
0.387202 0.387202 0.387202
0.445880 0.445880 0.445880
0.503751 0.503751 0.503751
0.147707 0.147707 0.147707
0.194766 0.194766 0.194766
0.219634 0.219634 0.219634
0.245512 0.245512 0.245512
0.300280 0.300280 0.300280
0.357868 0.357868 0.357868
0.416612 0.416612 0.416612
0.474924 0.474924 0.474924
0.532711 0.532711 0.532711
0.194766 0.194766 0.194766
0.245512 0.245512 0.245512
0.272446 0.272446 0.272446
0.300280 0.300280 0.300280
0.328823 0.328823 0.328823
0.387202 0.387202 0.387202
0.445880 0.445880 0.445880
0.503751 0.503751 0.503751
0.562240 0.562240 0.562240
0.245512 0.245512 0.245512
0.300280 0.300280 0.300280
0.328823 0.328823 0.328823
0.357868 0.357868 0.357868
0.387202 0.387202 0.387202
0.416612 0.416612 0.416612
0.474924 0.474924 0.474924
0.532711 0.532711 0.532711
0.592201 0.592201 0.592201
0.300280 0.300280 0.300280
0.357868 0.357868 0.357868
0.387202 0.387202 0.387202
0.416612 0.416612 0.416612
0.445880 0.445880 0.445880
0.474924 0.474924 0.474924
0.503751 0.503751 0.503751
0.562240 0.562240 0.562240
0.622380 0.622380 0.622380
0.357868 0.357868 0.357868
0.416612 0.416612 0.416612
0.445880 0.445880 0.445880
0.474924 0.474924 0.474924
0.503751 0.503751 0.503751
0.532711 0.532711 0.532711
0.562240 0.562240 0.562240
0.592201 0.592201 0.592201
0.652463 0.652463 0.652463
0.416612 0.416612 0.416612
0.474924 0.474924 0.474924
0.503751 0.503751 0.503751
0.532711 0.532711 0.532711
0.562240 0.562240 0.562240
0.592201 0.592201 0.592201
0.622380 0.622380 0.622380
0.652463 0.652463 0.652463
0.682135 0.682135 0.682135
0.042286 0.042286 0.042286
0.103696 0.103696 0.103696
0.170815 0.170815 0.170815
0.219634 0.219634 0.219634
0.272446 0.272446 0.272446
0.328823 0.328823 0.328823
0.387202 0.387202 0.387202
0.445880 0.445880 0.445880
0.503751 0.503751 0.503751
0.082666 0.082666 0.082666
0.125357 0.125357 0.125357
0.194766 0.194766 0.194766
0.245512 0.245512 0.245512
0.300280 0.300280 0.300280
0.357868 0.357868 0.357868
0.416612 0.416612 0.416612
0.474924 0.474924 0.474924
0.532711 0.532711 0.532711
0.125357 0.125357 0.125357
0.170815 0.170815 0.170815
0.219634 0.219634 0.219634
0.272446 0.272446 0.272446
0.328823 0.328823 0.328823
0.387202 0.387202 0.387202
0.445880 0.445880 0.445880
0.503751 0.503751 0.503751
0.562240 0.562240 0.562240
0.170815 0.170815 0.170815
0.219634 0.219634 0.219634
0.272446 0.272446 0.272446
0.300280 0.300280 0.300280
0.357868 0.357868 0.357868
0.416612 0.416612 0.416612
0.474924 0.474924 0.474924
0.532711 0.532711 0.532711
0.592201 0.592201 0.592201
0.219634 0.219634 0.219634
0.272446 0.272446 0.272446
0.328823 0.328823 0.328823
0.357868 0.357868 0.357868
0.387202 0.387202 0.387202
0.445880 0.445880 0.445880
0.503751 0.503751 0.503751
0.562240 0.562240 0.562240
0.622380 0.622380 0.622380
0.272446 0.272446 0.272446
0.328823 0.328823 0.328823
0.387202 0.387202 0.387202
0.416612 0.416612 0.416612
0.445880 0.445880 0.445880
0.474924 0.474924 0.474924
0.532711 0.532711 0.532711
0.592201 0.592201 0.592201
0.652463 0.652463 0.652463
0.328823 0.328823 0.328823
0.387202 0.387202 0.387202
0.445880 0.445880 0.445880
0.474924 0.474924 0.474924
0.503751 0.503751 0.503751
0.532711 0.532711 0.532711
0.562240 0.562240 0.562240
0.622380 0.622380 0.622380
0.682135 0.682135 0.682135
0.387202 0.387202 0.387202
0.445880 0.445880 0.445880
0.503751 0.503751 0.503751
0.532711 0.532711 0.532711
0.562240 0.562240 0.562240
0.592201 0.592201 0.592201
0.622380 0.622380 0.622380
0.652463 0.652463 0.652463
0.711084 0.711084 0.711084
0.445880 0.445880 0.445880
0.503751 0.503751 0.503751
0.562240 0.562240 0.562240
0.592201 0.592201 0.592201
0.622380 0.622380 0.622380
0.652463 0.652463 0.652463
0.682135 0.682135 0.682135
0.711084 0.711084 0.711084
0.739006 0.739006 0.739006
0.062209 0.062209 0.062209
0.125357 0.125357 0.125357
0.194766 0.194766 0.194766
0.272446 0.272446 0.272446
0.328823 0.328823 0.328823
0.387202 0.387202 0.387202
0.445880 0.445880 0.445880
0.503751 0.503751 0.503751
0.562240 0.562240 0.562240
0.103696 0.103696 0.103696
0.147707 0.147707 0.147707
0.219634 0.219634 0.219634
0.300280 0.300280 0.300280
0.357868 0.357868 0.357868
0.416612 0.416612 0.416612
0.474924 0.474924 0.474924
0.532711 0.532711 0.532711
0.592201 0.592201 0.592201
0.147707 0.147707 0.147707
0.194766 0.194766 0.194766
0.245512 0.245512 0.245512
0.328823 0.328823 0.328823
0.387202 0.387202 0.387202
0.445880 0.445880 0.445880
0.503751 0.503751 0.503751
0.562240 0.562240 0.562240
0.622380 0.622380 0.622380
0.194766 0.194766 0.194766
0.245512 0.245512 0.245512
0.300280 0.300280 0.300280
0.357868 0.357868 0.357868
0.416612 0.416612 0.416612
0.474924 0.474924 0.474924
0.532711 0.532711 0.532711
0.592201 0.592201 0.592201
0.652463 0.652463 0.652463
0.245512 0.245512 0.245512
0.300280 0.300280 0.300280
0.357868 0.357868 0.357868
0.416612 0.416612 0.416612
0.445880 0.445880 0.445880
0.503751 0.503751 0.503751
0.562240 0.562240 0.562240
0.622380 0.622380 0.622380
0.682135 0.682135 0.682135
0.300280 0.300280 0.300280
0.357868 0.357868 0.357868
0.416612 0.416612 0.416612
0.474924 0.474924 0.474924
0.503751 0.503751 0.503751
0.532711 0.532711 0.532711
0.592201 0.592201 0.592201
0.652463 0.652463 0.652463
0.711084 0.711084 0.711084
0.357868 0.357868 0.357868
0.416612 0.416612 0.416612
0.474924 0.474924 0.474924
0.532711 0.532711 0.532711
0.562240 0.562240 0.562240
0.592201 0.592201 0.592201
0.622380 0.622380 0.622380
0.682135 0.682135 0.682135
0.739006 0.739006 0.739006
0.416612 0.416612 0.416612
0.474924 0.474924 0.474924
0.532711 0.532711 0.532711
0.592201 0.592201 0.592201
0.622380 0.622380 0.622380
0.652463 0.652463 0.652463
0.682135 0.682135 0.682135
0.711084 0.711084 0.711084
0.765622 0.765622 0.765622
0.474924 0.474924 0.474924
0.532711 0.532711 0.532711
0.592201 0.592201 0.592201
0.652463 0.652463 0.652463
0.682135 0.682135 0.682135
0.711084 0.711084 0.711084
0.739006 0.739006 0.739006
0.765622 0.765622 0.765622
0.790695 0.790695 0.790695
0.082666 0.082666 0.082666
0.147707 0.147707 0.147707
0.219634 0.219634 0.219634
0.300280 0.300280 0.300280
0.387202 0.387202 0.387202
0.445880 0.445880 0.445880
0.503751 0.503751 0.503751
0.562240 0.562240 0.562240
0.622380 0.622380 0.622380
0.125357 0.125357 0.125357
0.170815 0.170815 0.170815
0.245512 0.245512 0.245512
0.328823 0.328823 0.328823
0.416612 0.416612 0.416612
0.474924 0.474924 0.474924
0.532711 0.532711 0.532711
0.592201 0.592201 0.592201
0.652463 0.652463 0.652463
0.170815 0.170815 0.170815
0.219634 0.219634 0.219634
0.272446 0.272446 0.272446
0.357868 0.357868 0.357868
0.445880 0.445880 0.445880
0.503751 0.503751 0.503751
0.562240 0.562240 0.562240
0.622380 0.622380 0.622380
0.682135 0.682135 0.682135
0.219634 0.219634 0.219634
0.272446 0.272446 0.272446
0.328823 0.328823 0.328823
0.387202 0.387202 0.387202
0.474924 0.474924 0.474924
0.532711 0.532711 0.532711
0.592201 0.592201 0.592201
0.652463 0.652463 0.652463
0.711084 0.711084 0.711084
0.272446 0.272446 0.272446
0.328823 0.328823 0.328823
0.387202 0.387202 0.387202
0.445880 0.445880 0.445880
0.503751 0.503751 0.503751
0.562240 0.562240 0.562240
0.622380 0.622380 0.622380
0.682135 0.682135 0.682135
0.739006 0.739006 0.739006
0.328823 0.328823 0.328823
0.387202 0.387202 0.387202
0.445880 0.445880 0.445880
0.503751 0.503751 0.503751
0.562240 0.562240 0.562240
0.592201 0.592201 0.592201
0.652463 0.652463 0.652463
0.711084 0.711084 0.711084
0.765622 0.765622 0.765622
0.387202 0.387202 0.387202
0.445880 0.445880 0.445880
0.503751 0.503751 0.503751
0.562240 0.562240 0.562240
0.622380 0.622380 0.622380
0.652463 0.652463 0.652463
0.682135 0.682135 0.682135
0.739006 0.739006 0.739006
0.790695 0.790695 0.790695
0.445880 0.445880 0.445880
0.503751 0.503751 0.503751
0.562240 0.562240 0.562240
0.622380 0.622380 0.622380
0.682135 0.682135 0.682135
0.711084 0.711084 0.711084
0.739006 0.739006 0.739006
0.765622 0.765622 0.765622
0.814410 0.814410 0.814410
0.503751 0.503751 0.503751
0.562240 0.562240 0.562240
0.622380 0.622380 0.622380
0.682135 0.682135 0.682135
0.739006 0.739006 0.739006
0.765622 0.765622 0.765622
0.790695 0.790695 0.790695
0.814410 0.814410 0.814410
0.836975 0.836975 0.836975
0.103696 0.103696 0.103696
0.170815 0.170815 0.170815
0.245512 0.245512 0.245512
0.328823 0.328823 0.328823
0.416612 0.416612 0.416612
0.503751 0.503751 0.503751
0.562240 0.562240 0.562240
0.622380 0.622380 0.622380
0.682135 0.682135 0.682135
0.147707 0.147707 0.147707
0.194766 0.194766 0.194766
0.272446 0.272446 0.272446
0.357868 0.357868 0.357868
0.445880 0.445880 0.445880
0.532711 0.532711 0.532711
0.592201 0.592201 0.592201
0.652463 0.652463 0.652463
0.711084 0.711084 0.711084
0.194766 0.194766 0.194766
0.245512 0.245512 0.245512
0.300280 0.300280 0.300280
0.387202 0.387202 0.387202
0.474924 0.474924 0.474924
0.562240 0.562240 0.562240
0.622380 0.622380 0.622380
0.682135 0.682135 0.682135
0.739006 0.739006 0.739006
0.245512 0.245512 0.245512
0.300280 0.300280 0.300280
0.357868 0.357868 0.357868
0.416612 0.416612 0.416612
0.503751 0.503751 0.503751
0.592201 0.592201 0.592201
0.652463 0.652463 0.652463
0.711084 0.711084 0.711084
0.765622 0.765622 0.765622
0.300280 0.300280 0.300280
0.357868 0.357868 0.357868
0.416612 0.416612 0.416612
0.474924 0.474924 0.474924
0.532711 0.532711 0.532711
0.622380 0.622380 0.622380
0.682135 0.682135 0.682135
0.739006 0.739006 0.739006
0.790695 0.790695 0.790695
0.357868 0.357868 0.357868
0.416612 0.416612 0.416612
0.474924 0.474924 0.474924
0.532711 0.532711 0.532711
0.592201 0.592201 0.592201
0.652463 0.652463 0.652463
0.711084 0.711084 0.711084
0.765622 0.765622 0.765622
0.814410 0.814410 0.814410
0.416612 0.416612 0.416612
0.474924 0.474924 0.474924
0.532711 0.532711 0.532711
0.592201 0.592201 0.592201
0.652463 0.652463 0.652463
0.711084 0.711084 0.711084
0.739006 0.739006 0.739006
0.790695 0.790695 0.790695
0.836975 0.836975 0.836975
0.474924 0.474924 0.474924
0.532711 0.532711 0.532711
0.592201 0.592201 0.592201
0.652463 0.652463 0.652463
0.711084 0.711084 0.711084
0.765622 0.765622 0.765622
0.790695 0.790695 0.790695
0.814410 0.814410 0.814410
0.858534 0.858534 0.858534
0.532711 0.532711 0.532711
0.592201 0.592201 0.592201
0.652463 0.652463 0.652463
0.711084 0.711084 0.711084
0.765622 0.765622 0.765622
0.814410 0.814410 0.814410
0.836975 0.836975 0.836975
0.858534 0.858534 0.858534
0.879242 0.879242 0.879242
0.125357 0.125357 0.125357
0.194766 0.194766 0.194766
0.272446 0.272446 0.272446
0.357868 0.357868 0.357868
0.445880 0.445880 0.445880
0.532711 0.532711 0.532711
0.622380 0.622380 0.622380
0.682135 0.682135 0.682135
0.739006 0.739006 0.739006
0.170815 0.170815 0.170815
0.219634 0.219634 0.219634
0.300280 0.300280 0.300280
0.387202 0.387202 0.387202
0.474924 0.474924 0.474924
0.562240 0.562240 0.562240
0.652463 0.652463 0.652463
0.711084 0.711084 0.711084
0.765622 0.765622 0.765622
0.219634 0.219634 0.219634
0.272446 0.272446 0.272446
0.328823 0.328823 0.328823
0.416612 0.416612 0.416612
0.503751 0.503751 0.503751
0.592201 0.592201 0.592201
0.682135 0.682135 0.682135
0.739006 0.739006 0.739006
0.790695 0.790695 0.790695
0.272446 0.272446 0.272446
0.328823 0.328823 0.328823
0.387202 0.387202 0.387202
0.445880 0.445880 0.445880
0.532711 0.532711 0.532711
0.622380 0.622380 0.622380
0.711084 0.711084 0.711084
0.765622 0.765622 0.765622
0.814410 0.814410 0.814410
0.328823 0.328823 0.328823
0.387202 0.387202 0.387202
0.445880 0.445880 0.445880
0.503751 0.503751 0.503751
0.562240 0.562240 0.562240
0.652463 0.652463 0.652463
0.739006 0.739006 0.739006
0.790695 0.790695 0.790695
0.836975 0.836975 0.836975
0.387202 0.387202 0.387202
0.445880 0.445880 0.445880
0.503751 0.503751 0.503751
0.562240 0.562240 0.562240
0.622380 0.622380 0.622380
0.682135 0.682135 0.682135
0.765622 0.765622 0.765622
0.814410 0.814410 0.814410
0.858534 0.858534 0.858534
0.445880 0.445880 0.445880
0.503751 0.503751 0.503751
0.562240 0.562240 0.562240
0.622380 0.622380 0.622380
0.682135 0.682135 0.682135
0.739006 0.739006 0.739006
0.790695 0.790695 0.790695
0.836975 0.836975 0.836975
0.879242 0.879242 0.879242
0.503751 0.503751 0.503751
0.562240 0.562240 0.562240
0.622380 0.622380 0.622380
0.682135 0.682135 0.682135
0.739006 0.739006 0.739006
0.790695 0.790695 0.790695
0.836975 0.836975 0.836975
0.858534 0.858534 0.858534
0.899232 0.899232 0.899232
0.562240 0.562240 0.562240
0.622380 0.622380 0.622380
0.682135 0.682135 0.682135
0.739006 0.739006 0.739006
0.790695 0.790695 0.790695
0.836975 0.836975 0.836975
0.879242 0.879242 0.879242
0.899232 0.899232 0.899232
0.918625 0.918625 0.918625
0.147707 0.147707 0.147707
0.219634 0.219634 0.219634
0.300280 0.300280 0.300280
0.387202 0.387202 0.387202
0.474924 0.474924 0.474924
0.562240 0.562240 0.562240
0.652463 0.652463 0.652463
0.739006 0.739006 0.739006
0.790695 0.790695 0.790695
0.194766 0.194766 0.194766
0.245512 0.245512 0.245512
0.328823 0.328823 0.328823
0.416612 0.416612 0.416612
0.503751 0.503751 0.503751
0.592201 0.592201 0.592201
0.682135 0.682135 0.682135
0.765622 0.765622 0.765622
0.814410 0.814410 0.814410
0.245512 0.245512 0.245512
0.300280 0.300280 0.300280
0.357868 0.357868 0.357868
0.445880 0.445880 0.445880
0.532711 0.532711 0.532711
0.622380 0.622380 0.622380
0.711084 0.711084 0.711084
0.790695 0.790695 0.790695
0.836975 0.836975 0.836975
0.300280 0.300280 0.300280
0.357868 0.357868 0.357868
0.416612 0.416612 0.416612
0.474924 0.474924 0.474924
0.562240 0.562240 0.562240
0.652463 0.652463 0.652463
0.739006 0.739006 0.739006
0.814410 0.814410 0.814410
0.858534 0.858534 0.858534
0.357868 0.357868 0.357868
0.416612 0.416612 0.416612
0.474924 0.474924 0.474924
0.532711 0.532711 0.532711
0.592201 0.592201 0.592201
0.682135 0.682135 0.682135
0.765622 0.765622 0.765622
0.836975 0.836975 0.836975
0.879242 0.879242 0.879242
0.416612 0.416612 0.416612
0.474924 0.474924 0.474924
0.532711 0.532711 0.532711
0.592201 0.592201 0.592201
0.652463 0.652463 0.652463
0.711084 0.711084 0.711084
0.790695 0.790695 0.790695
0.858534 0.858534 0.858534
0.899232 0.899232 0.899232
0.474924 0.474924 0.474924
0.532711 0.532711 0.532711
0.592201 0.592201 0.592201
0.652463 0.652463 0.652463
0.711084 0.711084 0.711084
0.765622 0.765622 0.765622
0.814410 0.814410 0.814410
0.879242 0.879242 0.879242
0.918625 0.918625 0.918625
0.532711 0.532711 0.532711
0.592201 0.592201 0.592201
0.652463 0.652463 0.652463
0.711084 0.711084 0.711084
0.765622 0.765622 0.765622
0.814410 0.814410 0.814410
0.858534 0.858534 0.858534
0.899232 0.899232 0.899232
0.937531 0.937531 0.937531
0.592201 0.592201 0.592201
0.652463 0.652463 0.652463
0.711084 0.711084 0.711084
0.765622 0.765622 0.765622
0.814410 0.814410 0.814410
0.858534 0.858534 0.858534
0.899232 0.899232 0.899232
0.937531 0.937531 0.937531
0.956040 0.956040 0.956040
0.170815 0.170815 0.170815
0.245512 0.245512 0.245512
0.328823 0.328823 0.328823
0.416612 0.416612 0.416612
0.503751 0.503751 0.503751
0.592201 0.592201 0.592201
0.682135 0.682135 0.682135
0.765622 0.765622 0.765622
0.836975 0.836975 0.836975
0.219634 0.219634 0.219634
0.272446 0.272446 0.272446
0.357868 0.357868 0.357868
0.445880 0.445880 0.445880
0.532711 0.532711 0.532711
0.622380 0.622380 0.622380
0.711084 0.711084 0.711084
0.790695 0.790695 0.790695
0.858534 0.858534 0.858534
0.272446 0.272446 0.272446
0.328823 0.328823 0.328823
0.387202 0.387202 0.387202
0.474924 0.474924 0.474924
0.562240 0.562240 0.562240
0.652463 0.652463 0.652463
0.739006 0.739006 0.739006
0.814410 0.814410 0.814410
0.879242 0.879242 0.879242
0.328823 0.328823 0.328823
0.387202 0.387202 0.387202
0.445880 0.445880 0.445880
0.503751 0.503751 0.503751
0.592201 0.592201 0.592201
0.682135 0.682135 0.682135
0.765622 0.765622 0.765622
0.836975 0.836975 0.836975
0.899232 0.899232 0.899232
0.387202 0.387202 0.387202
0.445880 0.445880 0.445880
0.503751 0.503751 0.503751
0.562240 0.562240 0.562240
0.622380 0.622380 0.622380
0.711084 0.711084 0.711084
0.790695 0.790695 0.790695
0.858534 0.858534 0.858534
0.918625 0.918625 0.918625
0.445880 0.445880 0.445880
0.503751 0.503751 0.503751
0.562240 0.562240 0.562240
0.622380 0.622380 0.622380
0.682135 0.682135 0.682135
0.739006 0.739006 0.739006
0.814410 0.814410 0.814410
0.879242 0.879242 0.879242
0.937531 0.937531 0.937531
0.503751 0.503751 0.503751
0.562240 0.562240 0.562240
0.622380 0.622380 0.622380
0.682135 0.682135 0.682135
0.739006 0.739006 0.739006
0.790695 0.790695 0.790695
0.836975 0.836975 0.836975
0.899232 0.899232 0.899232
0.956040 0.956040 0.956040
0.562240 0.562240 0.562240
0.622380 0.622380 0.622380
0.682135 0.682135 0.682135
0.739006 0.739006 0.739006
0.790695 0.790695 0.790695
0.836975 0.836975 0.836975
0.879242 0.879242 0.879242
0.918625 0.918625 0.918625
0.974229 0.974229 0.974229
0.622380 0.622380 0.622380
0.682135 0.682135 0.682135
0.739006 0.739006 0.739006
0.790695 0.790695 0.790695
0.836975 0.836975 0.836975
0.879242 0.879242 0.879242
0.918625 0.918625 0.918625
0.956040 0.956040 0.956040
0.992157 0.992157 0.992157
