ricette/lut/Cristallo-50-33.cube
# LUT generata da Camera Oscura BN
# Ricetta: Cristallo 50
# Pellicola: panf50
# Nota: grana, vignetta e interventi locali non sono inclusi nella LUT.
TITLE "Cristallo 50"
LUT_3D_SIZE 5
DOMAIN_MIN 0.0 0.0 0.0
DOMAIN_MAX 1.0 1.0 1.0
0.000000 0.000000 0.000000
0.039905 0.039905 0.039905
0.107022 0.107022 0.107022
0.222657 0.222657 0.222657
0.367539 0.367539 0.367539
0.039905 0.039905 0.039905
0.067153 0.067153 0.067153
0.161088 0.161088 0.161088
0.292303 0.292303 0.292303
0.443121 0.443121 0.443121
0.107022 0.107022 0.107022
0.161088 0.161088 0.161088
0.222657 0.222657 0.222657
0.367539 0.367539 0.367539
0.515221 0.515221 0.515221
0.222657 0.222657 0.222657
0.292303 0.292303 0.292303
0.367539 0.367539 0.367539
0.443121 0.443121 0.443121
0.586943 0.586943 0.586943
0.367539 0.367539 0.367539
0.443121 0.443121 0.443121
0.515221 0.515221 0.515221
0.586943 0.586943 0.586943
0.660336 0.660336 0.660336
0.018721 0.018721 0.018721
0.107022 0.107022 0.107022
0.222657 0.222657 0.222657
0.367539 0.367539 0.367539
0.515221 0.515221 0.515221
0.067153 0.067153 0.067153
0.161088 0.161088 0.161088
0.292303 0.292303 0.292303
0.443121 0.443121 0.443121
0.586943 0.586943 0.586943
0.161088 0.161088 0.161088
0.292303 0.292303 0.292303
0.367539 0.367539 0.367539
0.515221 0.515221 0.515221
0.660336 0.660336 0.660336
0.292303 0.292303 0.292303
0.443121 0.443121 0.443121
0.515221 0.515221 0.515221
0.586943 0.586943 0.586943
0.730440 0.730440 0.730440
0.443121 0.443121 0.443121
0.586943 0.586943 0.586943
0.660336 0.660336 0.660336
0.730440 0.730440 0.730440
0.792079 0.792079 0.792079
0.039905 0.039905 0.039905
0.161088 0.161088 0.161088
0.367539 0.367539 0.367539
0.515221 0.515221 0.515221
0.660336 0.660336 0.660336
0.107022 0.107022 0.107022
0.222657 0.222657 0.222657
0.443121 0.443121 0.443121
0.586943 0.586943 0.586943
0.730440 0.730440 0.730440
0.222657 0.222657 0.222657
0.367539 0.367539 0.367539
0.515221 0.515221 0.515221
0.660336 0.660336 0.660336
0.792079 0.792079 0.792079
0.367539 0.367539 0.367539
0.515221 0.515221 0.515221
0.660336 0.660336 0.660336
0.730440 0.730440 0.730440
0.841567 0.841567 0.841567
0.515221 0.515221 0.515221
0.660336 0.660336 0.660336
0.792079 0.792079 0.792079
0.841567 0.841567 0.841567
0.881832 0.881832 0.881832
0.067153 0.067153 0.067153
0.222657 0.222657 0.222657
0.443121 0.443121 0.443121
0.660336 0.660336 0.660336
0.792079 0.792079 0.792079
0.161088 0.161088 0.161088
0.292303 0.292303 0.292303
0.515221 0.515221 0.515221
0.730440 0.730440 0.730440
0.841567 0.841567 0.841567
0.292303 0.292303 0.292303
0.443121 0.443121 0.443121
0.586943 0.586943 0.586943
0.792079 0.792079 0.792079
0.881832 0.881832 0.881832
0.443121 0.443121 0.443121
0.586943 0.586943 0.586943
0.730440 0.730440 0.730440
0.841567 0.841567 0.841567
0.916021 0.916021 0.916021
0.586943 0.586943 0.586943
0.730440 0.730440 0.730440
0.841567 0.841567 0.841567
0.916021 0.916021 0.916021
0.946262 0.946262 0.946262
0.107022 0.107022 0.107022
0.292303 0.292303 0.292303
0.515221 0.515221 0.515221
0.730440 0.730440 0.730440
0.881832 0.881832 0.881832
0.222657 0.222657 0.222657
0.367539 0.367539 0.367539
0.586943 0.586943 0.586943
0.792079 0.792079 0.792079
0.916021 0.916021 0.916021
0.367539 0.367539 0.367539
0.515221 0.515221 0.515221
0.660336 0.660336 0.660336
0.841567 0.841567 0.841567
0.946262 0.946262 0.946262
0.515221 0.515221 0.515221
0.660336 0.660336 0.660336
0.792079 0.792079 0.792079
0.881832 0.881832 0.881832
0.973999 0.973999 0.973999
0.660336 0.660336 0.660336
0.792079 0.792079 0.792079
0.881832 0.881832 0.881832
0.946262 0.946262 0.946262
1.000000 1.000000 1.000000
