ricette/lut/Cristallo-50-33.cube
# LUT generata da Camera Oscura BN
# Ricetta: Cristallo 50
# Pellicola: panf50
# Nota: grana, vignetta e interventi locali non sono inclusi nella LUT.
TITLE "Cristallo 50"
LUT_3D_SIZE 33
DOMAIN_MIN 0.0 0.0 0.0
DOMAIN_MAX 1.0 1.0 1.0
0.000000 0.000000 0.000000
0.004557 0.004557 0.004557
0.009184 0.009184 0.009184
0.013897 0.013897 0.013897
0.018721 0.018721 0.018721
0.023688 0.023688 0.023688
0.028839 0.028839 0.028839
0.034225 0.034225 0.034225
0.039905 0.039905 0.039905
0.045948 0.045948 0.045948
0.052437 0.052437 0.052437
0.059468 0.059468 0.059468
0.067153 0.067153 0.067153
0.075606 0.075606 0.075606
0.085047 0.085047 0.085047
0.095539 0.095539 0.095539
0.107022 0.107022 0.107022
0.119432 0.119432 0.119432
0.132656 0.132656 0.132656
0.146583 0.146583 0.146583
0.161088 0.161088 0.161088
0.176030 0.176030 0.176030
0.191256 0.191256 0.191256
0.206669 0.206669 0.206669
0.222657 0.222657 0.222657
0.239280 0.239280 0.239280
0.256472 0.256472 0.256472
0.274170 0.274170 0.274170
0.292303 0.292303 0.292303
0.310786 0.310786 0.310786
0.329542 0.329542 0.329542
0.348487 0.348487 0.348487
0.367539 0.367539 0.367539
0.004557 0.004557 0.004557
0.006861 0.006861 0.006861
0.011527 0.011527 0.011527
0.016293 0.016293 0.016293
0.021185 0.021185 0.021185
0.026239 0.026239 0.026239
0.031500 0.031500 0.031500
0.037022 0.037022 0.037022
0.042873 0.042873 0.042873
0.049132 0.049132 0.049132
0.055883 0.055883 0.055883
0.063226 0.063226 0.063226
0.071270 0.071270 0.071270
0.080180 0.080180 0.080180
0.090163 0.090163 0.090163
0.101169 0.101169 0.101169
0.113126 0.113126 0.113126
0.125948 0.125948 0.125948
0.139532 0.139532 0.139532
0.153770 0.153770 0.153770
0.168515 0.168515 0.168515
0.183620 0.183620 0.183620
0.198922 0.198922 0.198922
0.214575 0.214575 0.214575
0.230888 0.230888 0.230888
0.247809 0.247809 0.247809
0.265267 0.265267 0.265267
0.283190 0.283190 0.283190
0.301504 0.301504 0.301504
0.320133 0.320133 0.320133
0.338996 0.338996 0.338996
0.358005 0.358005 0.358005
0.377079 0.377079 0.377079
0.009184 0.009184 0.009184
0.011527 0.011527 0.011527
0.013897 0.013897 0.013897
0.018721 0.018721 0.018721
0.023688 0.023688 0.023688
0.028839 0.028839 0.028839
0.034225 0.034225 0.034225
0.039905 0.039905 0.039905
0.045948 0.045948 0.045948
0.052437 0.052437 0.052437
0.059468 0.059468 0.059468
0.067153 0.067153 0.067153
0.075606 0.075606 0.075606
0.085047 0.085047 0.085047
0.095539 0.095539 0.095539
0.107022 0.107022 0.107022
0.119432 0.119432 0.119432
0.132656 0.132656 0.132656
0.146583 0.146583 0.146583
0.161088 0.161088 0.161088
0.176030 0.176030 0.176030
0.191256 0.191256 0.191256
0.206669 0.206669 0.206669
0.222657 0.222657 0.222657
0.239280 0.239280 0.239280
0.256472 0.256472 0.256472
0.274170 0.274170 0.274170
0.292303 0.292303 0.292303
0.310786 0.310786 0.310786
0.329542 0.329542 0.329542
0.348487 0.348487 0.348487
0.367539 0.367539 0.367539
0.386613 0.386613 0.386613
0.013897 0.013897 0.013897
0.016293 0.016293 0.016293
0.018721 0.018721 0.018721
0.021185 0.021185 0.021185
0.026239 0.026239 0.026239
0.031500 0.031500 0.031500
0.037022 0.037022 0.037022
0.042873 0.042873 0.042873
0.049132 0.049132 0.049132
0.055883 0.055883 0.055883
0.063226 0.063226 0.063226
0.071270 0.071270 0.071270
0.080180 0.080180 0.080180
0.090163 0.090163 0.090163
0.101169 0.101169 0.101169
0.113126 0.113126 0.113126
0.125948 0.125948 0.125948
0.139532 0.139532 0.139532
0.153770 0.153770 0.153770
0.168515 0.168515 0.168515
0.183620 0.183620 0.183620
0.198922 0.198922 0.198922
0.214575 0.214575 0.214575
0.230888 0.230888 0.230888
0.247809 0.247809 0.247809
0.265267 0.265267 0.265267
0.283190 0.283190 0.283190
0.301504 0.301504 0.301504
0.320133 0.320133 0.320133
0.338996 0.338996 0.338996
0.358005 0.358005 0.358005
0.377079 0.377079 0.377079
0.396131 0.396131 0.396131
0.018721 0.018721 0.018721
0.021185 0.021185 0.021185
0.023688 0.023688 0.023688
0.026239 0.026239 0.026239
0.028839 0.028839 0.028839
0.034225 0.034225 0.034225
0.039905 0.039905 0.039905
0.045948 0.045948 0.045948
0.052437 0.052437 0.052437
0.059468 0.059468 0.059468
0.067153 0.067153 0.067153
0.075606 0.075606 0.075606
0.085047 0.085047 0.085047
0.095539 0.095539 0.095539
0.107022 0.107022 0.107022
0.119432 0.119432 0.119432
0.132656 0.132656 0.132656
0.146583 0.146583 0.146583
0.161088 0.161088 0.161088
0.176030 0.176030 0.176030
0.191256 0.191256 0.191256
0.206669 0.206669 0.206669
0.222657 0.222657 0.222657
0.239280 0.239280 0.239280
0.256472 0.256472 0.256472
0.274170 0.274170 0.274170
0.292303 0.292303 0.292303
0.310786 0.310786 0.310786
0.329542 0.329542 0.329542
0.348487 0.348487 0.348487
0.367539 0.367539 0.367539
0.386613 0.386613 0.386613
0.405622 0.405622 0.405622
0.023688 0.023688 0.023688
0.026239 0.026239 0.026239
0.028839 0.028839 0.028839
0.031500 0.031500 0.031500
0.034225 0.034225 0.034225
0.037022 0.037022 0.037022
0.042873 0.042873 0.042873
0.049132 0.049132 0.049132
0.055883 0.055883 0.055883
0.063226 0.063226 0.063226
0.071270 0.071270 0.071270
0.080180 0.080180 0.080180
0.090163 0.090163 0.090163
0.101169 0.101169 0.101169
0.113126 0.113126 0.113126
0.125948 0.125948 0.125948
0.139532 0.139532 0.139532
0.153770 0.153770 0.153770
0.168515 0.168515 0.168515
0.183620 0.183620 0.183620
0.198922 0.198922 0.198922
0.214575 0.214575 0.214575
0.230888 0.230888 0.230888
0.247809 0.247809 0.247809
0.265267 0.265267 0.265267
0.283190 0.283190 0.283190
0.301504 0.301504 0.301504
0.320133 0.320133 0.320133
0.338996 0.338996 0.338996
0.358005 0.358005 0.358005
0.377079 0.377079 0.377079
0.396131 0.396131 0.396131
0.415079 0.415079 0.415079
0.028839 0.028839 0.028839
0.031500 0.031500 0.031500
0.034225 0.034225 0.034225
0.037022 0.037022 0.037022
0.039905 0.039905 0.039905
0.042873 0.042873 0.042873
0.045948 0.045948 0.045948
0.052437 0.052437 0.052437
0.059468 0.059468 0.059468
0.067153 0.067153 0.067153
0.075606 0.075606 0.075606
0.085047 0.085047 0.085047
0.095539 0.095539 0.095539
0.107022 0.107022 0.107022
0.119432 0.119432 0.119432
0.132656 0.132656 0.132656
0.146583 0.146583 0.146583
0.161088 0.161088 0.161088
0.176030 0.176030 0.176030
0.191256 0.191256 0.191256
0.206669 0.206669 0.206669
0.222657 0.222657 0.222657
0.239280 0.239280 0.239280
0.256472 0.256472 0.256472
0.274170 0.274170 0.274170
0.292303 0.292303 0.292303
0.310786 0.310786 0.310786
0.329542 0.329542 0.329542
0.348487 0.348487 0.348487
0.367539 0.367539 0.367539
0.386613 0.386613 0.386613
0.405622 0.405622 0.405622
0.424485 0.424485 0.424485
0.034225 0.034225 0.034225
0.037022 0.037022 0.037022
0.039905 0.039905 0.039905
0.042873 0.042873 0.042873
0.045948 0.045948 0.045948
0.049132 0.049132 0.049132
0.052437 0.052437 0.052437
0.055883 0.055883 0.055883
0.063226 0.063226 0.063226
0.071270 0.071270 0.071270
0.080180 0.080180 0.080180
0.090163 0.090163 0.090163
0.101169 0.101169 0.101169
0.113126 0.113126 0.113126
0.125948 0.125948 0.125948
0.139532 0.139532 0.139532
0.153770 0.153770 0.153770
0.168515 0.168515 0.168515
0.183620 0.183620 0.183620
0.198922 0.198922 0.198922
0.214575 0.214575 0.214575
0.230888 0.230888 0.230888
0.247809 0.247809 0.247809
0.265267 0.265267 0.265267
0.283190 0.283190 0.283190
0.301504 0.301504 0.301504
0.320133 0.320133 0.320133
0.338996 0.338996 0.338996
0.358005 0.358005 0.358005
0.377079 0.377079 0.377079
0.396131 0.396131 0.396131
0.415079 0.415079 0.415079
0.433838 0.433838 0.433838
0.039905 0.039905 0.039905
0.042873 0.042873 0.042873
0.045948 0.045948 0.045948
0.049132 0.049132 0.049132
0.052437 0.052437 0.052437
0.055883 0.055883 0.055883
0.059468 0.059468 0.059468
0.063226 0.063226 0.063226
0.067153 0.067153 0.067153
0.075606 0.075606 0.075606
0.085047 0.085047 0.085047
0.095539 0.095539 0.095539
0.107022 0.107022 0.107022
0.119432 0.119432 0.119432
0.132656 0.132656 0.132656
0.146583 0.146583 0.146583
0.161088 0.161088 0.161088
0.176030 0.176030 0.176030
0.191256 0.191256 0.191256
0.206669 0.206669 0.206669
0.222657 0.222657 0.222657
0.239280 0.239280 0.239280
0.256472 0.256472 0.256472
0.274170 0.274170 0.274170
0.292303 0.292303 0.292303
0.310786 0.310786 0.310786
0.329542 0.329542 0.329542
0.348487 0.348487 0.348487
0.367539 0.367539 0.367539
0.386613 0.386613 0.386613
0.405622 0.405622 0.405622
0.424485 0.424485 0.424485
0.443121 0.443121 0.443121
0.045948 0.045948 0.045948
0.049132 0.049132 0.049132
0.052437 0.052437 0.052437
0.055883 0.055883 0.055883
0.059468 0.059468 0.059468
0.063226 0.063226 0.063226
0.067153 0.067153 0.067153
0.071270 0.071270 0.071270
0.075606 0.075606 0.075606
0.080180 0.080180 0.080180
0.090163 0.090163 0.090163
0.101169 0.101169 0.101169
0.113126 0.113126 0.113126
0.125948 0.125948 0.125948
0.139532 0.139532 0.139532
0.153770 0.153770 0.153770
0.168515 0.168515 0.168515
0.183620 0.183620 0.183620
0.198922 0.198922 0.198922
0.214575 0.214575 0.214575
0.230888 0.230888 0.230888
0.247809 0.247809 0.247809
0.265267 0.265267 0.265267
0.283190 0.283190 0.283190
0.301504 0.301504 0.301504
0.320133 0.320133 0.320133
0.338996 0.338996 0.338996
0.358005 0.358005 0.358005
0.377079 0.377079 0.377079
0.396131 0.396131 0.396131
0.415079 0.415079 0.415079
0.433838 0.433838 0.433838
0.452330 0.452330 0.452330
0.052437 0.052437 0.052437
0.055883 0.055883 0.055883
0.059468 0.059468 0.059468
0.063226 0.063226 0.063226
0.067153 0.067153 0.067153
0.071270 0.071270 0.071270
0.075606 0.075606 0.075606
0.080180 0.080180 0.080180
0.085047 0.085047 0.085047
0.090163 0.090163 0.090163
0.095539 0.095539 0.095539
0.107022 0.107022 0.107022
0.119432 0.119432 0.119432
0.132656 0.132656 0.132656
0.146583 0.146583 0.146583
0.161088 0.161088 0.161088
0.176030 0.176030 0.176030
0.191256 0.191256 0.191256
0.206669 0.206669 0.206669
0.222657 0.222657 0.222657
0.239280 0.239280 0.239280
0.256472 0.256472 0.256472
0.274170 0.274170 0.274170
0.292303 0.292303 0.292303
0.310786 0.310786 0.310786
0.329542 0.329542 0.329542
0.348487 0.348487 0.348487
0.367539 0.367539 0.367539
0.386613 0.386613 0.386613
0.405622 0.405622 0.405622
0.424485 0.424485 0.424485
0.443121 0.443121 0.443121
0.461483 0.461483 0.461483
0.059468 0.059468 0.059468
0.063226 0.063226 0.063226
0.067153 0.067153 0.067153
0.071270 0.071270 0.071270
0.075606 0.075606 0.075606
0.080180 0.080180 0.080180
0.085047 0.085047 0.085047
0.090163 0.090163 0.090163
0.095539 0.095539 0.095539
0.101169 0.101169 0.101169
0.107022 0.107022 0.107022
0.113126 0.113126 0.113126
0.125948 0.125948 0.125948
0.139532 0.139532 0.139532
0.153770 0.153770 0.153770
0.168515 0.168515 0.168515
0.183620 0.183620 0.183620
0.198922 0.198922 0.198922
0.214575 0.214575 0.214575
0.230888 0.230888 0.230888
0.247809 0.247809 0.247809
0.265267 0.265267 0.265267
0.283190 0.283190 0.283190
0.301504 0.301504 0.301504
0.320133 0.320133 0.320133
0.338996 0.338996 0.338996
0.358005 0.358005 0.358005
0.377079 0.377079 0.377079
0.396131 0.396131 0.396131
0.415079 0.415079 0.415079
0.433838 0.433838 0.433838
0.452330 0.452330 0.452330
0.470590 0.470590 0.470590
0.067153 0.067153 0.067153
0.071270 0.071270 0.071270
0.075606 0.075606 0.075606
0.080180 0.080180 0.080180
0.085047 0.085047 0.085047
0.090163 0.090163 0.090163
0.095539 0.095539 0.095539
0.101169 0.101169 0.101169
0.107022 0.107022 0.107022
0.113126 0.113126 0.113126
0.119432 0.119432 0.119432
0.125948 0.125948 0.125948
0.132656 0.132656 0.132656
0.146583 0.146583 0.146583
0.161088 0.161088 0.161088
0.176030 0.176030 0.176030
0.191256 0.191256 0.191256
0.206669 0.206669 0.206669
0.222657 0.222657 0.222657
0.239280 0.239280 0.239280
0.256472 0.256472 0.256472
0.274170 0.274170 0.274170
0.292303 0.292303 0.292303
0.310786 0.310786 0.310786
0.329542 0.329542 0.329542
0.348487 0.348487 0.348487
0.367539 0.367539 0.367539
0.386613 0.386613 0.386613
0.405622 0.405622 0.405622
0.424485 0.424485 0.424485
0.443121 0.443121 0.443121
0.461483 0.461483 0.461483
0.479649 0.479649 0.479649
0.075606 0.075606 0.075606
0.080180 0.080180 0.080180
0.085047 0.085047 0.085047
0.090163 0.090163 0.090163
0.095539 0.095539 0.095539
0.101169 0.101169 0.101169
0.107022 0.107022 0.107022
0.113126 0.113126 0.113126
0.119432 0.119432 0.119432
0.125948 0.125948 0.125948
0.132656 0.132656 0.132656
0.139532 0.139532 0.139532
0.146583 0.146583 0.146583
0.153770 0.153770 0.153770
0.168515 0.168515 0.168515
0.183620 0.183620 0.183620
0.198922 0.198922 0.198922
0.214575 0.214575 0.214575
0.230888 0.230888 0.230888
0.247809 0.247809 0.247809
0.265267 0.265267 0.265267
0.283190 0.283190 0.283190
0.301504 0.301504 0.301504
0.320133 0.320133 0.320133
0.338996 0.338996 0.338996
0.358005 0.358005 0.358005
0.377079 0.377079 0.377079
0.396131 0.396131 0.396131
0.415079 0.415079 0.415079
0.433838 0.433838 0.433838
0.452330 0.452330 0.452330
0.470590 0.470590 0.470590
0.488648 0.488648 0.488648
0.085047 0.085047 0.085047
0.090163 0.090163 0.090163
0.095539 0.095539 0.095539
0.101169 0.101169 0.101169
0.107022 0.107022 0.107022
0.113126 0.113126 0.113126
0.119432 0.119432 0.119432
0.125948 0.125948 0.125948
0.132656 0.132656 0.132656
0.139532 0.139532 0.139532
0.146583 0.146583 0.146583
0.153770 0.153770 0.153770
0.161088 0.161088 0.161088
0.168515 0.168515 0.168515
0.176030 0.176030 0.176030
0.191256 0.191256 0.191256
0.206669 0.206669 0.206669
0.222657 0.222657 0.222657
0.239280 0.239280 0.239280
0.256472 0.256472 0.256472
0.274170 0.274170 0.274170
0.292303 0.292303 0.292303
0.310786 0.310786 0.310786
0.329542 0.329542 0.329542
0.348487 0.348487 0.348487
0.367539 0.367539 0.367539
0.386613 0.386613 0.386613
0.405622 0.405622 0.405622
0.424485 0.424485 0.424485
0.443121 0.443121 0.443121
0.461483 0.461483 0.461483
0.479649 0.479649 0.479649
0.497581 0.497581 0.497581
0.095539 0.095539 0.095539
0.101169 0.101169 0.101169
0.107022 0.107022 0.107022
0.113126 0.113126 0.113126
0.119432 0.119432 0.119432
0.125948 0.125948 0.125948
0.132656 0.132656 0.132656
0.139532 0.139532 0.139532
0.146583 0.146583 0.146583
0.153770 0.153770 0.153770
0.161088 0.161088 0.161088
0.168515 0.168515 0.168515
0.176030 0.176030 0.176030
0.183620 0.183620 0.183620
0.191256 0.191256 0.191256
0.198922 0.198922 0.198922
0.214575 0.214575 0.214575
0.230888 0.230888 0.230888
0.247809 0.247809 0.247809
0.265267 0.265267 0.265267
0.283190 0.283190 0.283190
0.301504 0.301504 0.301504
0.320133 0.320133 0.320133
0.338996 0.338996 0.338996
0.358005 0.358005 0.358005
0.377079 0.377079 0.377079
0.396131 0.396131 0.396131
0.415079 0.415079 0.415079
0.433838 0.433838 0.433838
0.452330 0.452330 0.452330
0.470590 0.470590 0.470590
0.488648 0.488648 0.488648
0.506444 0.506444 0.506444
0.107022 0.107022 0.107022
0.113126 0.113126 0.113126
0.119432 0.119432 0.119432
0.125948 0.125948 0.125948
0.132656 0.132656 0.132656
0.139532 0.139532 0.139532
0.146583 0.146583 0.146583
0.153770 0.153770 0.153770
0.161088 0.161088 0.161088
0.168515 0.168515 0.168515
0.176030 0.176030 0.176030
0.183620 0.183620 0.183620
0.191256 0.191256 0.191256
0.198922 0.198922 0.198922
0.206669 0.206669 0.206669
0.214575 0.214575 0.214575
0.222657 0.222657 0.222657
0.239280 0.239280 0.239280
0.256472 0.256472 0.256472
0.274170 0.274170 0.274170
0.292303 0.292303 0.292303
0.310786 0.310786 0.310786
0.329542 0.329542 0.329542
0.348487 0.348487 0.348487
0.367539 0.367539 0.367539
0.386613 0.386613 0.386613
0.405622 0.405622 0.405622
0.424485 0.424485 0.424485
0.443121 0.443121 0.443121
0.461483 0.461483 0.461483
0.479649 0.479649 0.479649
0.497581 0.497581 0.497581
0.515221 0.515221 0.515221
0.119432 0.119432 0.119432
0.125948 0.125948 0.125948
0.132656 0.132656 0.132656
0.139532 0.139532 0.139532
0.146583 0.146583 0.146583
0.153770 0.153770 0.153770
0.161088 0.161088 0.161088
0.168515 0.168515 0.168515
0.176030 0.176030 0.176030
0.183620 0.183620 0.183620
0.191256 0.191256 0.191256
0.198922 0.198922 0.198922
0.206669 0.206669 0.206669
0.214575 0.214575 0.214575
0.222657 0.222657 0.222657
0.230888 0.230888 0.230888
0.239280 0.239280 0.239280
0.247809 0.247809 0.247809
0.265267 0.265267 0.265267
0.283190 0.283190 0.283190
0.301504 0.301504 0.301504
0.320133 0.320133 0.320133
0.338996 0.338996 0.338996
0.358005 0.358005 0.358005
0.377079 0.377079 0.377079
0.396131 0.396131 0.396131
0.415079 0.415079 0.415079
0.433838 0.433838 0.433838
0.452330 0.452330 0.452330
0.470590 0.470590 0.470590
0.488648 0.488648 0.488648
0.506444 0.506444 0.506444
0.523965 0.523965 0.523965
0.132656 0.132656 0.132656
0.139532 0.139532 0.139532
0.146583 0.146583 0.146583
0.153770 0.153770 0.153770
0.161088 0.161088 0.161088
0.168515 0.168515 0.168515
0.176030 0.176030 0.176030
0.183620 0.183620 0.183620
0.191256 0.191256 0.191256
0.198922 0.198922 0.198922
0.206669 0.206669 0.206669
0.214575 0.214575 0.214575
0.222657 0.222657 0.222657
0.230888 0.230888 0.230888
0.239280 0.239280 0.239280
0.247809 0.247809 0.247809
0.256472 0.256472 0.256472
0.265267 0.265267 0.265267
0.274170 0.274170 0.274170
0.292303 0.292303 0.292303
0.310786 0.310786 0.310786
0.329542 0.329542 0.329542
0.348487 0.348487 0.348487
0.367539 0.367539 0.367539
0.386613 0.386613 0.386613
0.405622 0.405622 0.405622
0.424485 0.424485 0.424485
0.443121 0.443121 0.443121
0.461483 0.461483 0.461483
0.479649 0.479649 0.479649
0.497581 0.497581 0.497581
0.515221 0.515221 0.515221
0.532785 0.532785 0.532785
0.146583 0.146583 0.146583
0.153770 0.153770 0.153770
0.161088 0.161088 0.161088
0.168515 0.168515 0.168515
0.176030 0.176030 0.176030
0.183620 0.183620 0.183620
0.191256 0.191256 0.191256
0.198922 0.198922 0.198922
0.206669 0.206669 0.206669
0.214575 0.214575 0.214575
0.222657 0.222657 0.222657
0.230888 0.230888 0.230888
0.239280 0.239280 0.239280
0.247809 0.247809 0.247809
0.256472 0.256472 0.256472
0.265267 0.265267 0.265267
0.274170 0.274170 0.274170
0.283190 0.283190 0.283190
0.292303 0.292303 0.292303
0.301504 0.301504 0.301504
0.320133 0.320133 0.320133
0.338996 0.338996 0.338996
0.358005 0.358005 0.358005
0.377079 0.377079 0.377079
0.396131 0.396131 0.396131
0.415079 0.415079 0.415079
0.433838 0.433838 0.433838
0.452330 0.452330 0.452330
0.470590 0.470590 0.470590
0.488648 0.488648 0.488648
0.506444 0.506444 0.506444
0.523965 0.523965 0.523965
0.541678 0.541678 0.541678
0.161088 0.161088 0.161088
0.168515 0.168515 0.168515
0.176030 0.176030 0.176030
0.183620 0.183620 0.183620
0.191256 0.191256 0.191256
0.198922 0.198922 0.198922
0.206669 0.206669 0.206669
0.214575 0.214575 0.214575
0.222657 0.222657 0.222657
0.230888 0.230888 0.230888
0.239280 0.239280 0.239280
0.247809 0.247809 0.247809
0.256472 0.256472 0.256472
0.265267 0.265267 0.265267
0.274170 0.274170 0.274170
0.283190 0.283190 0.283190
0.292303 0.292303 0.292303
0.301504 0.301504 0.301504
0.310786 0.310786 0.310786
0.320133 0.320133 0.320133
0.329542 0.329542 0.329542
0.348487 0.348487 0.348487
0.367539 0.367539 0.367539
0.386613 0.386613 0.386613
0.405622 0.405622 0.405622
0.424485 0.424485 0.424485
0.443121 0.443121 0.443121
0.461483 0.461483 0.461483
0.479649 0.479649 0.479649
0.497581 0.497581 0.497581
0.515221 0.515221 0.515221
0.532785 0.532785 0.532785
0.550636 0.550636 0.550636
0.176030 0.176030 0.176030
0.183620 0.183620 0.183620
0.191256 0.191256 0.191256
0.198922 0.198922 0.198922
0.206669 0.206669 0.206669
0.214575 0.214575 0.214575
0.222657 0.222657 0.222657
0.230888 0.230888 0.230888
0.239280 0.239280 0.239280
0.247809 0.247809 0.247809
0.256472 0.256472 0.256472
0.265267 0.265267 0.265267
0.274170 0.274170 0.274170
0.283190 0.283190 0.283190
0.292303 0.292303 0.292303
0.301504 0.301504 0.301504
0.310786 0.310786 0.310786
0.320133 0.320133 0.320133
0.329542 0.329542 0.329542
0.338996 0.338996 0.338996
0.348487 0.348487 0.348487
0.358005 0.358005 0.358005
0.377079 0.377079 0.377079
0.396131 0.396131 0.396131
0.415079 0.415079 0.415079
0.433838 0.433838 0.433838
0.452330 0.452330 0.452330
0.470590 0.470590 0.470590
0.488648 0.488648 0.488648
0.506444 0.506444 0.506444
0.523965 0.523965 0.523965
0.541678 0.541678 0.541678
0.559652 0.559652 0.559652
0.191256 0.191256 0.191256
0.198922 0.198922 0.198922
0.206669 0.206669 0.206669
0.214575 0.214575 0.214575
0.222657 0.222657 0.222657
0.230888 0.230888 0.230888
0.239280 0.239280 0.239280
0.247809 0.247809 0.247809
0.256472 0.256472 0.256472
0.265267 0.265267 0.265267
0.274170 0.274170 0.274170
0.283190 0.283190 0.283190
0.292303 0.292303 0.292303
0.301504 0.301504 0.301504
0.310786 0.310786 0.310786
0.320133 0.320133 0.320133
0.329542 0.329542 0.329542
0.338996 0.338996 0.338996
0.348487 0.348487 0.348487
0.358005 0.358005 0.358005
0.367539 0.367539 0.367539
0.377079 0.377079 0.377079
0.386613 0.386613 0.386613
0.405622 0.405622 0.405622
0.424485 0.424485 0.424485
0.443121 0.443121 0.443121
0.461483 0.461483 0.461483
0.479649 0.479649 0.479649
0.497581 0.497581 0.497581
0.515221 0.515221 0.515221
0.532785 0.532785 0.532785
0.550636 0.550636 0.550636
0.568712 0.568712 0.568712
0.206669 0.206669 0.206669
0.214575 0.214575 0.214575
0.222657 0.222657 0.222657
0.230888 0.230888 0.230888
0.239280 0.239280 0.239280
0.247809 0.247809 0.247809
0.256472 0.256472 0.256472
0.265267 0.265267 0.265267
0.274170 0.274170 0.274170
0.283190 0.283190 0.283190
0.292303 0.292303 0.292303
0.301504 0.301504 0.301504
0.310786 0.310786 0.310786
0.320133 0.320133 0.320133
0.329542 0.329542 0.329542
0.338996 0.338996 0.338996
0.348487 0.348487 0.348487
0.358005 0.358005 0.358005
0.367539 0.367539 0.367539
0.377079 0.377079 0.377079
0.386613 0.386613 0.386613
0.396131 0.396131 0.396131
0.405622 0.405622 0.405622
0.415079 0.415079 0.415079
0.433838 0.433838 0.433838
0.452330 0.452330 0.452330
0.470590 0.470590 0.470590
0.488648 0.488648 0.488648
0.506444 0.506444 0.506444
0.523965 0.523965 0.523965
0.541678 0.541678 0.541678
0.559652 0.559652 0.559652
0.577811 0.577811 0.577811
0.222657 0.222657 0.222657
0.230888 0.230888 0.230888
0.239280 0.239280 0.239280
0.247809 0.247809 0.247809
0.256472 0.256472 0.256472
0.265267 0.265267 0.265267
0.274170 0.274170 0.274170
0.283190 0.283190 0.283190
0.292303 0.292303 0.292303
0.301504 0.301504 0.301504
0.310786 0.310786 0.310786
0.320133 0.320133 0.320133
0.329542 0.329542 0.329542
0.338996 0.338996 0.338996
0.348487 0.348487 0.348487
0.358005 0.358005 0.358005
0.367539 0.367539 0.367539
0.377079 0.377079 0.377079
0.386613 0.386613 0.386613
0.396131 0.396131 0.396131
0.405622 0.405622 0.405622
0.415079 0.415079 0.415079
0.424485 0.424485 0.424485
0.433838 0.433838 0.433838
0.443121 0.443121 0.443121
0.461483 0.461483 0.461483
0.479649 0.479649 0.479649
0.497581 0.497581 0.497581
0.515221 0.515221 0.515221
0.532785 0.532785 0.532785
0.550636 0.550636 0.550636
0.568712 0.568712 0.568712
0.586943 0.586943 0.586943
0.239280 0.239280 0.239280
0.247809 0.247809 0.247809
0.256472 0.256472 0.256472
0.265267 0.265267 0.265267
0.274170 0.274170 0.274170
0.283190 0.283190 0.283190
0.292303 0.292303 0.292303
0.301504 0.301504 0.301504
0.310786 0.310786 0.310786
0.320133 0.320133 0.320133
0.329542 0.329542 0.329542
0.338996 0.338996 0.338996
0.348487 0.348487 0.348487
0.358005 0.358005 0.358005
0.367539 0.367539 0.367539
0.377079 0.377079 0.377079
0.386613 0.386613 0.386613
0.396131 0.396131 0.396131
0.405622 0.405622 0.405622
0.415079 0.415079 0.415079
0.424485 0.424485 0.424485
0.433838 0.433838 0.433838
0.443121 0.443121 0.443121
0.452330 0.452330 0.452330
0.461483 0.461483 0.461483
0.470590 0.470590 0.470590
0.488648 0.488648 0.488648
0.506444 0.506444 0.506444
0.523965 0.523965 0.523965
0.541678 0.541678 0.541678
0.559652 0.559652 0.559652
0.577811 0.577811 0.577811
0.596108 0.596108 0.596108
0.256472 0.256472 0.256472
0.265267 0.265267 0.265267
0.274170 0.274170 0.274170
0.283190 0.283190 0.283190
0.292303 0.292303 0.292303
0.301504 0.301504 0.301504
0.310786 0.310786 0.310786
0.320133 0.320133 0.320133
0.329542 0.329542 0.329542
0.338996 0.338996 0.338996
0.348487 0.348487 0.348487
0.358005 0.358005 0.358005
0.367539 0.367539 0.367539
0.377079 0.377079 0.377079
0.386613 0.386613 0.386613
0.396131 0.396131 0.396131
0.405622 0.405622 0.405622
0.415079 0.415079 0.415079
0.424485 0.424485 0.424485
0.433838 0.433838 0.433838
0.443121 0.443121 0.443121
0.452330 0.452330 0.452330
