ricette/lut/Cristallo-50-33.cube
# LUT generata da Camera Oscura BN
# Ricetta: Cristallo 50
# Pellicola: panf50
# Nota: grana, vignetta e interventi locali non sono inclusi nella LUT.
TITLE "Cristallo 50"
LUT_3D_SIZE 9
DOMAIN_MIN 0.0 0.0 0.0
DOMAIN_MAX 1.0 1.0 1.0
0.000000 0.000000 0.000000
0.018721 0.018721 0.018721
0.039905 0.039905 0.039905
0.067153 0.067153 0.067153
0.107022 0.107022 0.107022
0.161088 0.161088 0.161088
0.222657 0.222657 0.222657
0.292303 0.292303 0.292303
0.367539 0.367539 0.367539
0.018721 0.018721 0.018721
0.028839 0.028839 0.028839
0.052437 0.052437 0.052437
0.085047 0.085047 0.085047
0.132656 0.132656 0.132656
0.191256 0.191256 0.191256
0.256472 0.256472 0.256472
0.329542 0.329542 0.329542
0.405622 0.405622 0.405622
0.039905 0.039905 0.039905
0.052437 0.052437 0.052437
0.067153 0.067153 0.067153
0.107022 0.107022 0.107022
0.161088 0.161088 0.161088
0.222657 0.222657 0.222657
0.292303 0.292303 0.292303
0.367539 0.367539 0.367539
0.443121 0.443121 0.443121
0.067153 0.067153 0.067153
0.085047 0.085047 0.085047
0.107022 0.107022 0.107022
0.132656 0.132656 0.132656
0.191256 0.191256 0.191256
0.256472 0.256472 0.256472
0.329542 0.329542 0.329542
0.405622 0.405622 0.405622
0.479649 0.479649 0.479649
0.107022 0.107022 0.107022
0.132656 0.132656 0.132656
0.161088 0.161088 0.161088
0.191256 0.191256 0.191256
0.222657 0.222657 0.222657
0.292303 0.292303 0.292303
0.367539 0.367539 0.367539
0.443121 0.443121 0.443121
0.515221 0.515221 0.515221
0.161088 0.161088 0.161088
0.191256 0.191256 0.191256
0.222657 0.222657 0.222657
0.256472 0.256472 0.256472
0.292303 0.292303 0.292303
0.329542 0.329542 0.329542
0.405622 0.405622 0.405622
0.479649 0.479649 0.479649
0.550636 0.550636 0.550636
0.222657 0.222657 0.222657
0.256472 0.256472 0.256472
0.292303 0.292303 0.292303
0.329542 0.329542 0.329542
0.367539 0.367539 0.367539
0.405622 0.405622 0.405622
0.443121 0.443121 0.443121
0.515221 0.515221 0.515221
0.586943 0.586943 0.586943
0.292303 0.292303 0.292303
0.329542 0.329542 0.329542
0.367539 0.367539 0.367539
0.405622 0.405622 0.405622
0.443121 0.443121 0.443121
0.479649 0.479649 0.479649
0.515221 0.515221 0.515221
0.550636 0.550636 0.550636
0.623707 0.623707 0.623707
0.367539 0.367539 0.367539
0.405622 0.405622 0.405622
0.443121 0.443121 0.443121
0.479649 0.479649 0.479649
0.515221 0.515221 0.515221
0.550636 0.550636 0.550636
0.586943 0.586943 0.586943
0.623707 0.623707 0.623707
0.660336 0.660336 0.660336
0.009184 0.009184 0.009184
0.039905 0.039905 0.039905
0.067153 0.067153 0.067153
0.107022 0.107022 0.107022
0.161088 0.161088 0.161088
0.222657 0.222657 0.222657
0.292303 0.292303 0.292303
0.367539 0.367539 0.367539
0.443121 0.443121 0.443121
0.028839 0.028839 0.028839
0.052437 0.052437 0.052437
0.085047 0.085047 0.085047
0.132656 0.132656 0.132656
0.191256 0.191256 0.191256
0.256472 0.256472 0.256472
0.329542 0.329542 0.329542
0.405622 0.405622 0.405622
0.479649 0.479649 0.479649
0.052437 0.052437 0.052437
0.085047 0.085047 0.085047
0.107022 0.107022 0.107022
0.161088 0.161088 0.161088
0.222657 0.222657 0.222657
0.292303 0.292303 0.292303
0.367539 0.367539 0.367539
0.443121 0.443121 0.443121
0.515221 0.515221 0.515221
0.085047 0.085047 0.085047
0.132656 0.132656 0.132656
0.161088 0.161088 0.161088
0.191256 0.191256 0.191256
0.256472 0.256472 0.256472
0.329542 0.329542 0.329542
0.405622 0.405622 0.405622
0.479649 0.479649 0.479649
0.550636 0.550636 0.550636
0.132656 0.132656 0.132656
0.191256 0.191256 0.191256
0.222657 0.222657 0.222657
0.256472 0.256472 0.256472
0.292303 0.292303 0.292303
0.367539 0.367539 0.367539
0.443121 0.443121 0.443121
0.515221 0.515221 0.515221
0.586943 0.586943 0.586943
0.191256 0.191256 0.191256
0.256472 0.256472 0.256472
0.292303 0.292303 0.292303
0.329542 0.329542 0.329542
0.367539 0.367539 0.367539
0.405622 0.405622 0.405622
0.479649 0.479649 0.479649
0.550636 0.550636 0.550636
0.623707 0.623707 0.623707
0.256472 0.256472 0.256472
0.329542 0.329542 0.329542
0.367539 0.367539 0.367539
0.405622 0.405622 0.405622
0.443121 0.443121 0.443121
0.479649 0.479649 0.479649
0.515221 0.515221 0.515221
0.586943 0.586943 0.586943
0.660336 0.660336 0.660336
0.329542 0.329542 0.329542
0.405622 0.405622 0.405622
0.443121 0.443121 0.443121
0.479649 0.479649 0.479649
0.515221 0.515221 0.515221
0.550636 0.550636 0.550636
0.586943 0.586943 0.586943
0.623707 0.623707 0.623707
0.696135 0.696135 0.696135
0.405622 0.405622 0.405622
0.479649 0.479649 0.479649
0.515221 0.515221 0.515221
0.550636 0.550636 0.550636
0.586943 0.586943 0.586943
0.623707 0.623707 0.623707
0.660336 0.660336 0.660336
0.696135 0.696135 0.696135
0.730440 0.730440 0.730440
0.018721 0.018721 0.018721
0.052437 0.052437 0.052437
0.107022 0.107022 0.107022
0.161088 0.161088 0.161088
0.222657 0.222657 0.222657
0.292303 0.292303 0.292303
0.367539 0.367539 0.367539
0.443121 0.443121 0.443121
0.515221 0.515221 0.515221
0.039905 0.039905 0.039905
0.067153 0.067153 0.067153
0.132656 0.132656 0.132656
0.191256 0.191256 0.191256
0.256472 0.256472 0.256472
0.329542 0.329542 0.329542
0.405622 0.405622 0.405622
0.479649 0.479649 0.479649
0.550636 0.550636 0.550636
0.067153 0.067153 0.067153
0.107022 0.107022 0.107022
0.161088 0.161088 0.161088
0.222657 0.222657 0.222657
0.292303 0.292303 0.292303
0.367539 0.367539 0.367539
0.443121 0.443121 0.443121
0.515221 0.515221 0.515221
0.586943 0.586943 0.586943
0.107022 0.107022 0.107022
0.161088 0.161088 0.161088
0.222657 0.222657 0.222657
0.256472 0.256472 0.256472
0.329542 0.329542 0.329542
0.405622 0.405622 0.405622
0.479649 0.479649 0.479649
0.550636 0.550636 0.550636
0.623707 0.623707 0.623707
0.161088 0.161088 0.161088
0.222657 0.222657 0.222657
0.292303 0.292303 0.292303
0.329542 0.329542 0.329542
0.367539 0.367539 0.367539
0.443121 0.443121 0.443121
0.515221 0.515221 0.515221
0.586943 0.586943 0.586943
0.660336 0.660336 0.660336
0.222657 0.222657 0.222657
0.292303 0.292303 0.292303
0.367539 0.367539 0.367539
0.405622 0.405622 0.405622
0.443121 0.443121 0.443121
0.479649 0.479649 0.479649
0.550636 0.550636 0.550636
0.623707 0.623707 0.623707
0.696135 0.696135 0.696135
0.292303 0.292303 0.292303
0.367539 0.367539 0.367539
0.443121 0.443121 0.443121
0.479649 0.479649 0.479649
0.515221 0.515221 0.515221
0.550636 0.550636 0.550636
0.586943 0.586943 0.586943
0.660336 0.660336 0.660336
0.730440 0.730440 0.730440
0.367539 0.367539 0.367539
0.443121 0.443121 0.443121
0.515221 0.515221 0.515221
0.550636 0.550636 0.550636
0.586943 0.586943 0.586943
0.623707 0.623707 0.623707
0.660336 0.660336 0.660336
0.696135 0.696135 0.696135
0.762617 0.762617 0.762617
0.443121 0.443121 0.443121
0.515221 0.515221 0.515221
0.586943 0.586943 0.586943
0.623707 0.623707 0.623707
0.660336 0.660336 0.660336
0.696135 0.696135 0.696135
0.730440 0.730440 0.730440
0.762617 0.762617 0.762617
0.792079 0.792079 0.792079
0.028839 0.028839 0.028839
0.067153 0.067153 0.067153
0.132656 0.132656 0.132656
0.222657 0.222657 0.222657
0.292303 0.292303 0.292303
0.367539 0.367539 0.367539
0.443121 0.443121 0.443121
0.515221 0.515221 0.515221
0.586943 0.586943 0.586943
0.052437 0.052437 0.052437
0.085047 0.085047 0.085047
0.161088 0.161088 0.161088
0.256472 0.256472 0.256472
0.329542 0.329542 0.329542
0.405622 0.405622 0.405622
0.479649 0.479649 0.479649
0.550636 0.550636 0.550636
0.623707 0.623707 0.623707
0.085047 0.085047 0.085047
0.132656 0.132656 0.132656
0.191256 0.191256 0.191256
0.292303 0.292303 0.292303
0.367539 0.367539 0.367539
0.443121 0.443121 0.443121
0.515221 0.515221 0.515221
0.586943 0.586943 0.586943
0.660336 0.660336 0.660336
0.132656 0.132656 0.132656
0.191256 0.191256 0.191256
0.256472 0.256472 0.256472
0.329542 0.329542 0.329542
0.405622 0.405622 0.405622
0.479649 0.479649 0.479649
0.550636 0.550636 0.550636
0.623707 0.623707 0.623707
0.696135 0.696135 0.696135
0.191256 0.191256 0.191256
0.256472 0.256472 0.256472
0.329542 0.329542 0.329542
0.405622 0.405622 0.405622
0.443121 0.443121 0.443121
0.515221 0.515221 0.515221
0.586943 0.586943 0.586943
0.660336 0.660336 0.660336
0.730440 0.730440 0.730440
0.256472 0.256472 0.256472
0.329542 0.329542 0.329542
0.405622 0.405622 0.405622
0.479649 0.479649 0.479649
0.515221 0.515221 0.515221
0.550636 0.550636 0.550636
0.623707 0.623707 0.623707
0.696135 0.696135 0.696135
0.762617 0.762617 0.762617
0.329542 0.329542 0.329542
0.405622 0.405622 0.405622
0.479649 0.479649 0.479649
0.550636 0.550636 0.550636
0.586943 0.586943 0.586943
0.623707 0.623707 0.623707
0.660336 0.660336 0.660336
0.730440 0.730440 0.730440
0.792079 0.792079 0.792079
0.405622 0.405622 0.405622
0.479649 0.479649 0.479649
0.550636 0.550636 0.550636
0.623707 0.623707 0.623707
0.660336 0.660336 0.660336
0.696135 0.696135 0.696135
0.730440 0.730440 0.730440
0.762617 0.762617 0.762617
0.818338 0.818338 0.818338
0.479649 0.479649 0.479649
0.550636 0.550636 0.550636
0.623707 0.623707 0.623707
0.696135 0.696135 0.696135
0.730440 0.730440 0.730440
0.762617 0.762617 0.762617
0.792079 0.792079 0.792079
0.818338 0.818338 0.818338
0.841567 0.841567 0.841567
0.039905 0.039905 0.039905
0.085047 0.085047 0.085047
0.161088 0.161088 0.161088
0.256472 0.256472 0.256472
0.367539 0.367539 0.367539
0.443121 0.443121 0.443121
0.515221 0.515221 0.515221
0.586943 0.586943 0.586943
0.660336 0.660336 0.660336
0.067153 0.067153 0.067153
0.107022 0.107022 0.107022
0.191256 0.191256 0.191256
0.292303 0.292303 0.292303
0.405622 0.405622 0.405622
0.479649 0.479649 0.479649
0.550636 0.550636 0.550636
0.623707 0.623707 0.623707
0.696135 0.696135 0.696135
0.107022 0.107022 0.107022
0.161088 0.161088 0.161088
0.222657 0.222657 0.222657
0.329542 0.329542 0.329542
0.443121 0.443121 0.443121
0.515221 0.515221 0.515221
0.586943 0.586943 0.586943
0.660336 0.660336 0.660336
0.730440 0.730440 0.730440
0.161088 0.161088 0.161088
0.222657 0.222657 0.222657
0.292303 0.292303 0.292303
0.367539 0.367539 0.367539
0.479649 0.479649 0.479649
0.550636 0.550636 0.550636
0.623707 0.623707 0.623707
0.696135 0.696135 0.696135
0.762617 0.762617 0.762617
0.222657 0.222657 0.222657
0.292303 0.292303 0.292303
0.367539 0.367539 0.367539
0.443121 0.443121 0.443121
0.515221 0.515221 0.515221
0.586943 0.586943 0.586943
0.660336 0.660336 0.660336
0.730440 0.730440 0.730440
0.792079 0.792079 0.792079
0.292303 0.292303 0.292303
0.367539 0.367539 0.367539
0.443121 0.443121 0.443121
0.515221 0.515221 0.515221
0.586943 0.586943 0.586943
0.623707 0.623707 0.623707
0.696135 0.696135 0.696135
0.762617 0.762617 0.762617
0.818338 0.818338 0.818338
0.367539 0.367539 0.367539
0.443121 0.443121 0.443121
0.515221 0.515221 0.515221
0.586943 0.586943 0.586943
0.660336 0.660336 0.660336
0.696135 0.696135 0.696135
0.730440 0.730440 0.730440
0.792079 0.792079 0.792079
0.841567 0.841567 0.841567
0.443121 0.443121 0.443121
0.515221 0.515221 0.515221
0.586943 0.586943 0.586943
0.660336 0.660336 0.660336
0.730440 0.730440 0.730440
0.762617 0.762617 0.762617
0.792079 0.792079 0.792079
0.818338 0.818338 0.818338
0.862612 0.862612 0.862612
0.515221 0.515221 0.515221
0.586943 0.586943 0.586943
0.660336 0.660336 0.660336
0.730440 0.730440 0.730440
0.792079 0.792079 0.792079
0.818338 0.818338 0.818338
0.841567 0.841567 0.841567
0.862612 0.862612 0.862612
0.881832 0.881832 0.881832
0.052437 0.052437 0.052437
0.107022 0.107022 0.107022
0.191256 0.191256 0.191256
0.292303 0.292303 0.292303
0.405622 0.405622 0.405622
0.515221 0.515221 0.515221
0.586943 0.586943 0.586943
0.660336 0.660336 0.660336
0.730440 0.730440 0.730440
0.085047 0.085047 0.085047
0.132656 0.132656 0.132656
0.222657 0.222657 0.222657
0.329542 0.329542 0.329542
0.443121 0.443121 0.443121
0.550636 0.550636 0.550636
0.623707 0.623707 0.623707
0.696135 0.696135 0.696135
0.762617 0.762617 0.762617
0.132656 0.132656 0.132656
0.191256 0.191256 0.191256
0.256472 0.256472 0.256472
0.367539 0.367539 0.367539
0.479649 0.479649 0.479649
0.586943 0.586943 0.586943
0.660336 0.660336 0.660336
0.730440 0.730440 0.730440
0.792079 0.792079 0.792079
0.191256 0.191256 0.191256
0.256472 0.256472 0.256472
0.329542 0.329542 0.329542
0.405622 0.405622 0.405622
0.515221 0.515221 0.515221
0.623707 0.623707 0.623707
0.696135 0.696135 0.696135
0.762617 0.762617 0.762617
0.818338 0.818338 0.818338
0.256472 0.256472 0.256472
0.329542 0.329542 0.329542
0.405622 0.405622 0.405622
0.479649 0.479649 0.479649
0.550636 0.550636 0.550636
0.660336 0.660336 0.660336
0.730440 0.730440 0.730440
0.792079 0.792079 0.792079
0.841567 0.841567 0.841567
0.329542 0.329542 0.329542
0.405622 0.405622 0.405622
0.479649 0.479649 0.479649
0.550636 0.550636 0.550636
0.623707 0.623707 0.623707
0.696135 0.696135 0.696135
0.762617 0.762617 0.762617
0.818338 0.818338 0.818338
0.862612 0.862612 0.862612
0.405622 0.405622 0.405622
0.479649 0.479649 0.479649
0.550636 0.550636 0.550636
0.623707 0.623707 0.623707
0.696135 0.696135 0.696135
0.762617 0.762617 0.762617
0.792079 0.792079 0.792079
0.841567 0.841567 0.841567
0.881832 0.881832 0.881832
0.479649 0.479649 0.479649
0.550636 0.550636 0.550636
0.623707 0.623707 0.623707
0.696135 0.696135 0.696135
0.762617 0.762617 0.762617
0.818338 0.818338 0.818338
0.841567 0.841567 0.841567
0.862612 0.862612 0.862612
0.899535 0.899535 0.899535
0.550636 0.550636 0.550636
0.623707 0.623707 0.623707
0.696135 0.696135 0.696135
0.762617 0.762617 0.762617
0.818338 0.818338 0.818338
0.862612 0.862612 0.862612
0.881832 0.881832 0.881832
0.899535 0.899535 0.899535
0.916021 0.916021 0.916021
0.067153 0.067153 0.067153
0.132656 0.132656 0.132656
0.222657 0.222657 0.222657
0.329542 0.329542 0.329542
0.443121 0.443121 0.443121
0.550636 0.550636 0.550636
0.660336 0.660336 0.660336
0.730440 0.730440 0.730440
0.792079 0.792079 0.792079
0.107022 0.107022 0.107022
0.161088 0.161088 0.161088
0.256472 0.256472 0.256472
0.367539 0.367539 0.367539
0.479649 0.479649 0.479649
0.586943 0.586943 0.586943
0.696135 0.696135 0.696135
0.762617 0.762617 0.762617
0.818338 0.818338 0.818338
0.161088 0.161088 0.161088
0.222657 0.222657 0.222657
0.292303 0.292303 0.292303
0.405622 0.405622 0.405622
0.515221 0.515221 0.515221
0.623707 0.623707 0.623707
0.730440 0.730440 0.730440
0.792079 0.792079 0.792079
0.841567 0.841567 0.841567
0.222657 0.222657 0.222657
0.292303 0.292303 0.292303
0.367539 0.367539 0.367539
0.443121 0.443121 0.443121
0.550636 0.550636 0.550636
0.660336 0.660336 0.660336
0.762617 0.762617 0.762617
0.818338 0.818338 0.818338
0.862612 0.862612 0.862612
0.292303 0.292303 0.292303
0.367539 0.367539 0.367539
0.443121 0.443121 0.443121
0.515221 0.515221 0.515221
0.586943 0.586943 0.586943
0.696135 0.696135 0.696135
0.792079 0.792079 0.792079
0.841567 0.841567 0.841567
0.881832 0.881832 0.881832
0.367539 0.367539 0.367539
0.443121 0.443121 0.443121
0.515221 0.515221 0.515221
0.586943 0.586943 0.586943
0.660336 0.660336 0.660336
0.730440 0.730440 0.730440
0.818338 0.818338 0.818338
0.862612 0.862612 0.862612
0.899535 0.899535 0.899535
0.443121 0.443121 0.443121
0.515221 0.515221 0.515221
0.586943 0.586943 0.586943
0.660336 0.660336 0.660336
0.730440 0.730440 0.730440
0.792079 0.792079 0.792079
0.841567 0.841567 0.841567
0.881832 0.881832 0.881832
0.916021 0.916021 0.916021
0.515221 0.515221 0.515221
0.586943 0.586943 0.586943
0.660336 0.660336 0.660336
0.730440 0.730440 0.730440
0.792079 0.792079 0.792079
0.841567 0.841567 0.841567
0.881832 0.881832 0.881832
0.899535 0.899535 0.899535
0.931529 0.931529 0.931529
0.586943 0.586943 0.586943
0.660336 0.660336 0.660336
0.730440 0.730440 0.730440
0.792079 0.792079 0.792079
0.841567 0.841567 0.841567
0.881832 0.881832 0.881832
0.916021 0.916021 0.916021
0.931529 0.931529 0.931529
0.946262 0.946262 0.946262
0.085047 0.085047 0.085047
0.161088 0.161088 0.161088
0.256472 0.256472 0.256472
0.367539 0.367539 0.367539
0.479649 0.479649 0.479649
0.586943 0.586943 0.586943
0.696135 0.696135 0.696135
0.792079 0.792079 0.792079
0.841567 0.841567 0.841567
0.132656 0.132656 0.132656
0.191256 0.191256 0.191256
0.292303 0.292303 0.292303
0.405622 0.405622 0.405622
0.515221 0.515221 0.515221
0.623707 0.623707 0.623707
0.730440 0.730440 0.730440
0.818338 0.818338 0.818338
0.862612 0.862612 0.862612
0.191256 0.191256 0.191256
0.256472 0.256472 0.256472
0.329542 0.329542 0.329542
0.443121 0.443121 0.443121
0.550636 0.550636 0.550636
0.660336 0.660336 0.660336
0.762617 0.762617 0.762617
0.841567 0.841567 0.841567
0.881832 0.881832 0.881832
0.256472 0.256472 0.256472
0.329542 0.329542 0.329542
0.405622 0.405622 0.405622
0.479649 0.479649 0.479649
0.586943 0.586943 0.586943
0.696135 0.696135 0.696135
0.792079 0.792079 0.792079
0.862612 0.862612 0.862612
0.899535 0.899535 0.899535
0.329542 0.329542 0.329542
0.405622 0.405622 0.405622
0.479649 0.479649 0.479649
0.550636 0.550636 0.550636
0.623707 0.623707 0.623707
0.730440 0.730440 0.730440
0.818338 0.818338 0.818338
0.881832 0.881832 0.881832
0.916021 0.916021 0.916021
0.405622 0.405622 0.405622
0.479649 0.479649 0.479649
0.550636 0.550636 0.550636
0.623707 0.623707 0.623707
0.696135 0.696135 0.696135
0.762617 0.762617 0.762617
0.841567 0.841567 0.841567
0.899535 0.899535 0.899535
0.931529 0.931529 0.931529
0.479649 0.479649 0.479649
0.550636 0.550636 0.550636
0.623707 0.623707 0.623707
0.696135 0.696135 0.696135
0.762617 0.762617 0.762617
0.818338 0.818338 0.818338
0.862612 0.862612 0.862612
0.916021 0.916021 0.916021
0.946262 0.946262 0.946262
0.550636 0.550636 0.550636
0.623707 0.623707 0.623707
0.696135 0.696135 0.696135
0.762617 0.762617 0.762617
0.818338 0.818338 0.818338
0.862612 0.862612 0.862612
0.899535 0.899535 0.899535
0.931529 0.931529 0.931529
0.960381 0.960381 0.960381
0.623707 0.623707 0.623707
0.696135 0.696135 0.696135
0.762617 0.762617 0.762617
0.818338 0.818338 0.818338
0.862612 0.862612 0.862612
0.899535 0.899535 0.899535
0.931529 0.931529 0.931529
0.960381 0.960381 0.960381
0.973999 0.973999 0.973999
0.107022 0.107022 0.107022
0.191256 0.191256 0.191256
0.292303 0.292303 0.292303
0.405622 0.405622 0.405622
0.515221 0.515221 0.515221
0.623707 0.623707 0.623707
0.730440 0.730440 0.730440
0.818338 0.818338 0.818338
0.881832 0.881832 0.881832
0.161088 0.161088 0.161088
0.222657 0.222657 0.222657
0.329542 0.329542 0.329542
0.443121 0.443121 0.443121
0.550636 0.550636 0.550636
0.660336 0.660336 0.660336
0.762617 0.762617 0.762617
0.841567 0.841567 0.841567
0.899535 0.899535 0.899535
0.222657 0.222657 0.222657
0.292303 0.292303 0.292303
0.367539 0.367539 0.367539
0.479649 0.479649 0.479649
0.586943 0.586943 0.586943
0.696135 0.696135 0.696135
0.792079 0.792079 0.792079
0.862612 0.862612 0.862612
0.916021 0.916021 0.916021
0.292303 0.292303 0.292303
0.367539 0.367539 0.367539
0.443121 0.443121 0.443121
0.515221 0.515221 0.515221
0.623707 0.623707 0.623707
0.730440 0.730440 0.730440
0.818338 0.818338 0.818338
0.881832 0.881832 0.881832
0.931529 0.931529 0.931529
0.367539 0.367539 0.367539
0.443121 0.443121 0.443121
0.515221 0.515221 0.515221
0.586943 0.586943 0.586943
0.660336 0.660336 0.660336
0.762617 0.762617 0.762617
0.841567 0.841567 0.841567
0.899535 0.899535 0.899535
0.946262 0.946262 0.946262
0.443121 0.443121 0.443121
0.515221 0.515221 0.515221
0.586943 0.586943 0.586943
0.660336 0.660336 0.660336
0.730440 0.730440 0.730440
0.792079 0.792079 0.792079
0.862612 0.862612 0.862612
0.916021 0.916021 0.916021
0.960381 0.960381 0.960381
0.515221 0.515221 0.515221
0.586943 0.586943 0.586943
0.660336 0.660336 0.660336
0.730440 0.730440 0.730440
0.792079 0.792079 0.792079
0.841567 0.841567 0.841567
0.881832 0.881832 0.881832
0.931529 0.931529 0.931529
0.973999 0.973999 0.973999
0.586943 0.586943 0.586943
0.660336 0.660336 0.660336
0.730440 0.730440 0.730440
0.792079 0.792079 0.792079
0.841567 0.841567 0.841567
0.881832 0.881832 0.881832
0.916021 0.916021 0.916021
0.946262 0.946262 0.946262
0.987193 0.987193 0.987193
0.660336 0.660336 0.660336
0.730440 0.730440 0.730440
0.792079 0.792079 0.792079
0.841567 0.841567 0.841567
0.881832 0.881832 0.881832
0.916021 0.916021 0.916021
0.946262 0.946262 0.946262
0.973999 0.973999 0.973999
1.000000 1.000000 1.000000
