ricette/lut/Digitale-neutro-33.cube
# LUT generata da Camera Oscura BN
# Ricetta: Digitale neutro
# Pellicola: neutra
# Nota: grana, vignetta e interventi locali non sono inclusi nella LUT.
TITLE "Digitale neutro"
LUT_3D_SIZE 33
DOMAIN_MIN 0.0 0.0 0.0
DOMAIN_MAX 1.0 1.0 1.0
0.000000 0.000000 0.000000
0.012500 0.012500 0.012500
0.025000 0.025000 0.025000
0.037500 0.037500 0.037500
0.050000 0.050000 0.050000
0.062500 0.062500 0.062500
0.075000 0.075000 0.075000
0.087500 0.087500 0.087500
0.100000 0.100000 0.100000
0.112500 0.112500 0.112500
0.125000 0.125000 0.125000
0.137500 0.137500 0.137500
0.150000 0.150000 0.150000
0.162500 0.162500 0.162500
0.175000 0.175000 0.175000
0.187500 0.187500 0.187500
0.200000 0.200000 0.200000
0.212500 0.212500 0.212500
0.225000 0.225000 0.225000
0.237500 0.237500 0.237500
0.250000 0.250000 0.250000
0.262500 0.262500 0.262500
0.275000 0.275000 0.275000
0.287500 0.287500 0.287500
0.300000 0.300000 0.300000
0.312500 0.312500 0.312500
0.325000 0.325000 0.325000
0.337500 0.337500 0.337500
0.350000 0.350000 0.350000
0.362500 0.362500 0.362500
0.375000 0.375000 0.375000
0.387500 0.387500 0.387500
0.400000 0.400000 0.400000
0.012500 0.012500 0.012500
0.018750 0.018750 0.018750
0.031250 0.031250 0.031250
0.043750 0.043750 0.043750
0.056250 0.056250 0.056250
0.068750 0.068750 0.068750
0.081250 0.081250 0.081250
0.093750 0.093750 0.093750
0.106250 0.106250 0.106250
0.118750 0.118750 0.118750
0.131250 0.131250 0.131250
0.143750 0.143750 0.143750
0.156250 0.156250 0.156250
0.168750 0.168750 0.168750
0.181250 0.181250 0.181250
0.193750 0.193750 0.193750
0.206250 0.206250 0.206250
0.218750 0.218750 0.218750
0.231250 0.231250 0.231250
0.243750 0.243750 0.243750
0.256250 0.256250 0.256250
0.268750 0.268750 0.268750
0.281250 0.281250 0.281250
0.293750 0.293750 0.293750
0.306250 0.306250 0.306250
0.318750 0.318750 0.318750
0.331250 0.331250 0.331250
0.343750 0.343750 0.343750
0.356250 0.356250 0.356250
0.368750 0.368750 0.368750
0.381250 0.381250 0.381250
0.393750 0.393750 0.393750
0.406250 0.406250 0.406250
0.025000 0.025000 0.025000
0.031250 0.031250 0.031250
0.037500 0.037500 0.037500
0.050000 0.050000 0.050000
0.062500 0.062500 0.062500
0.075000 0.075000 0.075000
0.087500 0.087500 0.087500
0.100000 0.100000 0.100000
0.112500 0.112500 0.112500
0.125000 0.125000 0.125000
0.137500 0.137500 0.137500
0.150000 0.150000 0.150000
0.162500 0.162500 0.162500
0.175000 0.175000 0.175000
0.187500 0.187500 0.187500
0.200000 0.200000 0.200000
0.212500 0.212500 0.212500
0.225000 0.225000 0.225000
0.237500 0.237500 0.237500
0.250000 0.250000 0.250000
0.262500 0.262500 0.262500
0.275000 0.275000 0.275000
0.287500 0.287500 0.287500
0.300000 0.300000 0.300000
0.312500 0.312500 0.312500
0.325000 0.325000 0.325000
0.337500 0.337500 0.337500
0.350000 0.350000 0.350000
0.362500 0.362500 0.362500
0.375000 0.375000 0.375000
0.387500 0.387500 0.387500
0.400000 0.400000 0.400000
0.412500 0.412500 0.412500
0.037500 0.037500 0.037500
0.043750 0.043750 0.043750
0.050000 0.050000 0.050000
0.056250 0.056250 0.056250
0.068750 0.068750 0.068750
0.081250 0.081250 0.081250
0.093750 0.093750 0.093750
0.106250 0.106250 0.106250
0.118750 0.118750 0.118750
0.131250 0.131250 0.131250
0.143750 0.143750 0.143750
0.156250 0.156250 0.156250
0.168750 0.168750 0.168750
0.181250 0.181250 0.181250
0.193750 0.193750 0.193750
0.206250 0.206250 0.206250
0.218750 0.218750 0.218750
0.231250 0.231250 0.231250
0.243750 0.243750 0.243750
0.256250 0.256250 0.256250
0.268750 0.268750 0.268750
0.281250 0.281250 0.281250
0.293750 0.293750 0.293750
0.306250 0.306250 0.306250
0.318750 0.318750 0.318750
0.331250 0.331250 0.331250
0.343750 0.343750 0.343750
0.356250 0.356250 0.356250
0.368750 0.368750 0.368750
0.381250 0.381250 0.381250
0.393750 0.393750 0.393750
0.406250 0.406250 0.406250
0.418750 0.418750 0.418750
0.050000 0.050000 0.050000
0.056250 0.056250 0.056250
0.062500 0.062500 0.062500
0.068750 0.068750 0.068750
0.075000 0.075000 0.075000
0.087500 0.087500 0.087500
0.100000 0.100000 0.100000
0.112500 0.112500 0.112500
0.125000 0.125000 0.125000
0.137500 0.137500 0.137500
0.150000 0.150000 0.150000
0.162500 0.162500 0.162500
0.175000 0.175000 0.175000
0.187500 0.187500 0.187500
0.200000 0.200000 0.200000
0.212500 0.212500 0.212500
0.225000 0.225000 0.225000
0.237500 0.237500 0.237500
0.250000 0.250000 0.250000
0.262500 0.262500 0.262500
0.275000 0.275000 0.275000
0.287500 0.287500 0.287500
0.300000 0.300000 0.300000
0.312500 0.312500 0.312500
0.325000 0.325000 0.325000
0.337500 0.337500 0.337500
0.350000 0.350000 0.350000
0.362500 0.362500 0.362500
0.375000 0.375000 0.375000
0.387500 0.387500 0.387500
0.400000 0.400000 0.400000
0.412500 0.412500 0.412500
0.425000 0.425000 0.425000
0.062500 0.062500 0.062500
0.068750 0.068750 0.068750
0.075000 0.075000 0.075000
0.081250 0.081250 0.081250
0.087500 0.087500 0.087500
0.093750 0.093750 0.093750
0.106250 0.106250 0.106250
0.118750 0.118750 0.118750
0.131250 0.131250 0.131250
0.143750 0.143750 0.143750
0.156250 0.156250 0.156250
0.168750 0.168750 0.168750
0.181250 0.181250 0.181250
0.193750 0.193750 0.193750
0.206250 0.206250 0.206250
0.218750 0.218750 0.218750
0.231250 0.231250 0.231250
0.243750 0.243750 0.243750
0.256250 0.256250 0.256250
0.268750 0.268750 0.268750
0.281250 0.281250 0.281250
0.293750 0.293750 0.293750
0.306250 0.306250 0.306250
0.318750 0.318750 0.318750
0.331250 0.331250 0.331250
0.343750 0.343750 0.343750
0.356250 0.356250 0.356250
0.368750 0.368750 0.368750
0.381250 0.381250 0.381250
0.393750 0.393750 0.393750
0.406250 0.406250 0.406250
0.418750 0.418750 0.418750
0.431250 0.431250 0.431250
0.075000 0.075000 0.075000
0.081250 0.081250 0.081250
0.087500 0.087500 0.087500
0.093750 0.093750 0.093750
0.100000 0.100000 0.100000
0.106250 0.106250 0.106250
0.112500 0.112500 0.112500
0.125000 0.125000 0.125000
0.137500 0.137500 0.137500
0.150000 0.150000 0.150000
0.162500 0.162500 0.162500
0.175000 0.175000 0.175000
0.187500 0.187500 0.187500
0.200000 0.200000 0.200000
0.212500 0.212500 0.212500
0.225000 0.225000 0.225000
0.237500 0.237500 0.237500
0.250000 0.250000 0.250000
0.262500 0.262500 0.262500
0.275000 0.275000 0.275000
0.287500 0.287500 0.287500
0.300000 0.300000 0.300000
0.312500 0.312500 0.312500
0.325000 0.325000 0.325000
0.337500 0.337500 0.337500
0.350000 0.350000 0.350000
0.362500 0.362500 0.362500
0.375000 0.375000 0.375000
0.387500 0.387500 0.387500
0.400000 0.400000 0.400000
0.412500 0.412500 0.412500
0.425000 0.425000 0.425000
0.437500 0.437500 0.437500
0.087500 0.087500 0.087500
0.093750 0.093750 0.093750
0.100000 0.100000 0.100000
0.106250 0.106250 0.106250
0.112500 0.112500 0.112500
0.118750 0.118750 0.118750
0.125000 0.125000 0.125000
0.131250 0.131250 0.131250
0.143750 0.143750 0.143750
0.156250 0.156250 0.156250
0.168750 0.168750 0.168750
0.181250 0.181250 0.181250
0.193750 0.193750 0.193750
0.206250 0.206250 0.206250
0.218750 0.218750 0.218750
0.231250 0.231250 0.231250
0.243750 0.243750 0.243750
0.256250 0.256250 0.256250
0.268750 0.268750 0.268750
0.281250 0.281250 0.281250
0.293750 0.293750 0.293750
0.306250 0.306250 0.306250
0.318750 0.318750 0.318750
0.331250 0.331250 0.331250
0.343750 0.343750 0.343750
0.356250 0.356250 0.356250
0.368750 0.368750 0.368750
0.381250 0.381250 0.381250
0.393750 0.393750 0.393750
0.406250 0.406250 0.406250
0.418750 0.418750 0.418750
0.431250 0.431250 0.431250
0.443750 0.443750 0.443750
0.100000 0.100000 0.100000
0.106250 0.106250 0.106250
0.112500 0.112500 0.112500
0.118750 0.118750 0.118750
0.125000 0.125000 0.125000
0.131250 0.131250 0.131250
0.137500 0.137500 0.137500
0.143750 0.143750 0.143750
0.150000 0.150000 0.150000
0.162500 0.162500 0.162500
0.175000 0.175000 0.175000
0.187500 0.187500 0.187500
0.200000 0.200000 0.200000
0.212500 0.212500 0.212500
0.225000 0.225000 0.225000
0.237500 0.237500 0.237500
0.250000 0.250000 0.250000
0.262500 0.262500 0.262500
0.275000 0.275000 0.275000
0.287500 0.287500 0.287500
0.300000 0.300000 0.300000
0.312500 0.312500 0.312500
0.325000 0.325000 0.325000
0.337500 0.337500 0.337500
0.350000 0.350000 0.350000
0.362500 0.362500 0.362500
0.375000 0.375000 0.375000
0.387500 0.387500 0.387500
0.400000 0.400000 0.400000
0.412500 0.412500 0.412500
0.425000 0.425000 0.425000
0.437500 0.437500 0.437500
0.450000 0.450000 0.450000
0.112500 0.112500 0.112500
0.118750 0.118750 0.118750
0.125000 0.125000 0.125000
0.131250 0.131250 0.131250
0.137500 0.137500 0.137500
0.143750 0.143750 0.143750
0.150000 0.150000 0.150000
0.156250 0.156250 0.156250
0.162500 0.162500 0.162500
0.168750 0.168750 0.168750
0.181250 0.181250 0.181250
0.193750 0.193750 0.193750
0.206250 0.206250 0.206250
0.218750 0.218750 0.218750
0.231250 0.231250 0.231250
0.243750 0.243750 0.243750
0.256250 0.256250 0.256250
0.268750 0.268750 0.268750
0.281250 0.281250 0.281250
0.293750 0.293750 0.293750
0.306250 0.306250 0.306250
0.318750 0.318750 0.318750
0.331250 0.331250 0.331250
0.343750 0.343750 0.343750
0.356250 0.356250 0.356250
0.368750 0.368750 0.368750
0.381250 0.381250 0.381250
0.393750 0.393750 0.393750
0.406250 0.406250 0.406250
0.418750 0.418750 0.418750
0.431250 0.431250 0.431250
0.443750 0.443750 0.443750
0.456250 0.456250 0.456250
0.125000 0.125000 0.125000
0.131250 0.131250 0.131250
0.137500 0.137500 0.137500
0.143750 0.143750 0.143750
0.150000 0.150000 0.150000
0.156250 0.156250 0.156250
0.162500 0.162500 0.162500
0.168750 0.168750 0.168750
0.175000 0.175000 0.175000
0.181250 0.181250 0.181250
0.187500 0.187500 0.187500
0.200000 0.200000 0.200000
0.212500 0.212500 0.212500
0.225000 0.225000 0.225000
0.237500 0.237500 0.237500
0.250000 0.250000 0.250000
0.262500 0.262500 0.262500
0.275000 0.275000 0.275000
0.287500 0.287500 0.287500
0.300000 0.300000 0.300000
0.312500 0.312500 0.312500
0.325000 0.325000 0.325000
0.337500 0.337500 0.337500
0.350000 0.350000 0.350000
0.362500 0.362500 0.362500
0.375000 0.375000 0.375000
0.387500 0.387500 0.387500
0.400000 0.400000 0.400000
0.412500 0.412500 0.412500
0.425000 0.425000 0.425000
0.437500 0.437500 0.437500
0.450000 0.450000 0.450000
0.462500 0.462500 0.462500
0.137500 0.137500 0.137500
0.143750 0.143750 0.143750
0.150000 0.150000 0.150000
0.156250 0.156250 0.156250
0.162500 0.162500 0.162500
0.168750 0.168750 0.168750
0.175000 0.175000 0.175000
0.181250 0.181250 0.181250
0.187500 0.187500 0.187500
0.193750 0.193750 0.193750
0.200000 0.200000 0.200000
0.206250 0.206250 0.206250
0.218750 0.218750 0.218750
0.231250 0.231250 0.231250
0.243750 0.243750 0.243750
0.256250 0.256250 0.256250
0.268750 0.268750 0.268750
0.281250 0.281250 0.281250
0.293750 0.293750 0.293750
0.306250 0.306250 0.306250
0.318750 0.318750 0.318750
0.331250 0.331250 0.331250
0.343750 0.343750 0.343750
0.356250 0.356250 0.356250
0.368750 0.368750 0.368750
0.381250 0.381250 0.381250
0.393750 0.393750 0.393750
0.406250 0.406250 0.406250
0.418750 0.418750 0.418750
0.431250 0.431250 0.431250
0.443750 0.443750 0.443750
0.456250 0.456250 0.456250
0.468750 0.468750 0.468750
0.150000 0.150000 0.150000
0.156250 0.156250 0.156250
0.162500 0.162500 0.162500
0.168750 0.168750 0.168750
0.175000 0.175000 0.175000
0.181250 0.181250 0.181250
0.187500 0.187500 0.187500
0.193750 0.193750 0.193750
0.200000 0.200000 0.200000
0.206250 0.206250 0.206250
0.212500 0.212500 0.212500
0.218750 0.218750 0.218750
0.225000 0.225000 0.225000
0.237500 0.237500 0.237500
0.250000 0.250000 0.250000
0.262500 0.262500 0.262500
0.275000 0.275000 0.275000
0.287500 0.287500 0.287500
0.300000 0.300000 0.300000
0.312500 0.312500 0.312500
0.325000 0.325000 0.325000
0.337500 0.337500 0.337500
0.350000 0.350000 0.350000
0.362500 0.362500 0.362500
0.375000 0.375000 0.375000
0.387500 0.387500 0.387500
0.400000 0.400000 0.400000
0.412500 0.412500 0.412500
0.425000 0.425000 0.425000
0.437500 0.437500 0.437500
0.450000 0.450000 0.450000
0.462500 0.462500 0.462500
0.475000 0.475000 0.475000
0.162500 0.162500 0.162500
0.168750 0.168750 0.168750
0.175000 0.175000 0.175000
0.181250 0.181250 0.181250
0.187500 0.187500 0.187500
0.193750 0.193750 0.193750
0.200000 0.200000 0.200000
0.206250 0.206250 0.206250
0.212500 0.212500 0.212500
0.218750 0.218750 0.218750
0.225000 0.225000 0.225000
0.231250 0.231250 0.231250
0.237500 0.237500 0.237500
0.243750 0.243750 0.243750
0.256250 0.256250 0.256250
0.268750 0.268750 0.268750
0.281250 0.281250 0.281250
0.293750 0.293750 0.293750
0.306250 0.306250 0.306250
0.318750 0.318750 0.318750
0.331250 0.331250 0.331250
0.343750 0.343750 0.343750
0.356250 0.356250 0.356250
0.368750 0.368750 0.368750
0.381250 0.381250 0.381250
0.393750 0.393750 0.393750
0.406250 0.406250 0.406250
0.418750 0.418750 0.418750
0.431250 0.431250 0.431250
0.443750 0.443750 0.443750
0.456250 0.456250 0.456250
0.468750 0.468750 0.468750
0.481250 0.481250 0.481250
0.175000 0.175000 0.175000
0.181250 0.181250 0.181250
0.187500 0.187500 0.187500
0.193750 0.193750 0.193750
0.200000 0.200000 0.200000
0.206250 0.206250 0.206250
0.212500 0.212500 0.212500
0.218750 0.218750 0.218750
0.225000 0.225000 0.225000
0.231250 0.231250 0.231250
0.237500 0.237500 0.237500
0.243750 0.243750 0.243750
0.250000 0.250000 0.250000
0.256250 0.256250 0.256250
0.262500 0.262500 0.262500
0.275000 0.275000 0.275000
0.287500 0.287500 0.287500
0.300000 0.300000 0.300000
0.312500 0.312500 0.312500
0.325000 0.325000 0.325000
0.337500 0.337500 0.337500
0.350000 0.350000 0.350000
0.362500 0.362500 0.362500
0.375000 0.375000 0.375000
0.387500 0.387500 0.387500
0.400000 0.400000 0.400000
0.412500 0.412500 0.412500
0.425000 0.425000 0.425000
0.437500 0.437500 0.437500
0.450000 0.450000 0.450000
0.462500 0.462500 0.462500
0.475000 0.475000 0.475000
0.487500 0.487500 0.487500
0.187500 0.187500 0.187500
0.193750 0.193750 0.193750
0.200000 0.200000 0.200000
0.206250 0.206250 0.206250
0.212500 0.212500 0.212500
0.218750 0.218750 0.218750
0.225000 0.225000 0.225000
0.231250 0.231250 0.231250
0.237500 0.237500 0.237500
0.243750 0.243750 0.243750
0.250000 0.250000 0.250000
0.256250 0.256250 0.256250
0.262500 0.262500 0.262500
0.268750 0.268750 0.268750
0.275000 0.275000 0.275000
0.281250 0.281250 0.281250
0.293750 0.293750 0.293750
0.306250 0.306250 0.306250
0.318750 0.318750 0.318750
0.331250 0.331250 0.331250
0.343750 0.343750 0.343750
0.356250 0.356250 0.356250
0.368750 0.368750 0.368750
0.381250 0.381250 0.381250
0.393750 0.393750 0.393750
0.406250 0.406250 0.406250
0.418750 0.418750 0.418750
0.431250 0.431250 0.431250
0.443750 0.443750 0.443750
0.456250 0.456250 0.456250
0.468750 0.468750 0.468750
0.481250 0.481250 0.481250
0.493750 0.493750 0.493750
0.200000 0.200000 0.200000
0.206250 0.206250 0.206250
0.212500 0.212500 0.212500
0.218750 0.218750 0.218750
0.225000 0.225000 0.225000
0.231250 0.231250 0.231250
0.237500 0.237500 0.237500
0.243750 0.243750 0.243750
0.250000 0.250000 0.250000
0.256250 0.256250 0.256250
0.262500 0.262500 0.262500
0.268750 0.268750 0.268750
0.275000 0.275000 0.275000
0.281250 0.281250 0.281250
0.287500 0.287500 0.287500
0.293750 0.293750 0.293750
0.300000 0.300000 0.300000
0.312500 0.312500 0.312500
0.325000 0.325000 0.325000
0.337500 0.337500 0.337500
0.350000 0.350000 0.350000
0.362500 0.362500 0.362500
0.375000 0.375000 0.375000
0.387500 0.387500 0.387500
0.400000 0.400000 0.400000
0.412500 0.412500 0.412500
0.425000 0.425000 0.425000
0.437500 0.437500 0.437500
0.450000 0.450000 0.450000
0.462500 0.462500 0.462500
0.475000 0.475000 0.475000
0.487500 0.487500 0.487500
0.500000 0.500000 0.500000
0.212500 0.212500 0.212500
0.218750 0.218750 0.218750
0.225000 0.225000 0.225000
0.231250 0.231250 0.231250
0.237500 0.237500 0.237500
0.243750 0.243750 0.243750
0.250000 0.250000 0.250000
0.256250 0.256250 0.256250
0.262500 0.262500 0.262500
0.268750 0.268750 0.268750
0.275000 0.275000 0.275000
0.281250 0.281250 0.281250
0.287500 0.287500 0.287500
0.293750 0.293750 0.293750
0.300000 0.300000 0.300000
0.306250 0.306250 0.306250
0.312500 0.312500 0.312500
0.318750 0.318750 0.318750
0.331250 0.331250 0.331250
0.343750 0.343750 0.343750
0.356250 0.356250 0.356250
0.368750 0.368750 0.368750
0.381250 0.381250 0.381250
0.393750 0.393750 0.393750
0.406250 0.406250 0.406250
0.418750 0.418750 0.418750
0.431250 0.431250 0.431250
0.443750 0.443750 0.443750
0.456250 0.456250 0.456250
0.468750 0.468750 0.468750
0.481250 0.481250 0.481250
0.493750 0.493750 0.493750
0.506250 0.506250 0.506250
0.225000 0.225000 0.225000
0.231250 0.231250 0.231250
0.237500 0.237500 0.237500
0.243750 0.243750 0.243750
0.250000 0.250000 0.250000
0.256250 0.256250 0.256250
0.262500 0.262500 0.262500
0.268750 0.268750 0.268750
0.275000 0.275000 0.275000
0.281250 0.281250 0.281250
0.287500 0.287500 0.287500
0.293750 0.293750 0.293750
0.300000 0.300000 0.300000
0.306250 0.306250 0.306250
0.312500 0.312500 0.312500
0.318750 0.318750 0.318750
0.325000 0.325000 0.325000
0.331250 0.331250 0.331250
0.337500 0.337500 0.337500
0.350000 0.350000 0.350000
0.362500 0.362500 0.362500
0.375000 0.375000 0.375000
0.387500 0.387500 0.387500
0.400000 0.400000 0.400000
0.412500 0.412500 0.412500
0.425000 0.425000 0.425000
0.437500 0.437500 0.437500
0.450000 0.450000 0.450000
0.462500 0.462500 0.462500
0.475000 0.475000 0.475000
0.487500 0.487500 0.487500
0.500000 0.500000 0.500000
0.512500 0.512500 0.512500
0.237500 0.237500 0.237500
0.243750 0.243750 0.243750
0.250000 0.250000 0.250000
0.256250 0.256250 0.256250
0.262500 0.262500 0.262500
0.268750 0.268750 0.268750
0.275000 0.275000 0.275000
0.281250 0.281250 0.281250
0.287500 0.287500 0.287500
0.293750 0.293750 0.293750
0.300000 0.300000 0.300000
0.306250 0.306250 0.306250
0.312500 0.312500 0.312500
0.318750 0.318750 0.318750
0.325000 0.325000 0.325000
0.331250 0.331250 0.331250
0.337500 0.337500 0.337500
0.343750 0.343750 0.343750
0.350000 0.350000 0.350000
0.356250 0.356250 0.356250
0.368750 0.368750 0.368750
0.381250 0.381250 0.381250
0.393750 0.393750 0.393750
0.406250 0.406250 0.406250
0.418750 0.418750 0.418750
0.431250 0.431250 0.431250
0.443750 0.443750 0.443750
0.456250 0.456250 0.456250
0.468750 0.468750 0.468750
0.481250 0.481250 0.481250
0.493750 0.493750 0.493750
0.506250 0.506250 0.506250
0.518750 0.518750 0.518750
0.250000 0.250000 0.250000
0.256250 0.256250 0.256250
0.262500 0.262500 0.262500
0.268750 0.268750 0.268750
0.275000 0.275000 0.275000
0.281250 0.281250 0.281250
0.287500 0.287500 0.287500
0.293750 0.293750 0.293750
0.300000 0.300000 0.300000
0.306250 0.306250 0.306250
0.312500 0.312500 0.312500
0.318750 0.318750 0.318750
0.325000 0.325000 0.325000
0.331250 0.331250 0.331250
0.337500 0.337500 0.337500
0.343750 0.343750 0.343750
0.350000 0.350000 0.350000
0.356250 0.356250 0.356250
0.362500 0.362500 0.362500
0.368750 0.368750 0.368750
0.375000 0.375000 0.375000
0.387500 0.387500 0.387500
0.400000 0.400000 0.400000
0.412500 0.412500 0.412500
0.425000 0.425000 0.425000
0.437500 0.437500 0.437500
0.450000 0.450000 0.450000
0.462500 0.462500 0.462500
0.475000 0.475000 0.475000
0.487500 0.487500 0.487500
0.500000 0.500000 0.500000
0.512500 0.512500 0.512500
0.525000 0.525000 0.525000
0.262500 0.262500 0.262500
0.268750 0.268750 0.268750
0.275000 0.275000 0.275000
0.281250 0.281250 0.281250
0.287500 0.287500 0.287500
0.293750 0.293750 0.293750
0.300000 0.300000 0.300000
0.306250 0.306250 0.306250
0.312500 0.312500 0.312500
0.318750 0.318750 0.318750
0.325000 0.325000 0.325000
0.331250 0.331250 0.331250
0.337500 0.337500 0.337500
0.343750 0.343750 0.343750
0.350000 0.350000 0.350000
0.356250 0.356250 0.356250
0.362500 0.362500 0.362500
0.368750 0.368750 0.368750
0.375000 0.375000 0.375000
0.381250 0.381250 0.381250
0.387500 0.387500 0.387500
0.393750 0.393750 0.393750
0.406250 0.406250 0.406250
0.418750 0.418750 0.418750
0.431250 0.431250 0.431250
0.443750 0.443750 0.443750
0.456250 0.456250 0.456250
0.468750 0.468750 0.468750
0.481250 0.481250 0.481250
0.493750 0.493750 0.493750
0.506250 0.506250 0.506250
0.518750 0.518750 0.518750
0.531250 0.531250 0.531250
0.275000 0.275000 0.275000
0.281250 0.281250 0.281250
0.287500 0.287500 0.287500
0.293750 0.293750 0.293750
0.300000 0.300000 0.300000
0.306250 0.306250 0.306250
0.312500 0.312500 0.312500
0.318750 0.318750 0.318750
0.325000 0.325000 0.325000
0.331250 0.331250 0.331250
0.337500 0.337500 0.337500
0.343750 0.343750 0.343750
0.350000 0.350000 0.350000
0.356250 0.356250 0.356250
0.362500 0.362500 0.362500
0.368750 0.368750 0.368750
0.375000 0.375000 0.375000
0.381250 0.381250 0.381250
0.387500 0.387500 0.387500
0.393750 0.393750 0.393750
0.400000 0.400000 0.400000
0.406250 0.406250 0.406250
0.412500 0.412500 0.412500
0.425000 0.425000 0.425000
0.437500 0.437500 0.437500
0.450000 0.450000 0.450000
0.462500 0.462500 0.462500
0.475000 0.475000 0.475000
0.487500 0.487500 0.487500
0.500000 0.500000 0.500000
0.512500 0.512500 0.512500
0.525000 0.525000 0.525000
0.537500 0.537500 0.537500
0.287500 0.287500 0.287500
0.293750 0.293750 0.293750
0.300000 0.300000 0.300000
0.306250 0.306250 0.306250
0.312500 0.312500 0.312500
0.318750 0.318750 0.318750
0.325000 0.325000 0.325000
0.331250 0.331250 0.331250
0.337500 0.337500 0.337500
0.343750 0.343750 0.343750
0.350000 0.350000 0.350000
0.356250 0.356250 0.356250
0.362500 0.362500 0.362500
0.368750 0.368750 0.368750
0.375000 0.375000 0.375000
0.381250 0.381250 0.381250
0.387500 0.387500 0.387500
0.393750 0.393750 0.393750
0.400000 0.400000 0.400000
0.406250 0.406250 0.406250
0.412500 0.412500 0.412500
0.418750 0.418750 0.418750
0.425000 0.425000 0.425000
0.431250 0.431250 0.431250
0.443750 0.443750 0.443750
0.456250 0.456250 0.456250
0.468750 0.468750 0.468750
0.481250 0.481250 0.481250
0.493750 0.493750 0.493750
0.506250 0.506250 0.506250
0.518750 0.518750 0.518750
0.531250 0.531250 0.531250
0.543750 0.543750 0.543750
0.300000 0.300000 0.300000
0.306250 0.306250 0.306250
0.312500 0.312500 0.312500
0.318750 0.318750 0.318750
0.325000 0.325000 0.325000
0.331250 0.331250 0.331250
0.337500 0.337500 0.337500
0.343750 0.343750 0.343750
0.350000 0.350000 0.350000
0.356250 0.356250 0.356250
0.362500 0.362500 0.362500
0.368750 0.368750 0.368750
0.375000 0.375000 0.375000
0.381250 0.381250 0.381250
0.387500 0.387500 0.387500
0.393750 0.393750 0.393750
0.400000 0.400000 0.400000
0.406250 0.406250 0.406250
0.412500 0.412500 0.412500
0.418750 0.418750 0.418750
0.425000 0.425000 0.425000
0.431250 0.431250 0.431250
0.437500 0.437500 0.437500
0.443750 0.443750 0.443750
0.450000 0.450000 0.450000
0.462500 0.462500 0.462500
0.475000 0.475000 0.475000
0.487500 0.487500 0.487500
0.500000 0.500000 0.500000
0.512500 0.512500 0.512500
0.525000 0.525000 0.525000
0.537500 0.537500 0.537500
0.550000 0.550000 0.550000
0.312500 0.312500 0.312500
0.318750 0.318750 0.318750
0.325000 0.325000 0.325000
0.331250 0.331250 0.331250
0.337500 0.337500 0.337500
0.343750 0.343750 0.343750
0.350000 0.350000 0.350000
0.356250 0.356250 0.356250
0.362500 0.362500 0.362500
0.368750 0.368750 0.368750
0.375000 0.375000 0.375000
0.381250 0.381250 0.381250
0.387500 0.387500 0.387500
0.393750 0.393750 0.393750
0.400000 0.400000 0.400000
0.406250 0.406250 0.406250
0.412500 0.412500 0.412500
0.418750 0.418750 0.418750
0.425000 0.425000 0.425000
0.431250 0.431250 0.431250
0.437500 0.437500 0.437500
0.443750 0.443750 0.443750
0.450000 0.450000 0.450000
0.456250 0.456250 0.456250
0.462500 0.462500 0.462500
0.468750 0.468750 0.468750
0.481250 0.481250 0.481250
0.493750 0.493750 0.493750
0.506250 0.506250 0.506250
0.518750 0.518750 0.518750
0.531250 0.531250 0.531250
0.543750 0.543750 0.543750
0.556250 0.556250 0.556250
0.325000 0.325000 0.325000
0.331250 0.331250 0.331250
0.337500 0.337500 0.337500
0.343750 0.343750 0.343750
0.350000 0.350000 0.350000
0.356250 0.356250 0.356250
0.362500 0.362500 0.362500
0.368750 0.368750 0.368750
0.375000 0.375000 0.375000
0.381250 0.381250 0.381250
0.387500 0.387500 0.387500
0.393750 0.393750 0.393750
0.400000 0.400000 0.400000
0.406250 0.406250 0.406250
0.412500 0.412500 0.412500
0.418750 0.418750 0.418750
0.425000 0.425000 0.425000
0.431250 0.431250 0.431250
0.437500 0.437500 0.437500
0.443750 0.443750 0.443750
0.450000 0.450000 0.450000
0.456250 0.456250 0.456250
