ricette/lut/Incisa-100-33.cube
# LUT generata da Camera Oscura BN
# Ricetta: Incisa 100
# Pellicola: delta100
# Nota: grana, vignetta e interventi locali non sono inclusi nella LUT.
TITLE "Incisa 100"
LUT_3D_SIZE 5
DOMAIN_MIN 0.0 0.0 0.0
DOMAIN_MAX 1.0 1.0 1.0
0.000000 0.000000 0.000000
0.058005 0.058005 0.058005
0.140259 0.140259 0.140259
0.253699 0.253699 0.253699
0.384037 0.384037 0.384037
0.058005 0.058005 0.058005
0.094650 0.094650 0.094650
0.193763 0.193763 0.193763
0.317974 0.317974 0.317974
0.449133 0.449133 0.449133
0.140259 0.140259 0.140259
0.193763 0.193763 0.193763
0.253699 0.253699 0.253699
0.384037 0.384037 0.384037
0.511524 0.511524 0.511524
0.253699 0.253699 0.253699
0.317974 0.317974 0.317974
0.384037 0.384037 0.384037
0.449133 0.449133 0.449133
0.573838 0.573838 0.573838
0.384037 0.384037 0.384037
0.449133 0.449133 0.449133
0.511524 0.511524 0.511524
0.573838 0.573838 0.573838
0.637941 0.637941 0.637941
0.027632 0.027632 0.027632
0.140259 0.140259 0.140259
0.253699 0.253699 0.253699
0.384037 0.384037 0.384037
0.511524 0.511524 0.511524
0.094650 0.094650 0.094650
0.193763 0.193763 0.193763
0.317974 0.317974 0.317974
0.449133 0.449133 0.449133
0.573838 0.573838 0.573838
0.193763 0.193763 0.193763
0.317974 0.317974 0.317974
0.384037 0.384037 0.384037
0.511524 0.511524 0.511524
0.637941 0.637941 0.637941
0.317974 0.317974 0.317974
0.449133 0.449133 0.449133
0.511524 0.511524 0.511524
0.573838 0.573838 0.573838
0.700917 0.700917 0.700917
0.449133 0.449133 0.449133
0.573838 0.573838 0.573838
0.637941 0.637941 0.637941
0.700917 0.700917 0.700917
0.759535 0.759535 0.759535
0.058005 0.058005 0.058005
0.193763 0.193763 0.193763
0.384037 0.384037 0.384037
0.511524 0.511524 0.511524
0.637941 0.637941 0.637941
0.140259 0.140259 0.140259
0.253699 0.253699 0.253699
0.449133 0.449133 0.449133
0.573838 0.573838 0.573838
0.700917 0.700917 0.700917
0.253699 0.253699 0.253699
0.384037 0.384037 0.384037
0.511524 0.511524 0.511524
0.637941 0.637941 0.637941
0.759535 0.759535 0.759535
0.384037 0.384037 0.384037
0.511524 0.511524 0.511524
0.637941 0.637941 0.637941
0.700917 0.700917 0.700917
0.811014 0.811014 0.811014
0.511524 0.511524 0.511524
0.637941 0.637941 0.637941
0.759535 0.759535 0.759535
0.811014 0.811014 0.811014
0.855809 0.855809 0.855809
0.094650 0.094650 0.094650
0.253699 0.253699 0.253699
0.449133 0.449133 0.449133
0.637941 0.637941 0.637941
0.759535 0.759535 0.759535
0.193763 0.193763 0.193763
0.317974 0.317974 0.317974
0.511524 0.511524 0.511524
0.700917 0.700917 0.700917
0.811014 0.811014 0.811014
0.317974 0.317974 0.317974
0.449133 0.449133 0.449133
0.573838 0.573838 0.573838
0.759535 0.759535 0.759535
0.855809 0.855809 0.855809
0.449133 0.449133 0.449133
0.573838 0.573838 0.573838
0.700917 0.700917 0.700917
0.811014 0.811014 0.811014
0.895844 0.895844 0.895844
0.573838 0.573838 0.573838
0.700917 0.700917 0.700917
0.811014 0.811014 0.811014
0.895844 0.895844 0.895844
0.932552 0.932552 0.932552
0.140259 0.140259 0.140259
0.317974 0.317974 0.317974
0.511524 0.511524 0.511524
0.700917 0.700917 0.700917
0.855809 0.855809 0.855809
0.253699 0.253699 0.253699
0.384037 0.384037 0.384037
0.573838 0.573838 0.573838
0.759535 0.759535 0.759535
0.895844 0.895844 0.895844
0.384037 0.384037 0.384037
0.511524 0.511524 0.511524
0.637941 0.637941 0.637941
0.811014 0.811014 0.811014
0.932552 0.932552 0.932552
0.511524 0.511524 0.511524
0.637941 0.637941 0.637941
0.759535 0.759535 0.759535
0.855809 0.855809 0.855809
0.967028 0.967028 0.967028
0.637941 0.637941 0.637941
0.759535 0.759535 0.759535
0.855809 0.855809 0.855809
0.932552 0.932552 0.932552
1.000000 1.000000 1.000000
