ricette/lut/Incisa-100-33.cube
# LUT generata da Camera Oscura BN
# Ricetta: Incisa 100
# Pellicola: delta100
# Nota: grana, vignetta e interventi locali non sono inclusi nella LUT.
TITLE "Incisa 100"
LUT_3D_SIZE 33
DOMAIN_MIN 0.0 0.0 0.0
DOMAIN_MAX 1.0 1.0 1.0
0.000000 0.000000 0.000000
0.006781 0.006781 0.006781
0.013628 0.013628 0.013628
0.020568 0.020568 0.020568
0.027632 0.027632 0.027632
0.034858 0.034858 0.034858
0.042294 0.042294 0.042294
0.049991 0.049991 0.049991
0.058005 0.058005 0.058005
0.066401 0.066401 0.066401
0.075252 0.075252 0.075252
0.084638 0.084638 0.084638
0.094650 0.094650 0.094650
0.105264 0.105264 0.105264
0.116410 0.116410 0.116410
0.128079 0.128079 0.128079
0.140259 0.140259 0.140259
0.152942 0.152942 0.152942
0.166102 0.166102 0.166102
0.179717 0.179717 0.179717
0.193763 0.193763 0.193763
0.208213 0.208213 0.208213
0.223042 0.223042 0.223042
0.238216 0.238216 0.238216
0.253699 0.253699 0.253699
0.269454 0.269454 0.269454
0.285444 0.285444 0.285444
0.301631 0.301631 0.301631
0.317974 0.317974 0.317974
0.334429 0.334429 0.334429
0.350953 0.350953 0.350953
0.367503 0.367503 0.367503
0.384037 0.384037 0.384037
0.006781 0.006781 0.006781
0.010194 0.010194 0.010194
0.017083 0.017083 0.017083
0.024081 0.024081 0.024081
0.031223 0.031223 0.031223
0.038549 0.038549 0.038549
0.046107 0.046107 0.046107
0.053952 0.053952 0.053952
0.062148 0.062148 0.062148
0.070766 0.070766 0.070766
0.079877 0.079877 0.079877
0.089565 0.089565 0.089565
0.099887 0.099887 0.099887
0.110765 0.110765 0.110765
0.122179 0.122179 0.122179
0.134110 0.134110 0.134110
0.146544 0.146544 0.146544
0.159463 0.159463 0.159463
0.172850 0.172850 0.172850
0.186686 0.186686 0.186686
0.200941 0.200941 0.200941
0.215585 0.215585 0.215585
0.230589 0.230589 0.230589
0.245919 0.245919 0.245919
0.261543 0.261543 0.261543
0.277422 0.277422 0.277422
0.293517 0.293517 0.293517
0.309786 0.309786 0.309786
0.326189 0.326189 0.326189
0.342684 0.342684 0.342684
0.359227 0.359227 0.359227
0.375775 0.375775 0.375775
0.392283 0.392283 0.392283
0.013628 0.013628 0.013628
0.017083 0.017083 0.017083
0.020568 0.020568 0.020568
0.027632 0.027632 0.027632
0.034858 0.034858 0.034858
0.042294 0.042294 0.042294
0.049991 0.049991 0.049991
0.058005 0.058005 0.058005
0.066401 0.066401 0.066401
0.075252 0.075252 0.075252
0.084638 0.084638 0.084638
0.094650 0.094650 0.094650
0.105264 0.105264 0.105264
0.116410 0.116410 0.116410
0.128079 0.128079 0.128079
0.140259 0.140259 0.140259
0.152942 0.152942 0.152942
0.166102 0.166102 0.166102
0.179717 0.179717 0.179717
0.193763 0.193763 0.193763
0.208213 0.208213 0.208213
0.223042 0.223042 0.223042
0.238216 0.238216 0.238216
0.253699 0.253699 0.253699
0.269454 0.269454 0.269454
0.285444 0.285444 0.285444
0.301631 0.301631 0.301631
0.317974 0.317974 0.317974
0.334429 0.334429 0.334429
0.350953 0.350953 0.350953
0.367503 0.367503 0.367503
0.384037 0.384037 0.384037
0.400509 0.400509 0.400509
0.020568 0.020568 0.020568
0.024081 0.024081 0.024081
0.027632 0.027632 0.027632
0.031223 0.031223 0.031223
0.038549 0.038549 0.038549
0.046107 0.046107 0.046107
0.053952 0.053952 0.053952
0.062148 0.062148 0.062148
0.070766 0.070766 0.070766
0.079877 0.079877 0.079877
0.089565 0.089565 0.089565
0.099887 0.099887 0.099887
0.110765 0.110765 0.110765
0.122179 0.122179 0.122179
0.134110 0.134110 0.134110
0.146544 0.146544 0.146544
0.159463 0.159463 0.159463
0.172850 0.172850 0.172850
0.186686 0.186686 0.186686
0.200941 0.200941 0.200941
0.215585 0.215585 0.215585
0.230589 0.230589 0.230589
0.245919 0.245919 0.245919
0.261543 0.261543 0.261543
0.277422 0.277422 0.277422
0.293517 0.293517 0.293517
0.309786 0.309786 0.309786
0.326189 0.326189 0.326189
0.342684 0.342684 0.342684
0.359227 0.359227 0.359227
0.375775 0.375775 0.375775
0.392283 0.392283 0.392283
0.408709 0.408709 0.408709
0.027632 0.027632 0.027632
0.031223 0.031223 0.031223
0.034858 0.034858 0.034858
0.038549 0.038549 0.038549
0.042294 0.042294 0.042294
0.049991 0.049991 0.049991
0.058005 0.058005 0.058005
0.066401 0.066401 0.066401
0.075252 0.075252 0.075252
0.084638 0.084638 0.084638
0.094650 0.094650 0.094650
0.105264 0.105264 0.105264
0.116410 0.116410 0.116410
0.128079 0.128079 0.128079
0.140259 0.140259 0.140259
0.152942 0.152942 0.152942
0.166102 0.166102 0.166102
0.179717 0.179717 0.179717
0.193763 0.193763 0.193763
0.208213 0.208213 0.208213
0.223042 0.223042 0.223042
0.238216 0.238216 0.238216
0.253699 0.253699 0.253699
0.269454 0.269454 0.269454
0.285444 0.285444 0.285444
0.301631 0.301631 0.301631
0.317974 0.317974 0.317974
0.334429 0.334429 0.334429
0.350953 0.350953 0.350953
0.367503 0.367503 0.367503
0.384037 0.384037 0.384037
0.400509 0.400509 0.400509
0.416877 0.416877 0.416877
0.034858 0.034858 0.034858
0.038549 0.038549 0.038549
0.042294 0.042294 0.042294
0.046107 0.046107 0.046107
0.049991 0.049991 0.049991
0.053952 0.053952 0.053952
0.062148 0.062148 0.062148
0.070766 0.070766 0.070766
0.079877 0.079877 0.079877
0.089565 0.089565 0.089565
0.099887 0.099887 0.099887
0.110765 0.110765 0.110765
0.122179 0.122179 0.122179
0.134110 0.134110 0.134110
0.146544 0.146544 0.146544
0.159463 0.159463 0.159463
0.172850 0.172850 0.172850
0.186686 0.186686 0.186686
0.200941 0.200941 0.200941
0.215585 0.215585 0.215585
0.230589 0.230589 0.230589
0.245919 0.245919 0.245919
0.261543 0.261543 0.261543
0.277422 0.277422 0.277422
0.293517 0.293517 0.293517
0.309786 0.309786 0.309786
0.326189 0.326189 0.326189
0.342684 0.342684 0.342684
0.359227 0.359227 0.359227
0.375775 0.375775 0.375775
0.392283 0.392283 0.392283
0.408709 0.408709 0.408709
0.425010 0.425010 0.425010
0.042294 0.042294 0.042294
0.046107 0.046107 0.046107
0.049991 0.049991 0.049991
0.053952 0.053952 0.053952
0.058005 0.058005 0.058005
0.062148 0.062148 0.062148
0.066401 0.066401 0.066401
0.075252 0.075252 0.075252
0.084638 0.084638 0.084638
0.094650 0.094650 0.094650
0.105264 0.105264 0.105264
0.116410 0.116410 0.116410
0.128079 0.128079 0.128079
0.140259 0.140259 0.140259
0.152942 0.152942 0.152942
0.166102 0.166102 0.166102
0.179717 0.179717 0.179717
0.193763 0.193763 0.193763
0.208213 0.208213 0.208213
0.223042 0.223042 0.223042
0.238216 0.238216 0.238216
0.253699 0.253699 0.253699
0.269454 0.269454 0.269454
0.285444 0.285444 0.285444
0.301631 0.301631 0.301631
0.317974 0.317974 0.317974
0.334429 0.334429 0.334429
0.350953 0.350953 0.350953
0.367503 0.367503 0.367503
0.384037 0.384037 0.384037
0.400509 0.400509 0.400509
0.416877 0.416877 0.416877
0.433098 0.433098 0.433098
0.049991 0.049991 0.049991
0.053952 0.053952 0.053952
0.058005 0.058005 0.058005
0.062148 0.062148 0.062148
0.066401 0.066401 0.066401
0.070766 0.070766 0.070766
0.075252 0.075252 0.075252
0.079877 0.079877 0.079877
0.089565 0.089565 0.089565
0.099887 0.099887 0.099887
0.110765 0.110765 0.110765
0.122179 0.122179 0.122179
0.134110 0.134110 0.134110
0.146544 0.146544 0.146544
0.159463 0.159463 0.159463
0.172850 0.172850 0.172850
0.186686 0.186686 0.186686
0.200941 0.200941 0.200941
0.215585 0.215585 0.215585
0.230589 0.230589 0.230589
0.245919 0.245919 0.245919
0.261543 0.261543 0.261543
0.277422 0.277422 0.277422
0.293517 0.293517 0.293517
0.309786 0.309786 0.309786
0.326189 0.326189 0.326189
0.342684 0.342684 0.342684
0.359227 0.359227 0.359227
0.375775 0.375775 0.375775
0.392283 0.392283 0.392283
0.408709 0.408709 0.408709
0.425010 0.425010 0.425010
0.441142 0.441142 0.441142
0.058005 0.058005 0.058005
0.062148 0.062148 0.062148
0.066401 0.066401 0.066401
0.070766 0.070766 0.070766
0.075252 0.075252 0.075252
0.079877 0.079877 0.079877
0.084638 0.084638 0.084638
0.089565 0.089565 0.089565
0.094650 0.094650 0.094650
0.105264 0.105264 0.105264
0.116410 0.116410 0.116410
0.128079 0.128079 0.128079
0.140259 0.140259 0.140259
0.152942 0.152942 0.152942
0.166102 0.166102 0.166102
0.179717 0.179717 0.179717
0.193763 0.193763 0.193763
0.208213 0.208213 0.208213
0.223042 0.223042 0.223042
0.238216 0.238216 0.238216
0.253699 0.253699 0.253699
0.269454 0.269454 0.269454
0.285444 0.285444 0.285444
0.301631 0.301631 0.301631
0.317974 0.317974 0.317974
0.334429 0.334429 0.334429
0.350953 0.350953 0.350953
0.367503 0.367503 0.367503
0.384037 0.384037 0.384037
0.400509 0.400509 0.400509
0.416877 0.416877 0.416877
0.433098 0.433098 0.433098
0.449133 0.449133 0.449133
0.066401 0.066401 0.066401
0.070766 0.070766 0.070766
0.075252 0.075252 0.075252
0.079877 0.079877 0.079877
0.084638 0.084638 0.084638
0.089565 0.089565 0.089565
0.094650 0.094650 0.094650
0.099887 0.099887 0.099887
0.105264 0.105264 0.105264
0.110765 0.110765 0.110765
0.122179 0.122179 0.122179
0.134110 0.134110 0.134110
0.146544 0.146544 0.146544
0.159463 0.159463 0.159463
0.172850 0.172850 0.172850
0.186686 0.186686 0.186686
0.200941 0.200941 0.200941
0.215585 0.215585 0.215585
0.230589 0.230589 0.230589
0.245919 0.245919 0.245919
0.261543 0.261543 0.261543
0.277422 0.277422 0.277422
0.293517 0.293517 0.293517
0.309786 0.309786 0.309786
0.326189 0.326189 0.326189
0.342684 0.342684 0.342684
0.359227 0.359227 0.359227
0.375775 0.375775 0.375775
0.392283 0.392283 0.392283
0.408709 0.408709 0.408709
0.425010 0.425010 0.425010
0.441142 0.441142 0.441142
0.457070 0.457070 0.457070
0.075252 0.075252 0.075252
0.079877 0.079877 0.079877
0.084638 0.084638 0.084638
0.089565 0.089565 0.089565
0.094650 0.094650 0.094650
0.099887 0.099887 0.099887
0.105264 0.105264 0.105264
0.110765 0.110765 0.110765
0.116410 0.116410 0.116410
0.122179 0.122179 0.122179
0.128079 0.128079 0.128079
0.140259 0.140259 0.140259
0.152942 0.152942 0.152942
0.166102 0.166102 0.166102
0.179717 0.179717 0.179717
0.193763 0.193763 0.193763
0.208213 0.208213 0.208213
0.223042 0.223042 0.223042
0.238216 0.238216 0.238216
0.253699 0.253699 0.253699
0.269454 0.269454 0.269454
0.285444 0.285444 0.285444
0.301631 0.301631 0.301631
0.317974 0.317974 0.317974
0.334429 0.334429 0.334429
0.350953 0.350953 0.350953
0.367503 0.367503 0.367503
0.384037 0.384037 0.384037
0.400509 0.400509 0.400509
0.416877 0.416877 0.416877
0.433098 0.433098 0.433098
0.449133 0.449133 0.449133
0.464971 0.464971 0.464971
0.084638 0.084638 0.084638
0.089565 0.089565 0.089565
0.094650 0.094650 0.094650
0.099887 0.099887 0.099887
0.105264 0.105264 0.105264
0.110765 0.110765 0.110765
0.116410 0.116410 0.116410
0.122179 0.122179 0.122179
0.128079 0.128079 0.128079
0.134110 0.134110 0.134110
0.140259 0.140259 0.140259
0.146544 0.146544 0.146544
0.159463 0.159463 0.159463
0.172850 0.172850 0.172850
0.186686 0.186686 0.186686
0.200941 0.200941 0.200941
0.215585 0.215585 0.215585
0.230589 0.230589 0.230589
0.245919 0.245919 0.245919
0.261543 0.261543 0.261543
0.277422 0.277422 0.277422
0.293517 0.293517 0.293517
0.309786 0.309786 0.309786
0.326189 0.326189 0.326189
0.342684 0.342684 0.342684
0.359227 0.359227 0.359227
0.375775 0.375775 0.375775
0.392283 0.392283 0.392283
0.408709 0.408709 0.408709
0.425010 0.425010 0.425010
0.441142 0.441142 0.441142
0.457070 0.457070 0.457070
0.472835 0.472835 0.472835
0.094650 0.094650 0.094650
0.099887 0.099887 0.099887
0.105264 0.105264 0.105264
0.110765 0.110765 0.110765
0.116410 0.116410 0.116410
0.122179 0.122179 0.122179
0.128079 0.128079 0.128079
0.134110 0.134110 0.134110
0.140259 0.140259 0.140259
0.146544 0.146544 0.146544
0.152942 0.152942 0.152942
0.159463 0.159463 0.159463
0.166102 0.166102 0.166102
0.179717 0.179717 0.179717
0.193763 0.193763 0.193763
0.208213 0.208213 0.208213
0.223042 0.223042 0.223042
0.238216 0.238216 0.238216
0.253699 0.253699 0.253699
0.269454 0.269454 0.269454
0.285444 0.285444 0.285444
0.301631 0.301631 0.301631
0.317974 0.317974 0.317974
0.334429 0.334429 0.334429
0.350953 0.350953 0.350953
0.367503 0.367503 0.367503
0.384037 0.384037 0.384037
0.400509 0.400509 0.400509
0.416877 0.416877 0.416877
0.433098 0.433098 0.433098
0.449133 0.449133 0.449133
0.464971 0.464971 0.464971
0.480665 0.480665 0.480665
0.105264 0.105264 0.105264
0.110765 0.110765 0.110765
0.116410 0.116410 0.116410
0.122179 0.122179 0.122179
0.128079 0.128079 0.128079
0.134110 0.134110 0.134110
0.140259 0.140259 0.140259
0.146544 0.146544 0.146544
0.152942 0.152942 0.152942
0.159463 0.159463 0.159463
0.166102 0.166102 0.166102
0.172850 0.172850 0.172850
0.179717 0.179717 0.179717
0.186686 0.186686 0.186686
0.200941 0.200941 0.200941
0.215585 0.215585 0.215585
0.230589 0.230589 0.230589
0.245919 0.245919 0.245919
0.261543 0.261543 0.261543
0.277422 0.277422 0.277422
0.293517 0.293517 0.293517
0.309786 0.309786 0.309786
0.326189 0.326189 0.326189
0.342684 0.342684 0.342684
0.359227 0.359227 0.359227
0.375775 0.375775 0.375775
0.392283 0.392283 0.392283
0.408709 0.408709 0.408709
0.425010 0.425010 0.425010
0.441142 0.441142 0.441142
0.457070 0.457070 0.457070
0.472835 0.472835 0.472835
0.488451 0.488451 0.488451
0.116410 0.116410 0.116410
0.122179 0.122179 0.122179
0.128079 0.128079 0.128079
0.134110 0.134110 0.134110
0.140259 0.140259 0.140259
0.146544 0.146544 0.146544
0.152942 0.152942 0.152942
0.159463 0.159463 0.159463
0.166102 0.166102 0.166102
0.172850 0.172850 0.172850
0.179717 0.179717 0.179717
0.186686 0.186686 0.186686
0.193763 0.193763 0.193763
0.200941 0.200941 0.200941
0.208213 0.208213 0.208213
0.223042 0.223042 0.223042
0.238216 0.238216 0.238216
0.253699 0.253699 0.253699
0.269454 0.269454 0.269454
0.285444 0.285444 0.285444
0.301631 0.301631 0.301631
0.317974 0.317974 0.317974
0.334429 0.334429 0.334429
0.350953 0.350953 0.350953
0.367503 0.367503 0.367503
0.384037 0.384037 0.384037
0.400509 0.400509 0.400509
0.416877 0.416877 0.416877
0.433098 0.433098 0.433098
0.449133 0.449133 0.449133
0.464971 0.464971 0.464971
0.480665 0.480665 0.480665
0.496192 0.496192 0.496192
0.128079 0.128079 0.128079
0.134110 0.134110 0.134110
0.140259 0.140259 0.140259
0.146544 0.146544 0.146544
0.152942 0.152942 0.152942
0.159463 0.159463 0.159463
0.166102 0.166102 0.166102
0.172850 0.172850 0.172850
0.179717 0.179717 0.179717
0.186686 0.186686 0.186686
0.193763 0.193763 0.193763
0.200941 0.200941 0.200941
0.208213 0.208213 0.208213
0.215585 0.215585 0.215585
0.223042 0.223042 0.223042
0.230589 0.230589 0.230589
0.245919 0.245919 0.245919
0.261543 0.261543 0.261543
0.277422 0.277422 0.277422
0.293517 0.293517 0.293517
0.309786 0.309786 0.309786
0.326189 0.326189 0.326189
0.342684 0.342684 0.342684
0.359227 0.359227 0.359227
0.375775 0.375775 0.375775
0.392283 0.392283 0.392283
0.408709 0.408709 0.408709
0.425010 0.425010 0.425010
0.441142 0.441142 0.441142
0.457070 0.457070 0.457070
0.472835 0.472835 0.472835
0.488451 0.488451 0.488451
0.503886 0.503886 0.503886
0.140259 0.140259 0.140259
0.146544 0.146544 0.146544
0.152942 0.152942 0.152942
0.159463 0.159463 0.159463
0.166102 0.166102 0.166102
0.172850 0.172850 0.172850
0.179717 0.179717 0.179717
0.186686 0.186686 0.186686
0.193763 0.193763 0.193763
0.200941 0.200941 0.200941
0.208213 0.208213 0.208213
0.215585 0.215585 0.215585
0.223042 0.223042 0.223042
0.230589 0.230589 0.230589
0.238216 0.238216 0.238216
0.245919 0.245919 0.245919
0.253699 0.253699 0.253699
0.269454 0.269454 0.269454
0.285444 0.285444 0.285444
0.301631 0.301631 0.301631
0.317974 0.317974 0.317974
0.334429 0.334429 0.334429
0.350953 0.350953 0.350953
0.367503 0.367503 0.367503
0.384037 0.384037 0.384037
0.400509 0.400509 0.400509
0.416877 0.416877 0.416877
0.433098 0.433098 0.433098
0.449133 0.449133 0.449133
0.464971 0.464971 0.464971
0.480665 0.480665 0.480665
0.496192 0.496192 0.496192
0.511524 0.511524 0.511524
0.152942 0.152942 0.152942
0.159463 0.159463 0.159463
0.166102 0.166102 0.166102
0.172850 0.172850 0.172850
0.179717 0.179717 0.179717
0.186686 0.186686 0.186686
0.193763 0.193763 0.193763
0.200941 0.200941 0.200941
0.208213 0.208213 0.208213
0.215585 0.215585 0.215585
0.223042 0.223042 0.223042
0.230589 0.230589 0.230589
0.238216 0.238216 0.238216
0.245919 0.245919 0.245919
0.253699 0.253699 0.253699
0.261543 0.261543 0.261543
0.269454 0.269454 0.269454
0.277422 0.277422 0.277422
0.293517 0.293517 0.293517
0.309786 0.309786 0.309786
0.326189 0.326189 0.326189
0.342684 0.342684 0.342684
0.359227 0.359227 0.359227
0.375775 0.375775 0.375775
0.392283 0.392283 0.392283
0.408709 0.408709 0.408709
0.425010 0.425010 0.425010
0.441142 0.441142 0.441142
0.457070 0.457070 0.457070
0.472835 0.472835 0.472835
0.488451 0.488451 0.488451
0.503886 0.503886 0.503886
0.519143 0.519143 0.519143
0.166102 0.166102 0.166102
0.172850 0.172850 0.172850
0.179717 0.179717 0.179717
0.186686 0.186686 0.186686
0.193763 0.193763 0.193763
0.200941 0.200941 0.200941
0.208213 0.208213 0.208213
0.215585 0.215585 0.215585
0.223042 0.223042 0.223042
0.230589 0.230589 0.230589
0.238216 0.238216 0.238216
0.245919 0.245919 0.245919
0.253699 0.253699 0.253699
0.261543 0.261543 0.261543
0.269454 0.269454 0.269454
0.277422 0.277422 0.277422
0.285444 0.285444 0.285444
0.293517 0.293517 0.293517
0.301631 0.301631 0.301631
0.317974 0.317974 0.317974
0.334429 0.334429 0.334429
0.350953 0.350953 0.350953
0.367503 0.367503 0.367503
0.384037 0.384037 0.384037
0.400509 0.400509 0.400509
0.416877 0.416877 0.416877
0.433098 0.433098 0.433098
0.449133 0.449133 0.449133
0.464971 0.464971 0.464971
0.480665 0.480665 0.480665
0.496192 0.496192 0.496192
0.511524 0.511524 0.511524
0.526816 0.526816 0.526816
0.179717 0.179717 0.179717
0.186686 0.186686 0.186686
0.193763 0.193763 0.193763
0.200941 0.200941 0.200941
0.208213 0.208213 0.208213
0.215585 0.215585 0.215585
0.223042 0.223042 0.223042
0.230589 0.230589 0.230589
0.238216 0.238216 0.238216
0.245919 0.245919 0.245919
0.253699 0.253699 0.253699
0.261543 0.261543 0.261543
0.269454 0.269454 0.269454
0.277422 0.277422 0.277422
0.285444 0.285444 0.285444
0.293517 0.293517 0.293517
0.301631 0.301631 0.301631
0.309786 0.309786 0.309786
0.317974 0.317974 0.317974
0.326189 0.326189 0.326189
0.342684 0.342684 0.342684
0.359227 0.359227 0.359227
0.375775 0.375775 0.375775
0.392283 0.392283 0.392283
0.408709 0.408709 0.408709
0.425010 0.425010 0.425010
0.441142 0.441142 0.441142
0.457070 0.457070 0.457070
0.472835 0.472835 0.472835
0.488451 0.488451 0.488451
0.503886 0.503886 0.503886
0.519143 0.519143 0.519143
0.534545 0.534545 0.534545
0.193763 0.193763 0.193763
0.200941 0.200941 0.200941
0.208213 0.208213 0.208213
0.215585 0.215585 0.215585
0.223042 0.223042 0.223042
0.230589 0.230589 0.230589
0.238216 0.238216 0.238216
0.245919 0.245919 0.245919
0.253699 0.253699 0.253699
0.261543 0.261543 0.261543
0.269454 0.269454 0.269454
0.277422 0.277422 0.277422
0.285444 0.285444 0.285444
0.293517 0.293517 0.293517
0.301631 0.301631 0.301631
0.309786 0.309786 0.309786
0.317974 0.317974 0.317974
0.326189 0.326189 0.326189
0.334429 0.334429 0.334429
0.342684 0.342684 0.342684
0.350953 0.350953 0.350953
0.367503 0.367503 0.367503
0.384037 0.384037 0.384037
0.400509 0.400509 0.400509
0.416877 0.416877 0.416877
0.433098 0.433098 0.433098
0.449133 0.449133 0.449133
0.464971 0.464971 0.464971
0.480665 0.480665 0.480665
0.496192 0.496192 0.496192
0.511524 0.511524 0.511524
0.526816 0.526816 0.526816
0.542324 0.542324 0.542324
0.208213 0.208213 0.208213
0.215585 0.215585 0.215585
0.223042 0.223042 0.223042
0.230589 0.230589 0.230589
0.238216 0.238216 0.238216
0.245919 0.245919 0.245919
0.253699 0.253699 0.253699
0.261543 0.261543 0.261543
0.269454 0.269454 0.269454
0.277422 0.277422 0.277422
0.285444 0.285444 0.285444
0.293517 0.293517 0.293517
0.301631 0.301631 0.301631
0.309786 0.309786 0.309786
0.317974 0.317974 0.317974
0.326189 0.326189 0.326189
0.334429 0.334429 0.334429
0.342684 0.342684 0.342684
0.350953 0.350953 0.350953
0.359227 0.359227 0.359227
0.367503 0.367503 0.367503
0.375775 0.375775 0.375775
0.392283 0.392283 0.392283
0.408709 0.408709 0.408709
0.425010 0.425010 0.425010
0.441142 0.441142 0.441142
0.457070 0.457070 0.457070
0.472835 0.472835 0.472835
0.488451 0.488451 0.488451
0.503886 0.503886 0.503886
0.519143 0.519143 0.519143
0.534545 0.534545 0.534545
0.550150 0.550150 0.550150
0.223042 0.223042 0.223042
0.230589 0.230589 0.230589
0.238216 0.238216 0.238216
0.245919 0.245919 0.245919
0.253699 0.253699 0.253699
0.261543 0.261543 0.261543
0.269454 0.269454 0.269454
0.277422 0.277422 0.277422
0.285444 0.285444 0.285444
0.293517 0.293517 0.293517
0.301631 0.301631 0.301631
0.309786 0.309786 0.309786
0.317974 0.317974 0.317974
0.326189 0.326189 0.326189
0.334429 0.334429 0.334429
0.342684 0.342684 0.342684
0.350953 0.350953 0.350953
0.359227 0.359227 0.359227
0.367503 0.367503 0.367503
0.375775 0.375775 0.375775
0.384037 0.384037 0.384037
0.392283 0.392283 0.392283
0.400509 0.400509 0.400509
0.416877 0.416877 0.416877
0.433098 0.433098 0.433098
0.449133 0.449133 0.449133
0.464971 0.464971 0.464971
0.480665 0.480665 0.480665
0.496192 0.496192 0.496192
0.511524 0.511524 0.511524
0.526816 0.526816 0.526816
0.542324 0.542324 0.542324
0.558012 0.558012 0.558012
0.238216 0.238216 0.238216
0.245919 0.245919 0.245919
0.253699 0.253699 0.253699
0.261543 0.261543 0.261543
0.269454 0.269454 0.269454
0.277422 0.277422 0.277422
0.285444 0.285444 0.285444
0.293517 0.293517 0.293517
0.301631 0.301631 0.301631
0.309786 0.309786 0.309786
0.317974 0.317974 0.317974
0.326189 0.326189 0.326189
0.334429 0.334429 0.334429
0.342684 0.342684 0.342684
0.350953 0.350953 0.350953
0.359227 0.359227 0.359227
0.367503 0.367503 0.367503
0.375775 0.375775 0.375775
0.384037 0.384037 0.384037
0.392283 0.392283 0.392283
0.400509 0.400509 0.400509
0.408709 0.408709 0.408709
0.416877 0.416877 0.416877
0.425010 0.425010 0.425010
0.441142 0.441142 0.441142
0.457070 0.457070 0.457070
0.472835 0.472835 0.472835
0.488451 0.488451 0.488451
0.503886 0.503886 0.503886
0.519143 0.519143 0.519143
0.534545 0.534545 0.534545
0.550150 0.550150 0.550150
0.565911 0.565911 0.565911
0.253699 0.253699 0.253699
0.261543 0.261543 0.261543
0.269454 0.269454 0.269454
0.277422 0.277422 0.277422
0.285444 0.285444 0.285444
0.293517 0.293517 0.293517
0.301631 0.301631 0.301631
0.309786 0.309786 0.309786
0.317974 0.317974 0.317974
0.326189 0.326189 0.326189
0.334429 0.334429 0.334429
0.342684 0.342684 0.342684
0.350953 0.350953 0.350953
0.359227 0.359227 0.359227
0.367503 0.367503 0.367503
0.375775 0.375775 0.375775
0.384037 0.384037 0.384037
0.392283 0.392283 0.392283
0.400509 0.400509 0.400509
0.408709 0.408709 0.408709
0.416877 0.416877 0.416877
0.425010 0.425010 0.425010
0.433098 0.433098 0.433098
0.441142 0.441142 0.441142
0.449133 0.449133 0.449133
0.464971 0.464971 0.464971
0.480665 0.480665 0.480665
0.496192 0.496192 0.496192
0.511524 0.511524 0.511524
0.526816 0.526816 0.526816
0.542324 0.542324 0.542324
0.558012 0.558012 0.558012
0.573838 0.573838 0.573838
0.269454 0.269454 0.269454
0.277422 0.277422 0.277422
0.285444 0.285444 0.285444
0.293517 0.293517 0.293517
0.301631 0.301631 0.301631
0.309786 0.309786 0.309786
0.317974 0.317974 0.317974
0.326189 0.326189 0.326189
0.334429 0.334429 0.334429
0.342684 0.342684 0.342684
0.350953 0.350953 0.350953
0.359227 0.359227 0.359227
0.367503 0.367503 0.367503
0.375775 0.375775 0.375775
0.384037 0.384037 0.384037
0.392283 0.392283 0.392283
0.400509 0.400509 0.400509
0.408709 0.408709 0.408709
0.416877 0.416877 0.416877
0.425010 0.425010 0.425010
0.433098 0.433098 0.433098
0.441142 0.441142 0.441142
0.449133 0.449133 0.449133
0.457070 0.457070 0.457070
0.464971 0.464971 0.464971
0.472835 0.472835 0.472835
0.488451 0.488451 0.488451
0.503886 0.503886 0.503886
0.519143 0.519143 0.519143
0.534545 0.534545 0.534545
0.550150 0.550150 0.550150
0.565911 0.565911 0.565911
0.581799 0.581799 0.581799
0.285444 0.285444 0.285444
0.293517 0.293517 0.293517
0.301631 0.301631 0.301631
0.309786 0.309786 0.309786
0.317974 0.317974 0.317974
0.326189 0.326189 0.326189
0.334429 0.334429 0.334429
0.342684 0.342684 0.342684
0.350953 0.350953 0.350953
0.359227 0.359227 0.359227
0.367503 0.367503 0.367503
0.375775 0.375775 0.375775
0.384037 0.384037 0.384037
0.392283 0.392283 0.392283
0.400509 0.400509 0.400509
0.408709 0.408709 0.408709
0.416877 0.416877 0.416877
0.425010 0.425010 0.425010
0.433098 0.433098 0.433098
0.441142 0.441142 0.441142
0.449133 0.449133 0.449133
0.457070 0.457070 0.457070
