ricette/lut/Incisa-100-33.cube
# LUT generata da Camera Oscura BN
# Ricetta: Incisa 100
# Pellicola: delta100
# Nota: grana, vignetta e interventi locali non sono inclusi nella LUT.
TITLE "Incisa 100"
LUT_3D_SIZE 9
DOMAIN_MIN 0.0 0.0 0.0
DOMAIN_MAX 1.0 1.0 1.0
0.000000 0.000000 0.000000
0.027632 0.027632 0.027632
0.058005 0.058005 0.058005
0.094650 0.094650 0.094650
0.140259 0.140259 0.140259
0.193763 0.193763 0.193763
0.253699 0.253699 0.253699
0.317974 0.317974 0.317974
0.384037 0.384037 0.384037
0.027632 0.027632 0.027632
0.042294 0.042294 0.042294
0.075252 0.075252 0.075252
0.116410 0.116410 0.116410
0.166102 0.166102 0.166102
0.223042 0.223042 0.223042
0.285444 0.285444 0.285444
0.350953 0.350953 0.350953
0.416877 0.416877 0.416877
0.058005 0.058005 0.058005
0.075252 0.075252 0.075252
0.094650 0.094650 0.094650
0.140259 0.140259 0.140259
0.193763 0.193763 0.193763
0.253699 0.253699 0.253699
0.317974 0.317974 0.317974
0.384037 0.384037 0.384037
0.449133 0.449133 0.449133
0.094650 0.094650 0.094650
0.116410 0.116410 0.116410
0.140259 0.140259 0.140259
0.166102 0.166102 0.166102
0.223042 0.223042 0.223042
0.285444 0.285444 0.285444
0.350953 0.350953 0.350953
0.416877 0.416877 0.416877
0.480665 0.480665 0.480665
0.140259 0.140259 0.140259
0.166102 0.166102 0.166102
0.193763 0.193763 0.193763
0.223042 0.223042 0.223042
0.253699 0.253699 0.253699
0.317974 0.317974 0.317974
0.384037 0.384037 0.384037
0.449133 0.449133 0.449133
0.511524 0.511524 0.511524
0.193763 0.193763 0.193763
0.223042 0.223042 0.223042
0.253699 0.253699 0.253699
0.285444 0.285444 0.285444
0.317974 0.317974 0.317974
0.350953 0.350953 0.350953
0.416877 0.416877 0.416877
0.480665 0.480665 0.480665
0.542324 0.542324 0.542324
0.253699 0.253699 0.253699
0.285444 0.285444 0.285444
0.317974 0.317974 0.317974
0.350953 0.350953 0.350953
0.384037 0.384037 0.384037
0.416877 0.416877 0.416877
0.449133 0.449133 0.449133
0.511524 0.511524 0.511524
0.573838 0.573838 0.573838
0.317974 0.317974 0.317974
0.350953 0.350953 0.350953
0.384037 0.384037 0.384037
0.416877 0.416877 0.416877
0.449133 0.449133 0.449133
0.480665 0.480665 0.480665
0.511524 0.511524 0.511524
0.542324 0.542324 0.542324
0.605822 0.605822 0.605822
0.384037 0.384037 0.384037
0.416877 0.416877 0.416877
0.449133 0.449133 0.449133
0.480665 0.480665 0.480665
0.511524 0.511524 0.511524
0.542324 0.542324 0.542324
0.573838 0.573838 0.573838
0.605822 0.605822 0.605822
0.637941 0.637941 0.637941
0.013628 0.013628 0.013628
0.058005 0.058005 0.058005
0.094650 0.094650 0.094650
0.140259 0.140259 0.140259
0.193763 0.193763 0.193763
0.253699 0.253699 0.253699
0.317974 0.317974 0.317974
0.384037 0.384037 0.384037
0.449133 0.449133 0.449133
0.042294 0.042294 0.042294
0.075252 0.075252 0.075252
0.116410 0.116410 0.116410
0.166102 0.166102 0.166102
0.223042 0.223042 0.223042
0.285444 0.285444 0.285444
0.350953 0.350953 0.350953
0.416877 0.416877 0.416877
0.480665 0.480665 0.480665
0.075252 0.075252 0.075252
0.116410 0.116410 0.116410
0.140259 0.140259 0.140259
0.193763 0.193763 0.193763
0.253699 0.253699 0.253699
0.317974 0.317974 0.317974
0.384037 0.384037 0.384037
0.449133 0.449133 0.449133
0.511524 0.511524 0.511524
0.116410 0.116410 0.116410
0.166102 0.166102 0.166102
0.193763 0.193763 0.193763
0.223042 0.223042 0.223042
0.285444 0.285444 0.285444
0.350953 0.350953 0.350953
0.416877 0.416877 0.416877
0.480665 0.480665 0.480665
0.542324 0.542324 0.542324
0.166102 0.166102 0.166102
0.223042 0.223042 0.223042
0.253699 0.253699 0.253699
0.285444 0.285444 0.285444
0.317974 0.317974 0.317974
0.384037 0.384037 0.384037
0.449133 0.449133 0.449133
0.511524 0.511524 0.511524
0.573838 0.573838 0.573838
0.223042 0.223042 0.223042
0.285444 0.285444 0.285444
0.317974 0.317974 0.317974
0.350953 0.350953 0.350953
0.384037 0.384037 0.384037
0.416877 0.416877 0.416877
0.480665 0.480665 0.480665
0.542324 0.542324 0.542324
0.605822 0.605822 0.605822
0.285444 0.285444 0.285444
0.350953 0.350953 0.350953
0.384037 0.384037 0.384037
0.416877 0.416877 0.416877
0.449133 0.449133 0.449133
0.480665 0.480665 0.480665
0.511524 0.511524 0.511524
0.573838 0.573838 0.573838
0.637941 0.637941 0.637941
0.350953 0.350953 0.350953
0.416877 0.416877 0.416877
0.449133 0.449133 0.449133
0.480665 0.480665 0.480665
0.511524 0.511524 0.511524
0.542324 0.542324 0.542324
0.573838 0.573838 0.573838
0.605822 0.605822 0.605822
0.669776 0.669776 0.669776
0.416877 0.416877 0.416877
0.480665 0.480665 0.480665
0.511524 0.511524 0.511524
0.542324 0.542324 0.542324
0.573838 0.573838 0.573838
0.605822 0.605822 0.605822
0.637941 0.637941 0.637941
0.669776 0.669776 0.669776
0.700917 0.700917 0.700917
0.027632 0.027632 0.027632
0.075252 0.075252 0.075252
0.140259 0.140259 0.140259
0.193763 0.193763 0.193763
0.253699 0.253699 0.253699
0.317974 0.317974 0.317974
0.384037 0.384037 0.384037
0.449133 0.449133 0.449133
0.511524 0.511524 0.511524
0.058005 0.058005 0.058005
0.094650 0.094650 0.094650
0.166102 0.166102 0.166102
0.223042 0.223042 0.223042
0.285444 0.285444 0.285444
0.350953 0.350953 0.350953
0.416877 0.416877 0.416877
0.480665 0.480665 0.480665
0.542324 0.542324 0.542324
0.094650 0.094650 0.094650
0.140259 0.140259 0.140259
0.193763 0.193763 0.193763
0.253699 0.253699 0.253699
0.317974 0.317974 0.317974
0.384037 0.384037 0.384037
0.449133 0.449133 0.449133
0.511524 0.511524 0.511524
0.573838 0.573838 0.573838
0.140259 0.140259 0.140259
0.193763 0.193763 0.193763
0.253699 0.253699 0.253699
0.285444 0.285444 0.285444
0.350953 0.350953 0.350953
0.416877 0.416877 0.416877
0.480665 0.480665 0.480665
0.542324 0.542324 0.542324
0.605822 0.605822 0.605822
0.193763 0.193763 0.193763
0.253699 0.253699 0.253699
0.317974 0.317974 0.317974
0.350953 0.350953 0.350953
0.384037 0.384037 0.384037
0.449133 0.449133 0.449133
0.511524 0.511524 0.511524
0.573838 0.573838 0.573838
0.637941 0.637941 0.637941
0.253699 0.253699 0.253699
0.317974 0.317974 0.317974
0.384037 0.384037 0.384037
0.416877 0.416877 0.416877
0.449133 0.449133 0.449133
0.480665 0.480665 0.480665
0.542324 0.542324 0.542324
0.605822 0.605822 0.605822
0.669776 0.669776 0.669776
0.317974 0.317974 0.317974
0.384037 0.384037 0.384037
0.449133 0.449133 0.449133
0.480665 0.480665 0.480665
0.511524 0.511524 0.511524
0.542324 0.542324 0.542324
0.573838 0.573838 0.573838
0.637941 0.637941 0.637941
0.700917 0.700917 0.700917
0.384037 0.384037 0.384037
0.449133 0.449133 0.449133
0.511524 0.511524 0.511524
0.542324 0.542324 0.542324
0.573838 0.573838 0.573838
0.605822 0.605822 0.605822
0.637941 0.637941 0.637941
0.669776 0.669776 0.669776
0.730965 0.730965 0.730965
0.449133 0.449133 0.449133
0.511524 0.511524 0.511524
0.573838 0.573838 0.573838
0.605822 0.605822 0.605822
0.637941 0.637941 0.637941
0.669776 0.669776 0.669776
0.700917 0.700917 0.700917
0.730965 0.730965 0.730965
0.759535 0.759535 0.759535
0.042294 0.042294 0.042294
0.094650 0.094650 0.094650
0.166102 0.166102 0.166102
0.253699 0.253699 0.253699
0.317974 0.317974 0.317974
0.384037 0.384037 0.384037
0.449133 0.449133 0.449133
0.511524 0.511524 0.511524
0.573838 0.573838 0.573838
0.075252 0.075252 0.075252
0.116410 0.116410 0.116410
0.193763 0.193763 0.193763
0.285444 0.285444 0.285444
0.350953 0.350953 0.350953
0.416877 0.416877 0.416877
0.480665 0.480665 0.480665
0.542324 0.542324 0.542324
0.605822 0.605822 0.605822
0.116410 0.116410 0.116410
0.166102 0.166102 0.166102
0.223042 0.223042 0.223042
0.317974 0.317974 0.317974
0.384037 0.384037 0.384037
0.449133 0.449133 0.449133
0.511524 0.511524 0.511524
0.573838 0.573838 0.573838
0.637941 0.637941 0.637941
0.166102 0.166102 0.166102
0.223042 0.223042 0.223042
0.285444 0.285444 0.285444
0.350953 0.350953 0.350953
0.416877 0.416877 0.416877
0.480665 0.480665 0.480665
0.542324 0.542324 0.542324
0.605822 0.605822 0.605822
0.669776 0.669776 0.669776
0.223042 0.223042 0.223042
0.285444 0.285444 0.285444
0.350953 0.350953 0.350953
0.416877 0.416877 0.416877
0.449133 0.449133 0.449133
0.511524 0.511524 0.511524
0.573838 0.573838 0.573838
0.637941 0.637941 0.637941
0.700917 0.700917 0.700917
0.285444 0.285444 0.285444
0.350953 0.350953 0.350953
0.416877 0.416877 0.416877
0.480665 0.480665 0.480665
0.511524 0.511524 0.511524
0.542324 0.542324 0.542324
0.605822 0.605822 0.605822
0.669776 0.669776 0.669776
0.730965 0.730965 0.730965
0.350953 0.350953 0.350953
0.416877 0.416877 0.416877
0.480665 0.480665 0.480665
0.542324 0.542324 0.542324
0.573838 0.573838 0.573838
0.605822 0.605822 0.605822
0.637941 0.637941 0.637941
0.700917 0.700917 0.700917
0.759535 0.759535 0.759535
0.416877 0.416877 0.416877
0.480665 0.480665 0.480665
0.542324 0.542324 0.542324
0.605822 0.605822 0.605822
0.637941 0.637941 0.637941
0.669776 0.669776 0.669776
0.700917 0.700917 0.700917
0.730965 0.730965 0.730965
0.786288 0.786288 0.786288
0.480665 0.480665 0.480665
0.542324 0.542324 0.542324
0.605822 0.605822 0.605822
0.669776 0.669776 0.669776
0.700917 0.700917 0.700917
0.730965 0.730965 0.730965
0.759535 0.759535 0.759535
0.786288 0.786288 0.786288
0.811014 0.811014 0.811014
0.058005 0.058005 0.058005
0.116410 0.116410 0.116410
0.193763 0.193763 0.193763
0.285444 0.285444 0.285444
0.384037 0.384037 0.384037
0.449133 0.449133 0.449133
0.511524 0.511524 0.511524
0.573838 0.573838 0.573838
0.637941 0.637941 0.637941
0.094650 0.094650 0.094650
0.140259 0.140259 0.140259
0.223042 0.223042 0.223042
0.317974 0.317974 0.317974
0.416877 0.416877 0.416877
0.480665 0.480665 0.480665
0.542324 0.542324 0.542324
0.605822 0.605822 0.605822
0.669776 0.669776 0.669776
0.140259 0.140259 0.140259
0.193763 0.193763 0.193763
0.253699 0.253699 0.253699
0.350953 0.350953 0.350953
0.449133 0.449133 0.449133
0.511524 0.511524 0.511524
0.573838 0.573838 0.573838
0.637941 0.637941 0.637941
0.700917 0.700917 0.700917
0.193763 0.193763 0.193763
0.253699 0.253699 0.253699
0.317974 0.317974 0.317974
0.384037 0.384037 0.384037
0.480665 0.480665 0.480665
0.542324 0.542324 0.542324
0.605822 0.605822 0.605822
0.669776 0.669776 0.669776
0.730965 0.730965 0.730965
0.253699 0.253699 0.253699
0.317974 0.317974 0.317974
0.384037 0.384037 0.384037
0.449133 0.449133 0.449133
0.511524 0.511524 0.511524
0.573838 0.573838 0.573838
0.637941 0.637941 0.637941
0.700917 0.700917 0.700917
0.759535 0.759535 0.759535
0.317974 0.317974 0.317974
0.384037 0.384037 0.384037
0.449133 0.449133 0.449133
0.511524 0.511524 0.511524
0.573838 0.573838 0.573838
0.605822 0.605822 0.605822
0.669776 0.669776 0.669776
0.730965 0.730965 0.730965
0.786288 0.786288 0.786288
0.384037 0.384037 0.384037
0.449133 0.449133 0.449133
0.511524 0.511524 0.511524
0.573838 0.573838 0.573838
0.637941 0.637941 0.637941
0.669776 0.669776 0.669776
0.700917 0.700917 0.700917
0.759535 0.759535 0.759535
0.811014 0.811014 0.811014
0.449133 0.449133 0.449133
0.511524 0.511524 0.511524
0.573838 0.573838 0.573838
0.637941 0.637941 0.637941
0.700917 0.700917 0.700917
0.730965 0.730965 0.730965
0.759535 0.759535 0.759535
0.786288 0.786288 0.786288
0.834103 0.834103 0.834103
0.511524 0.511524 0.511524
0.573838 0.573838 0.573838
0.637941 0.637941 0.637941
0.700917 0.700917 0.700917
0.759535 0.759535 0.759535
0.786288 0.786288 0.786288
0.811014 0.811014 0.811014
0.834103 0.834103 0.834103
0.855809 0.855809 0.855809
0.075252 0.075252 0.075252
0.140259 0.140259 0.140259
0.223042 0.223042 0.223042
0.317974 0.317974 0.317974
0.416877 0.416877 0.416877
0.511524 0.511524 0.511524
0.573838 0.573838 0.573838
0.637941 0.637941 0.637941
0.700917 0.700917 0.700917
0.116410 0.116410 0.116410
0.166102 0.166102 0.166102
0.253699 0.253699 0.253699
0.350953 0.350953 0.350953
0.449133 0.449133 0.449133
0.542324 0.542324 0.542324
0.605822 0.605822 0.605822
0.669776 0.669776 0.669776
0.730965 0.730965 0.730965
0.166102 0.166102 0.166102
0.223042 0.223042 0.223042
0.285444 0.285444 0.285444
0.384037 0.384037 0.384037
0.480665 0.480665 0.480665
0.573838 0.573838 0.573838
0.637941 0.637941 0.637941
0.700917 0.700917 0.700917
0.759535 0.759535 0.759535
0.223042 0.223042 0.223042
0.285444 0.285444 0.285444
0.350953 0.350953 0.350953
0.416877 0.416877 0.416877
0.511524 0.511524 0.511524
0.605822 0.605822 0.605822
0.669776 0.669776 0.669776
0.730965 0.730965 0.730965
0.786288 0.786288 0.786288
0.285444 0.285444 0.285444
0.350953 0.350953 0.350953
0.416877 0.416877 0.416877
0.480665 0.480665 0.480665
0.542324 0.542324 0.542324
0.637941 0.637941 0.637941
0.700917 0.700917 0.700917
0.759535 0.759535 0.759535
0.811014 0.811014 0.811014
0.350953 0.350953 0.350953
0.416877 0.416877 0.416877
0.480665 0.480665 0.480665
0.542324 0.542324 0.542324
0.605822 0.605822 0.605822
0.669776 0.669776 0.669776
0.730965 0.730965 0.730965
0.786288 0.786288 0.786288
0.834103 0.834103 0.834103
0.416877 0.416877 0.416877
0.480665 0.480665 0.480665
0.542324 0.542324 0.542324
0.605822 0.605822 0.605822
0.669776 0.669776 0.669776
0.730965 0.730965 0.730965
0.759535 0.759535 0.759535
0.811014 0.811014 0.811014
0.855809 0.855809 0.855809
0.480665 0.480665 0.480665
0.542324 0.542324 0.542324
0.605822 0.605822 0.605822
0.669776 0.669776 0.669776
0.730965 0.730965 0.730965
0.786288 0.786288 0.786288
0.811014 0.811014 0.811014
0.834103 0.834103 0.834103
0.876323 0.876323 0.876323
0.542324 0.542324 0.542324
0.605822 0.605822 0.605822
0.669776 0.669776 0.669776
0.730965 0.730965 0.730965
0.786288 0.786288 0.786288
0.834103 0.834103 0.834103
0.855809 0.855809 0.855809
0.876323 0.876323 0.876323
0.895844 0.895844 0.895844
0.094650 0.094650 0.094650
0.166102 0.166102 0.166102
0.253699 0.253699 0.253699
0.350953 0.350953 0.350953
0.449133 0.449133 0.449133
0.542324 0.542324 0.542324
0.637941 0.637941 0.637941
0.700917 0.700917 0.700917
0.759535 0.759535 0.759535
0.140259 0.140259 0.140259
0.193763 0.193763 0.193763
0.285444 0.285444 0.285444
0.384037 0.384037 0.384037
0.480665 0.480665 0.480665
0.573838 0.573838 0.573838
0.669776 0.669776 0.669776
0.730965 0.730965 0.730965
0.786288 0.786288 0.786288
0.193763 0.193763 0.193763
0.253699 0.253699 0.253699
0.317974 0.317974 0.317974
0.416877 0.416877 0.416877
0.511524 0.511524 0.511524
0.605822 0.605822 0.605822
0.700917 0.700917 0.700917
0.759535 0.759535 0.759535
0.811014 0.811014 0.811014
0.253699 0.253699 0.253699
0.317974 0.317974 0.317974
0.384037 0.384037 0.384037
0.449133 0.449133 0.449133
0.542324 0.542324 0.542324
0.637941 0.637941 0.637941
0.730965 0.730965 0.730965
0.786288 0.786288 0.786288
0.834103 0.834103 0.834103
0.317974 0.317974 0.317974
0.384037 0.384037 0.384037
0.449133 0.449133 0.449133
0.511524 0.511524 0.511524
0.573838 0.573838 0.573838
0.669776 0.669776 0.669776
0.759535 0.759535 0.759535
0.811014 0.811014 0.811014
0.855809 0.855809 0.855809
0.384037 0.384037 0.384037
0.449133 0.449133 0.449133
0.511524 0.511524 0.511524
0.573838 0.573838 0.573838
0.637941 0.637941 0.637941
0.700917 0.700917 0.700917
0.786288 0.786288 0.786288
0.834103 0.834103 0.834103
0.876323 0.876323 0.876323
0.449133 0.449133 0.449133
0.511524 0.511524 0.511524
0.573838 0.573838 0.573838
0.637941 0.637941 0.637941
0.700917 0.700917 0.700917
0.759535 0.759535 0.759535
0.811014 0.811014 0.811014
0.855809 0.855809 0.855809
0.895844 0.895844 0.895844
0.511524 0.511524 0.511524
0.573838 0.573838 0.573838
0.637941 0.637941 0.637941
0.700917 0.700917 0.700917
0.759535 0.759535 0.759535
0.811014 0.811014 0.811014
0.855809 0.855809 0.855809
0.876323 0.876323 0.876323
0.914538 0.914538 0.914538
0.573838 0.573838 0.573838
0.637941 0.637941 0.637941
0.700917 0.700917 0.700917
0.759535 0.759535 0.759535
0.811014 0.811014 0.811014
0.855809 0.855809 0.855809
0.895844 0.895844 0.895844
0.914538 0.914538 0.914538
0.932552 0.932552 0.932552
0.116410 0.116410 0.116410
0.193763 0.193763 0.193763
0.285444 0.285444 0.285444
0.384037 0.384037 0.384037
0.480665 0.480665 0.480665
0.573838 0.573838 0.573838
0.669776 0.669776 0.669776
0.759535 0.759535 0.759535
0.811014 0.811014 0.811014
0.166102 0.166102 0.166102
0.223042 0.223042 0.223042
0.317974 0.317974 0.317974
0.416877 0.416877 0.416877
0.511524 0.511524 0.511524
0.605822 0.605822 0.605822
0.700917 0.700917 0.700917
0.786288 0.786288 0.786288
0.834103 0.834103 0.834103
0.223042 0.223042 0.223042
0.285444 0.285444 0.285444
0.350953 0.350953 0.350953
0.449133 0.449133 0.449133
0.542324 0.542324 0.542324
0.637941 0.637941 0.637941
0.730965 0.730965 0.730965
0.811014 0.811014 0.811014
0.855809 0.855809 0.855809
0.285444 0.285444 0.285444
0.350953 0.350953 0.350953
0.416877 0.416877 0.416877
0.480665 0.480665 0.480665
0.573838 0.573838 0.573838
0.669776 0.669776 0.669776
0.759535 0.759535 0.759535
0.834103 0.834103 0.834103
0.876323 0.876323 0.876323
0.350953 0.350953 0.350953
0.416877 0.416877 0.416877
0.480665 0.480665 0.480665
0.542324 0.542324 0.542324
0.605822 0.605822 0.605822
0.700917 0.700917 0.700917
0.786288 0.786288 0.786288
0.855809 0.855809 0.855809
0.895844 0.895844 0.895844
0.416877 0.416877 0.416877
0.480665 0.480665 0.480665
0.542324 0.542324 0.542324
0.605822 0.605822 0.605822
0.669776 0.669776 0.669776
0.730965 0.730965 0.730965
0.811014 0.811014 0.811014
0.876323 0.876323 0.876323
0.914538 0.914538 0.914538
0.480665 0.480665 0.480665
0.542324 0.542324 0.542324
0.605822 0.605822 0.605822
0.669776 0.669776 0.669776
0.730965 0.730965 0.730965
0.786288 0.786288 0.786288
0.834103 0.834103 0.834103
0.895844 0.895844 0.895844
0.932552 0.932552 0.932552
0.542324 0.542324 0.542324
0.605822 0.605822 0.605822
0.669776 0.669776 0.669776
0.730965 0.730965 0.730965
0.786288 0.786288 0.786288
0.834103 0.834103 0.834103
0.876323 0.876323 0.876323
0.914538 0.914538 0.914538
0.950016 0.950016 0.950016
0.605822 0.605822 0.605822
0.669776 0.669776 0.669776
0.730965 0.730965 0.730965
0.786288 0.786288 0.786288
0.834103 0.834103 0.834103
0.876323 0.876323 0.876323
0.914538 0.914538 0.914538
0.950016 0.950016 0.950016
0.967028 0.967028 0.967028
0.140259 0.140259 0.140259
0.223042 0.223042 0.223042
0.317974 0.317974 0.317974
0.416877 0.416877 0.416877
0.511524 0.511524 0.511524
0.605822 0.605822 0.605822
0.700917 0.700917 0.700917
0.786288 0.786288 0.786288
0.855809 0.855809 0.855809
0.193763 0.193763 0.193763
0.253699 0.253699 0.253699
0.350953 0.350953 0.350953
0.449133 0.449133 0.449133
0.542324 0.542324 0.542324
0.637941 0.637941 0.637941
0.730965 0.730965 0.730965
0.811014 0.811014 0.811014
0.876323 0.876323 0.876323
0.253699 0.253699 0.253699
0.317974 0.317974 0.317974
0.384037 0.384037 0.384037
0.480665 0.480665 0.480665
0.573838 0.573838 0.573838
0.669776 0.669776 0.669776
0.759535 0.759535 0.759535
0.834103 0.834103 0.834103
0.895844 0.895844 0.895844
0.317974 0.317974 0.317974
0.384037 0.384037 0.384037
0.449133 0.449133 0.449133
0.511524 0.511524 0.511524
0.605822 0.605822 0.605822
0.700917 0.700917 0.700917
0.786288 0.786288 0.786288
0.855809 0.855809 0.855809
0.914538 0.914538 0.914538
0.384037 0.384037 0.384037
0.449133 0.449133 0.449133
0.511524 0.511524 0.511524
0.573838 0.573838 0.573838
0.637941 0.637941 0.637941
0.730965 0.730965 0.730965
0.811014 0.811014 0.811014
0.876323 0.876323 0.876323
0.932552 0.932552 0.932552
0.449133 0.449133 0.449133
0.511524 0.511524 0.511524
0.573838 0.573838 0.573838
0.637941 0.637941 0.637941
0.700917 0.700917 0.700917
0.759535 0.759535 0.759535
0.834103 0.834103 0.834103
0.895844 0.895844 0.895844
0.950016 0.950016 0.950016
0.511524 0.511524 0.511524
0.573838 0.573838 0.573838
0.637941 0.637941 0.637941
0.700917 0.700917 0.700917
0.759535 0.759535 0.759535
0.811014 0.811014 0.811014
0.855809 0.855809 0.855809
0.914538 0.914538 0.914538
0.967028 0.967028 0.967028
0.573838 0.573838 0.573838
0.637941 0.637941 0.637941
0.700917 0.700917 0.700917
0.759535 0.759535 0.759535
0.811014 0.811014 0.811014
0.855809 0.855809 0.855809
0.895844 0.895844 0.895844
0.932552 0.932552 0.932552
0.983670 0.983670 0.983670
0.637941 0.637941 0.637941
0.700917 0.700917 0.700917
0.759535 0.759535 0.759535
0.811014 0.811014 0.811014
0.855809 0.855809 0.855809
0.895844 0.895844 0.895844
0.932552 0.932552 0.932552
0.967028 0.967028 0.967028
1.000000 1.000000 1.000000
