ricette/lut/Infrarosso-400-33.cube
# LUT generata da Camera Oscura BN
# Ricetta: Infrarosso 400
# Pellicola: rolleiIR
# Nota: grana, vignetta e interventi locali non sono inclusi nella LUT.
TITLE "Infrarosso 400"
LUT_3D_SIZE 9
DOMAIN_MIN 0.0 0.0 0.0
DOMAIN_MAX 1.0 1.0 1.0
0.007843 0.007843 0.007843
0.139785 0.139785 0.139785
0.405263 0.405263 0.405263
0.700941 0.700941 0.700941
0.912023 0.912023 0.912023
1.000000 1.000000 1.000000
1.000000 1.000000 1.000000
1.000000 1.000000 1.000000
1.000000 1.000000 1.000000
0.149779 0.149779 0.149779
0.165829 0.165829 0.165829
0.441181 0.441181 0.441181
0.737859 0.737859 0.737859
0.926639 0.926639 0.926639
1.000000 1.000000 1.000000
1.000000 1.000000 1.000000
1.000000 1.000000 1.000000
1.000000 1.000000 1.000000
0.433675 0.433675 0.433675
0.455216 0.455216 0.455216
0.476474 0.476474 0.476474
0.772543 0.772543 0.772543
0.940191 0.940191 0.940191
1.000000 1.000000 1.000000
1.000000 1.000000 1.000000
1.000000 1.000000 1.000000
1.000000 1.000000 1.000000
0.744475 0.744475 0.744475
0.765496 0.765496 0.765496
0.785405 0.785405 0.785405
0.803992 0.803992 0.803992
0.952903 0.952903 0.952903
1.000000 1.000000 1.000000
1.000000 1.000000 1.000000
1.000000 1.000000 1.000000
1.000000 1.000000 1.000000
0.934612 0.934612 0.934612
0.942599 0.942599 0.942599
0.950294 0.950294 0.950294
0.957735 0.957735 0.957735
0.964956 0.964956 0.964956
1.000000 1.000000 1.000000
1.000000 1.000000 1.000000
1.000000 1.000000 1.000000
1.000000 1.000000 1.000000
1.000000 1.000000 1.000000
1.000000 1.000000 1.000000
1.000000 1.000000 1.000000
1.000000 1.000000 1.000000
1.000000 1.000000 1.000000
1.000000 1.000000 1.000000
1.000000 1.000000 1.000000
1.000000 1.000000 1.000000
1.000000 1.000000 1.000000
1.000000 1.000000 1.000000
1.000000 1.000000 1.000000
1.000000 1.000000 1.000000
1.000000 1.000000 1.000000
1.000000 1.000000 1.000000
1.000000 1.000000 1.000000
1.000000 1.000000 1.000000
1.000000 1.000000 1.000000
1.000000 1.000000 1.000000
1.000000 1.000000 1.000000
1.000000 1.000000 1.000000
1.000000 1.000000 1.000000
1.000000 1.000000 1.000000
1.000000 1.000000 1.000000
1.000000 1.000000 1.000000
1.000000 1.000000 1.000000
1.000000 1.000000 1.000000
1.000000 1.000000 1.000000
1.000000 1.000000 1.000000
1.000000 1.000000 1.000000
1.000000 1.000000 1.000000
1.000000 1.000000 1.000000
1.000000 1.000000 1.000000
1.000000 1.000000 1.000000
1.000000 1.000000 1.000000
1.000000 1.000000 1.000000
1.000000 1.000000 1.000000
0.007843 0.007843 0.007843
0.052569 0.052569 0.052569
0.243602 0.243602 0.243602
0.530986 0.530986 0.530986
0.820645 0.820645 0.820645
0.960086 0.960086 0.960086
1.000000 1.000000 1.000000
1.000000 1.000000 1.000000
1.000000 1.000000 1.000000
0.007843 0.007843 0.007843
0.073711 0.073711 0.073711
0.290947 0.290947 0.290947
0.580131 0.580131 0.580131
0.854253 0.854253 0.854253
0.976470 0.976470 0.976470
1.000000 1.000000 1.000000
1.000000 1.000000 1.000000
1.000000 1.000000 1.000000
0.109141 0.109141 0.109141
0.304668 0.304668 0.304668
0.325977 0.325977 0.325977
0.616987 0.616987 0.616987
0.874502 0.874502 0.874502
0.987517 0.987517 0.987517
1.000000 1.000000 1.000000
1.000000 1.000000 1.000000
1.000000 1.000000 1.000000
0.371671 0.371671 0.371671
0.609125 0.609125 0.609125
0.631918 0.631918 0.631918
0.655009 0.655009 0.655009
0.892572 0.892572 0.892572
0.998134 0.998134 0.998134
1.000000 1.000000 1.000000
1.000000 1.000000 1.000000
1.000000 1.000000 1.000000
0.680640 0.680640 0.680640
0.877995 0.877995 0.877995
0.888939 0.888939 0.888939
0.899204 0.899204 0.899204
0.908871 0.908871 0.908871
1.000000 1.000000 1.000000
1.000000 1.000000 1.000000
1.000000 1.000000 1.000000
1.000000 1.000000 1.000000
0.909874 0.909874 0.909874
0.993727 0.993727 0.993727
1.000000 1.000000 1.000000
1.000000 1.000000 1.000000
1.000000 1.000000 1.000000
1.000000 1.000000 1.000000
1.000000 1.000000 1.000000
1.000000 1.000000 1.000000
1.000000 1.000000 1.000000
1.000000 1.000000 1.000000
1.000000 1.000000 1.000000
1.000000 1.000000 1.000000
1.000000 1.000000 1.000000
1.000000 1.000000 1.000000
1.000000 1.000000 1.000000
1.000000 1.000000 1.000000
1.000000 1.000000 1.000000
1.000000 1.000000 1.000000
1.000000 1.000000 1.000000
1.000000 1.000000 1.000000
1.000000 1.000000 1.000000
1.000000 1.000000 1.000000
1.000000 1.000000 1.000000
1.000000 1.000000 1.000000
1.000000 1.000000 1.000000
1.000000 1.000000 1.000000
1.000000 1.000000 1.000000
1.000000 1.000000 1.000000
1.000000 1.000000 1.000000
1.000000 1.000000 1.000000
1.000000 1.000000 1.000000
1.000000 1.000000 1.000000
1.000000 1.000000 1.000000
1.000000 1.000000 1.000000
1.000000 1.000000 1.000000
1.000000 1.000000 1.000000
0.007843 0.007843 0.007843
0.009728 0.009728 0.009728
0.115683 0.115683 0.115683
0.368243 0.368243 0.368243
0.661901 0.661901 0.661901
0.895626 0.895626 0.895626
1.000000 1.000000 1.000000
1.000000 1.000000 1.000000
1.000000 1.000000 1.000000
0.007843 0.007843 0.007843
0.026569 0.026569 0.026569
0.149523 0.149523 0.149523
0.419139 0.419139 0.419139
0.715350 0.715350 0.715350
0.917794 0.917794 0.917794
1.000000 1.000000 1.000000
1.000000 1.000000 1.000000
1.000000 1.000000 1.000000
0.007843 0.007843 0.007843
0.048332 0.048332 0.048332
0.188212 0.188212 0.188212
0.469305 0.469305 0.469305
0.765665 0.765665 0.765665
0.937486 0.937486 0.937486
1.000000 1.000000 1.000000
1.000000 1.000000 1.000000
1.000000 1.000000 1.000000
0.076356 0.076356 0.076356
0.246373 0.246373 0.246373
0.483096 0.483096 0.483096
0.504009 0.504009 0.504009
0.797849 0.797849 0.797849
0.950357 0.950357 0.950357
1.000000 1.000000 1.000000
1.000000 1.000000 1.000000
1.000000 1.000000 1.000000
0.310271 0.310271 0.310271
0.547255 0.547255 0.547255
0.791389 0.791389 0.791389
0.809515 0.809515 0.809515
0.826069 0.826069 0.826069
0.962532 0.962532 0.962532
1.000000 1.000000 1.000000
1.000000 1.000000 1.000000
1.000000 1.000000 1.000000
0.615111 0.615111 0.615111
0.842377 0.842377 0.842377
0.952656 0.952656 0.952656
0.960026 0.960026 0.960026
0.967183 0.967183 0.967183
0.974149 0.974149 0.974149
1.000000 1.000000 1.000000
1.000000 1.000000 1.000000
1.000000 1.000000 1.000000
0.880960 0.880960 0.880960
0.974887 0.974887 0.974887
1.000000 1.000000 1.000000
1.000000 1.000000 1.000000
1.000000 1.000000 1.000000
1.000000 1.000000 1.000000
1.000000 1.000000 1.000000
1.000000 1.000000 1.000000
1.000000 1.000000 1.000000
0.995415 0.995415 0.995415
1.000000 1.000000 1.000000
1.000000 1.000000 1.000000
1.000000 1.000000 1.000000
1.000000 1.000000 1.000000
1.000000 1.000000 1.000000
1.000000 1.000000 1.000000
1.000000 1.000000 1.000000
1.000000 1.000000 1.000000
1.000000 1.000000 1.000000
1.000000 1.000000 1.000000
1.000000 1.000000 1.000000
1.000000 1.000000 1.000000
1.000000 1.000000 1.000000
1.000000 1.000000 1.000000
1.000000 1.000000 1.000000
1.000000 1.000000 1.000000
1.000000 1.000000 1.000000
0.007843 0.007843 0.007843
0.007843 0.007843 0.007843
0.054804 0.054804 0.054804
0.211204 0.211204 0.211204
0.496095 0.496095 0.496095
0.790767 0.790767 0.790767
0.947462 0.947462 0.947462
1.000000 1.000000 1.000000
1.000000 1.000000 1.000000
0.007843 0.007843 0.007843
0.007843 0.007843 0.007843
0.076356 0.076356 0.076356
0.256243 0.256243 0.256243
0.543989 0.543989 0.543989
0.830658 0.830658 0.830658
0.964661 0.964661 0.964661
1.000000 1.000000 1.000000
1.000000 1.000000 1.000000
0.007843 0.007843 0.007843
0.007843 0.007843 0.007843
0.102629 0.102629 0.102629
0.304319 0.304319 0.304319
0.594143 0.594143 0.594143
0.862333 0.862333 0.862333
0.980775 0.980775 0.980775
1.000000 1.000000 1.000000
1.000000 1.000000 1.000000
0.007843 0.007843 0.007843
0.026448 0.026448 0.026448
0.141652 0.141652 0.141652
0.354381 0.354381 0.354381
0.647165 0.647165 0.647165
0.889026 0.889026 0.889026
0.995992 0.995992 0.995992
1.000000 1.000000 1.000000
1.000000 1.000000 1.000000
0.050504 0.050504 0.050504
0.192887 0.192887 0.192887
0.422195 0.422195 0.422195
0.662284 0.662284 0.662284
0.685404 0.685404 0.685404
0.905654 0.905654 0.905654
1.000000 1.000000 1.000000
1.000000 1.000000 1.000000
1.000000 1.000000 1.000000
0.251619 0.251619 0.251619
0.488654 0.488654 0.488654
0.732981 0.732981 0.732981
0.902298 0.902298 0.902298
0.911795 0.911795 0.911795
0.920794 0.920794 0.920794
1.000000 1.000000 1.000000
1.000000 1.000000 1.000000
1.000000 1.000000 1.000000
0.552792 0.552792 0.552792
0.796324 0.796324 0.796324
0.930255 0.930255 0.930255
1.000000 1.000000 1.000000
1.000000 1.000000 1.000000
1.000000 1.000000 1.000000
1.000000 1.000000 1.000000
1.000000 1.000000 1.000000
1.000000 1.000000 1.000000
0.846010 0.846010 0.846010
0.954627 0.954627 0.954627
1.000000 1.000000 1.000000
1.000000 1.000000 1.000000
1.000000 1.000000 1.000000
1.000000 1.000000 1.000000
1.000000 1.000000 1.000000
1.000000 1.000000 1.000000
1.000000 1.000000 1.000000
0.976695 0.976695 0.976695
1.000000 1.000000 1.000000
1.000000 1.000000 1.000000
1.000000 1.000000 1.000000
1.000000 1.000000 1.000000
1.000000 1.000000 1.000000
1.000000 1.000000 1.000000
1.000000 1.000000 1.000000
1.000000 1.000000 1.000000
0.007843 0.007843 0.007843
0.007843 0.007843 0.007843
0.011616 0.011616 0.011616
0.119267 0.119267 0.119267
0.331484 0.331484 0.331484
0.622826 0.622826 0.622826
0.877436 0.877436 0.877436
0.989191 0.989191 0.989191
1.000000 1.000000 1.000000
0.007843 0.007843 0.007843
0.007843 0.007843 0.007843
0.028523 0.028523 0.028523
0.153677 0.153677 0.153677
0.382143 0.382143 0.382143
0.676632 0.676632 0.676632
0.901976 0.901976 0.901976
1.000000 1.000000 1.000000
1.000000 1.000000 1.000000
0.007843 0.007843 0.007843
0.007843 0.007843 0.007843
0.046455 0.046455 0.046455
0.192887 0.192887 0.192887
0.432959 0.432959 0.432959
0.729529 0.729529 0.729529
0.923383 0.923383 0.923383
1.000000 1.000000 1.000000
1.000000 1.000000 1.000000
0.007843 0.007843 0.007843
0.007843 0.007843 0.007843
0.071283 0.071283 0.071283
0.236329 0.236329 0.236329
0.482748 0.482748 0.482748
0.778473 0.778473 0.778473
0.942535 0.942535 0.942535
1.000000 1.000000 1.000000
1.000000 1.000000 1.000000
0.007843 0.007843 0.007843
0.007843 0.007843 0.007843
0.102425 0.102425 0.102425
0.293540 0.293540 0.293540
0.530986 0.530986 0.530986
0.820645 0.820645 0.820645
0.960086 0.960086 0.960086
1.000000 1.000000 1.000000
1.000000 1.000000 1.000000
0.028401 0.028401 0.028401
0.145684 0.145684 0.145684
0.360136 0.360136 0.360136
0.597268 0.597268 0.597268
0.830907 0.830907 0.830907
0.845225 0.845225 0.845225
0.971808 0.971808 0.971808
1.000000 1.000000 1.000000
1.000000 1.000000 1.000000
0.197616 0.197616 0.197616
0.427941 0.427941 0.427941
0.668410 0.668410 0.668410
0.871903 0.871903 0.871903
0.969390 0.969390 0.969390
0.976301 0.976301 0.976301
0.983041 0.983041 0.983041
1.000000 1.000000 1.000000
1.000000 1.000000 1.000000
0.494193 0.494193 0.494193
0.738757 0.738757 0.738757
0.904861 0.904861 0.904861
0.990319 0.990319 0.990319
1.000000 1.000000 1.000000
1.000000 1.000000 1.000000
1.000000 1.000000 1.000000
1.000000 1.000000 1.000000
1.000000 1.000000 1.000000
0.801160 0.801160 0.801160
0.932446 0.932446 0.932446
1.000000 1.000000 1.000000
1.000000 1.000000 1.000000
1.000000 1.000000 1.000000
1.000000 1.000000 1.000000
1.000000 1.000000 1.000000
1.000000 1.000000 1.000000
1.000000 1.000000 1.000000
0.007843 0.007843 0.007843
0.007843 0.007843 0.007843
0.007843 0.007843 0.007843
0.057075 0.057075 0.057075
0.216132 0.216132 0.216132
0.460339 0.460339 0.460339
0.756934 0.756934 0.756934
0.934075 0.934075 0.934075
1.000000 1.000000 1.000000
0.007843 0.007843 0.007843
0.007843 0.007843 0.007843
0.007843 0.007843 0.007843
0.079061 0.079061 0.079061
0.261564 0.261564 0.261564
0.509318 0.509318 0.509318
0.802503 0.802503 0.802503
0.952285 0.952285 0.952285
1.000000 1.000000 1.000000
0.007843 0.007843 0.007843
0.007843 0.007843 0.007843
0.007843 0.007843 0.007843
0.105958 0.105958 0.105958
0.309921 0.309921 0.309921
0.557331 0.557331 0.557331
0.839952 0.839952 0.839952
0.969159 0.969159 0.969159
1.000000 1.000000 1.000000
0.007843 0.007843 0.007843
0.007843 0.007843 0.007843
0.024749 0.024749 0.024749
0.138174 0.138174 0.138174
0.360136 0.360136 0.360136
0.608379 0.608379 0.608379
0.870051 0.870051 0.870051
0.985016 0.985016 0.985016
1.000000 1.000000 1.000000
0.007843 0.007843 0.007843
0.007843 0.007843 0.007843
0.046322 0.046322 0.046322
0.183879 0.183879 0.183879
0.411034 0.411034 0.411034
0.661901 0.661901 0.661901
0.895626 0.895626 0.895626
1.000000 1.000000 1.000000
1.000000 1.000000 1.000000
0.007843 0.007843 0.007843
0.007843 0.007843 0.007843
0.071124 0.071124 0.071124
0.236008 0.236008 0.236008
0.471930 0.471930 0.471930
0.715350 0.715350 0.715350
0.917794 0.917794 0.917794
1.000000 1.000000 1.000000
1.000000 1.000000 1.000000
0.007843 0.007843 0.007843
0.105749 0.105749 0.105749
0.299090 0.299090 0.299090
0.536359 0.536359 0.536359
0.781229 0.781229 0.781229
0.923526 0.923526 0.923526
0.931971 0.931971 0.931971
1.000000 1.000000 1.000000
1.000000 1.000000 1.000000
0.149779 0.149779 0.149779
0.365900 0.365900 0.365900
0.603176 0.603176 0.603176
0.834849 0.834849 0.834849
0.948662 0.948662 0.948662
1.000000 1.000000 1.000000
1.000000 1.000000 1.000000
1.000000 1.000000 1.000000
1.000000 1.000000 1.000000
0.433675 0.433675 0.433675
0.674530 0.674530 0.674530
0.874977 0.874977 0.874977
0.971234 0.971234 0.971234
1.000000 1.000000 1.000000
1.000000 1.000000 1.000000
1.000000 1.000000 1.000000
1.000000 1.000000 1.000000
1.000000 1.000000 1.000000
0.007843 0.007843 0.007843
0.007843 0.007843 0.007843
0.007843 0.007843 0.007843
0.013508 0.013508 0.013508
0.122917 0.122917 0.122917
0.337186 0.337186 0.337186
0.584842 0.584842 0.584842
0.857021 0.857021 0.857021
0.977932 0.977932 0.977932
0.007843 0.007843 0.007843
0.007843 0.007843 0.007843
0.007843 0.007843 0.007843
0.030489 0.030489 0.030489
0.157893 0.157893 0.157893
0.387924 0.387924 0.387924
0.637434 0.637434 0.637434
0.884503 0.884503 0.884503
0.993304 0.993304 0.993304
0.007843 0.007843 0.007843
0.007843 0.007843 0.007843
0.007843 0.007843 0.007843
0.048602 0.048602 0.048602
0.197616 0.197616 0.197616
0.438681 0.438681 0.438681
0.691295 0.691295 0.691295
0.908089 0.908089 0.908089
1.000000 1.000000 1.000000
0.007843 0.007843 0.007843
0.007843 0.007843 0.007843
0.007843 0.007843 0.007843
0.069060 0.069060 0.069060
0.241492 0.241492 0.241492
0.488307 0.488307 0.488307
0.743409 0.743409 0.743409
0.928803 0.928803 0.928803
1.000000 1.000000 1.000000
0.007843 0.007843 0.007843
0.007843 0.007843 0.007843
0.007843 0.007843 0.007843
0.099568 0.099568 0.099568
0.288706 0.288706 0.288706
0.536359 0.536359 0.536359
0.790767 0.790767 0.790767
0.947462 0.947462 0.947462
1.000000 1.000000 1.000000
0.007843 0.007843 0.007843
0.007843 0.007843 0.007843
0.024627 0.024627 0.024627
0.137929 0.137929 0.137929
0.348995 0.348995 0.348995
0.585933 0.585933 0.585933
0.830658 0.830658 0.830658
0.964661 0.964661 0.964661
1.000000 1.000000 1.000000
0.007843 0.007843 0.007843
0.007843 0.007843 0.007843
0.046190 0.046190 0.046190
0.183593 0.183593 0.183593
0.410674 0.410674 0.410674
0.650034 0.650034 0.650034
0.862333 0.862333 0.862333
0.980775 0.980775 0.980775
1.000000 1.000000 1.000000
0.007843 0.007843 0.007843
0.073711 0.073711 0.073711
0.241169 0.241169 0.241169
0.477521 0.477521 0.477521
0.721273 0.721273 0.721273
0.897050 0.897050 0.897050
0.985125 0.985125 0.985125
0.991656 0.991656 0.991656
1.000000 1.000000 1.000000
0.109141 0.109141 0.109141
0.304668 0.304668 0.304668
0.541777 0.541777 0.541777
0.786356 0.786356 0.786356
0.925796 0.925796 0.925796
1.000000 1.000000 1.000000
1.000000 1.000000 1.000000
1.000000 1.000000 1.000000
1.000000 1.000000 1.000000
0.007843 0.007843 0.007843
0.007843 0.007843 0.007843
0.007843 0.007843 0.007843
0.007843 0.007843 0.007843
0.059384 0.059384 0.059384
0.221110 0.221110 0.221110
0.465970 0.465970 0.465970
0.720168 0.720168 0.720168
0.919700 0.919700 0.919700
0.007843 0.007843 0.007843
0.007843 0.007843 0.007843
0.007843 0.007843 0.007843
0.007843 0.007843 0.007843
0.081831 0.081831 0.081831
0.266923 0.266923 0.266923
0.514774 0.514774 0.514774
0.770045 0.770045 0.770045
0.939204 0.939204 0.939204
0.007843 0.007843 0.007843
0.007843 0.007843 0.007843
0.007843 0.007843 0.007843
0.007843 0.007843 0.007843
0.109353 0.109353 0.109353
0.315546 0.315546 0.315546
0.562963 0.562963 0.562963
0.813633 0.813633 0.813633
0.957007 0.957007 0.957007
0.007843 0.007843 0.007843
0.007843 0.007843 0.007843
0.007843 0.007843 0.007843
0.023058 0.023058 0.023058
0.142150 0.142150 0.142150
0.365900 0.365900 0.365900
0.614361 0.614361 0.614361
0.848692 0.848692 0.848692
0.973579 0.973579 0.973579
0.007843 0.007843 0.007843
0.007843 0.007843 0.007843
0.007843 0.007843 0.007843
0.044469 0.044469 0.044469
0.179879 0.179879 0.179879
0.416799 0.416799 0.416799
0.668027 0.668027 0.668027
0.877436 0.877436 0.877436
0.989191 0.989191 0.989191
0.007843 0.007843 0.007843
0.007843 0.007843 0.007843
0.007843 0.007843 0.007843
0.068903 0.068903 0.068903
0.231528 0.231528 0.231528
0.467024 0.467024 0.467024
0.721273 0.721273 0.721273
0.901976 0.901976 0.901976
1.000000 1.000000 1.000000
0.007843 0.007843 0.007843
0.007843 0.007843 0.007843
0.007843 0.007843 0.007843
0.099368 0.099368 0.099368
0.288362 0.288362 0.288362
0.525947 0.525947 0.525947
0.771044 0.771044 0.771044
0.923383 0.923383 0.923383
1.000000 1.000000 1.000000
0.007843 0.007843 0.007843
0.007843 0.007843 0.007843
0.024507 0.024507 0.024507
0.137684 0.137684 0.137684
0.348636 0.348636 0.348636
0.585569 0.585569 0.585569
0.822648 0.822648 0.822648
0.942535 0.942535 0.942535
1.000000 1.000000 1.000000
0.007843 0.007843 0.007843
0.048332 0.048332 0.048332
0.188212 0.188212 0.188212
0.416439 0.416439 0.416439
0.656157 0.656157 0.656157
0.865583 0.865583 0.865583
0.965661 0.965661 0.965661
1.000000 1.000000 1.000000
1.000000 1.000000 1.000000
0.007843 0.007843 0.007843
0.007843 0.007843 0.007843
0.007843 0.007843 0.007843
0.007843 0.007843 0.007843
0.015405 0.015405 0.015405
0.126633 0.126633 0.126633
0.342904 0.342904 0.342904
0.590670 0.590670 0.590670
0.833884 0.833884 0.833884
0.007843 0.007843 0.007843
0.007843 0.007843 0.007843
0.007843 0.007843 0.007843
0.007843 0.007843 0.007843
0.032470 0.032470 0.032470
0.162170 0.162170 0.162170
0.393706 0.393706 0.393706
0.643536 0.643536 0.643536
0.864981 0.864981 0.864981
0.007843 0.007843 0.007843
0.007843 0.007843 0.007843
0.007843 0.007843 0.007843
0.007843 0.007843 0.007843
0.050777 0.050777 0.050777
0.202399 0.202399 0.202399
0.444387 0.444387 0.444387
0.697354 0.697354 0.697354
0.891287 0.891287 0.891287
0.007843 0.007843 0.007843
0.007843 0.007843 0.007843
0.007843 0.007843 0.007843
0.007843 0.007843 0.007843
0.071603 0.071603 0.071603
0.246699 0.246699 0.246699
0.493847 0.493847 0.493847
0.749076 0.749076 0.749076
0.913995 0.913995 0.913995
0.007843 0.007843 0.007843
0.007843 0.007843 0.007843
0.007843 0.007843 0.007843
0.007843 0.007843 0.007843
0.096765 0.096765 0.096765
0.294231 0.294231 0.294231
0.541777 0.541777 0.541777
0.795715 0.795715 0.795715
0.934075 0.934075 0.934075
0.007843 0.007843 0.007843
0.007843 0.007843 0.007843
0.007843 0.007843 0.007843
0.022937 0.022937 0.022937
0.134503 0.134503 0.134503
0.343977 0.343977 0.343977
0.591767 0.591767 0.591767
0.834608 0.834608 0.834608
0.952285 0.952285 0.952285
0.007843 0.007843 0.007843
0.007843 0.007843 0.007843
0.007843 0.007843 0.007843
0.044337 0.044337 0.044337
0.179596 0.179596 0.179596
0.405624 0.405624 0.405624
0.644682 0.644682 0.644682
0.865583 0.865583 0.865583
0.969159 0.969159 0.969159
0.007843 0.007843 0.007843
0.007843 0.007843 0.007843
0.007843 0.007843 0.007843
0.068747 0.068747 0.068747
0.231210 0.231210 0.231210
0.466672 0.466672 0.466672
0.709759 0.709759 0.709759
0.891801 0.891801 0.891801
0.985016 0.985016 0.985016
0.007843 0.007843 0.007843
0.007843 0.007843 0.007843
0.007843 0.007843 0.007843
0.099168 0.099168 0.099168
0.288018 0.288018 0.288018
0.525610 0.525610 0.525610
0.770711 0.770711 0.770711
0.918897 0.918897 0.918897
1.000000 1.000000 1.000000
