ricette/lut/Infrarosso-400-33.cube
# LUT generata da Camera Oscura BN
# Ricetta: Infrarosso 400
# Pellicola: rolleiIR
# Nota: grana, vignetta e interventi locali non sono inclusi nella LUT.
TITLE "Infrarosso 400"
LUT_3D_SIZE 5
DOMAIN_MIN 0.0 0.0 0.0
DOMAIN_MAX 1.0 1.0 1.0
0.007843 0.007843 0.007843
0.405263 0.405263 0.405263
0.912023 0.912023 0.912023
1.000000 1.000000 1.000000
1.000000 1.000000 1.000000
0.433675 0.433675 0.433675
0.476474 0.476474 0.476474
0.940191 0.940191 0.940191
1.000000 1.000000 1.000000
1.000000 1.000000 1.000000
0.934612 0.934612 0.934612
0.950294 0.950294 0.950294
0.964956 0.964956 0.964956
1.000000 1.000000 1.000000
1.000000 1.000000 1.000000
1.000000 1.000000 1.000000
1.000000 1.000000 1.000000
1.000000 1.000000 1.000000
1.000000 1.000000 1.000000
1.000000 1.000000 1.000000
1.000000 1.000000 1.000000
1.000000 1.000000 1.000000
1.000000 1.000000 1.000000
1.000000 1.000000 1.000000
1.000000 1.000000 1.000000
0.007843 0.007843 0.007843
0.115683 0.115683 0.115683
0.661901 0.661901 0.661901
1.000000 1.000000 1.000000
1.000000 1.000000 1.000000
0.007843 0.007843 0.007843
0.188212 0.188212 0.188212
0.765665 0.765665 0.765665
1.000000 1.000000 1.000000
1.000000 1.000000 1.000000
0.310271 0.310271 0.310271
0.791389 0.791389 0.791389
0.826069 0.826069 0.826069
1.000000 1.000000 1.000000
1.000000 1.000000 1.000000
0.880960 0.880960 0.880960
1.000000 1.000000 1.000000
1.000000 1.000000 1.000000
1.000000 1.000000 1.000000
1.000000 1.000000 1.000000
1.000000 1.000000 1.000000
1.000000 1.000000 1.000000
1.000000 1.000000 1.000000
1.000000 1.000000 1.000000
1.000000 1.000000 1.000000
0.007843 0.007843 0.007843
0.011616 0.011616 0.011616
0.331484 0.331484 0.331484
0.877436 0.877436 0.877436
1.000000 1.000000 1.000000
0.007843 0.007843 0.007843
0.046455 0.046455 0.046455
0.432959 0.432959 0.432959
0.923383 0.923383 0.923383
1.000000 1.000000 1.000000
0.007843 0.007843 0.007843
0.102425 0.102425 0.102425
0.530986 0.530986 0.530986
0.960086 0.960086 0.960086
1.000000 1.000000 1.000000
0.197616 0.197616 0.197616
0.668410 0.668410 0.668410
0.969390 0.969390 0.969390
0.983041 0.983041 0.983041
1.000000 1.000000 1.000000
0.801160 0.801160 0.801160
1.000000 1.000000 1.000000
1.000000 1.000000 1.000000
1.000000 1.000000 1.000000
1.000000 1.000000 1.000000
0.007843 0.007843 0.007843
0.007843 0.007843 0.007843
0.122917 0.122917 0.122917
0.584842 0.584842 0.584842
0.977932 0.977932 0.977932
0.007843 0.007843 0.007843
0.007843 0.007843 0.007843
0.197616 0.197616 0.197616
0.691295 0.691295 0.691295
1.000000 1.000000 1.000000
0.007843 0.007843 0.007843
0.007843 0.007843 0.007843
0.288706 0.288706 0.288706
0.790767 0.790767 0.790767
1.000000 1.000000 1.000000
0.007843 0.007843 0.007843
0.046190 0.046190 0.046190
0.410674 0.410674 0.410674
0.862333 0.862333 0.862333
1.000000 1.000000 1.000000
0.109141 0.109141 0.109141
0.541777 0.541777 0.541777
0.925796 0.925796 0.925796
1.000000 1.000000 1.000000
1.000000 1.000000 1.000000
0.007843 0.007843 0.007843
0.007843 0.007843 0.007843
0.015405 0.015405 0.015405
0.342904 0.342904 0.342904
0.833884 0.833884 0.833884
0.007843 0.007843 0.007843
0.007843 0.007843 0.007843
0.050777 0.050777 0.050777
0.444387 0.444387 0.444387
0.891287 0.891287 0.891287
0.007843 0.007843 0.007843
0.007843 0.007843 0.007843
0.096765 0.096765 0.096765
0.541777 0.541777 0.541777
0.934075 0.934075 0.934075
0.007843 0.007843 0.007843
0.007843 0.007843 0.007843
0.179596 0.179596 0.179596
0.644682 0.644682 0.644682
0.969159 0.969159 0.969159
0.007843 0.007843 0.007843
0.007843 0.007843 0.007843
0.288018 0.288018 0.288018
0.770711 0.770711 0.770711
1.000000 1.000000 1.000000
