ricette/lut/Infrarosso-400-33.cube
# LUT generata da Camera Oscura BN
# Ricetta: Infrarosso 400
# Pellicola: rolleiIR
# Nota: grana, vignetta e interventi locali non sono inclusi nella LUT.
TITLE "Infrarosso 400"
LUT_3D_SIZE 33
DOMAIN_MIN 0.0 0.0 0.0
DOMAIN_MAX 1.0 1.0 1.0
0.007843 0.007843 0.007843
0.032485 0.032485 0.032485
0.059860 0.059860 0.059860
0.094287 0.094287 0.094287
0.139785 0.139785 0.139785
0.195727 0.195727 0.195727
0.260481 0.260481 0.260481
0.331439 0.331439 0.331439
0.405263 0.405263 0.405263
0.478262 0.478262 0.478262
0.548374 0.548374 0.548374
0.622779 0.622779 0.622779
0.700941 0.700941 0.700941
0.774250 0.774250 0.774250
0.833824 0.833824 0.833824
0.877412 0.877412 0.877412
0.912023 0.912023 0.912023
0.940859 0.940859 0.940859
0.966159 0.966159 0.966159
0.989177 0.989177 0.989177
1.000000 1.000000 1.000000
1.000000 1.000000 1.000000
1.000000 1.000000 1.000000
1.000000 1.000000 1.000000
1.000000 1.000000 1.000000
1.000000 1.000000 1.000000
1.000000 1.000000 1.000000
1.000000 1.000000 1.000000
1.000000 1.000000 1.000000
1.000000 1.000000 1.000000
1.000000 1.000000 1.000000
1.000000 1.000000 1.000000
1.000000 1.000000 1.000000
0.033716 0.033716 0.033716
0.035613 0.035613 0.035613
0.063567 0.063567 0.063567
0.099243 0.099243 0.099243
0.146063 0.146063 0.146063
0.203186 0.203186 0.203186
0.268855 0.268855 0.268855
0.340355 0.340355 0.340355
0.414278 0.414278 0.414278
0.486963 0.486963 0.486963
0.557068 0.557068 0.557068
0.632251 0.632251 0.632251
0.710320 0.710320 0.710320
0.782398 0.782398 0.782398
0.839777 0.839777 0.839777
0.882036 0.882036 0.882036
0.915793 0.915793 0.915793
0.944099 0.944099 0.944099
0.969072 0.969072 0.969072
0.991856 0.991856 0.991856
1.000000 1.000000 1.000000
1.000000 1.000000 1.000000
1.000000 1.000000 1.000000
1.000000 1.000000 1.000000
1.000000 1.000000 1.000000
1.000000 1.000000 1.000000
1.000000 1.000000 1.000000
1.000000 1.000000 1.000000
1.000000 1.000000 1.000000
1.000000 1.000000 1.000000
1.000000 1.000000 1.000000
1.000000 1.000000 1.000000
1.000000 1.000000 1.000000
0.062781 0.062781 0.062781
0.065062 0.065062 0.065062
0.067386 0.067386 0.067386
0.104368 0.104368 0.104368
0.152504 0.152504 0.152504
0.210783 0.210783 0.210783
0.277323 0.277323 0.277323
0.349309 0.349309 0.349309
0.423274 0.423274 0.423274
0.495619 0.495619 0.495619
0.565882 0.565882 0.565882
0.641770 0.641770 0.641770
0.719615 0.719615 0.719615
0.790339 0.790339 0.790339
0.845505 0.845505 0.845505
0.886536 0.886536 0.886536
0.919481 0.919481 0.919481
0.947288 0.947288 0.947288
0.971951 0.971951 0.971951
0.994506 0.994506 0.994506
1.000000 1.000000 1.000000
1.000000 1.000000 1.000000
1.000000 1.000000 1.000000
1.000000 1.000000 1.000000
1.000000 1.000000 1.000000
1.000000 1.000000 1.000000
1.000000 1.000000 1.000000
1.000000 1.000000 1.000000
1.000000 1.000000 1.000000
1.000000 1.000000 1.000000
1.000000 1.000000 1.000000
1.000000 1.000000 1.000000
1.000000 1.000000 1.000000
0.100177 0.100177 0.100177
0.103273 0.103273 0.103273
0.106430 0.106430 0.106430
0.109647 0.109647 0.109647
0.159087 0.159087 0.159087
0.218497 0.218497 0.218497
0.285869 0.285869 0.285869
0.358291 0.358291 0.358291
0.432243 0.432243 0.432243
0.504223 0.504223 0.504223
0.574816 0.574816 0.574816
0.651325 0.651325 0.651325
0.728798 0.728798 0.728798
0.798040 0.798040 0.798040
0.851058 0.851058 0.851058
0.890920 0.890920 0.890920
0.923099 0.923099 0.923099
0.950434 0.950434 0.950434
0.974802 0.974802 0.974802
0.997130 0.997130 0.997130
1.000000 1.000000 1.000000
1.000000 1.000000 1.000000
1.000000 1.000000 1.000000
1.000000 1.000000 1.000000
1.000000 1.000000 1.000000
1.000000 1.000000 1.000000
1.000000 1.000000 1.000000
1.000000 1.000000 1.000000
1.000000 1.000000 1.000000
1.000000 1.000000 1.000000
1.000000 1.000000 1.000000
1.000000 1.000000 1.000000
1.000000 1.000000 1.000000
0.149779 0.149779 0.149779
0.153709 0.153709 0.153709
0.157694 0.157694 0.157694
0.161735 0.161735 0.161735
0.165829 0.165829 0.165829
0.226333 0.226333 0.226333
0.294490 0.294490 0.294490
0.367296 0.367296 0.367296
0.441181 0.441181 0.441181
0.512776 0.512776 0.512776
0.583842 0.583842 0.583842
0.660896 0.660896 0.660896
0.737859 0.737859 0.737859
0.805489 0.805489 0.805489
0.856439 0.856439 0.856439
0.895184 0.895184 0.895184
0.926639 0.926639 0.926639
0.953535 0.953535 0.953535
0.977622 0.977622 0.977622
0.999728 0.999728 0.999728
1.000000 1.000000 1.000000
1.000000 1.000000 1.000000
1.000000 1.000000 1.000000
1.000000 1.000000 1.000000
1.000000 1.000000 1.000000
1.000000 1.000000 1.000000
1.000000 1.000000 1.000000
1.000000 1.000000 1.000000
1.000000 1.000000 1.000000
1.000000 1.000000 1.000000
1.000000 1.000000 1.000000
1.000000 1.000000 1.000000
1.000000 1.000000 1.000000
0.210592 0.210592 0.210592
0.215244 0.215244 0.215244
0.219940 0.219940 0.219940
0.224680 0.224680 0.224680
0.229461 0.229461 0.229461
0.234285 0.234285 0.234285
0.303184 0.303184 0.303184
0.376319 0.376319 0.376319
0.450076 0.450076 0.450076
0.521264 0.521264 0.521264
0.592955 0.592955 0.592955
0.670467 0.670467 0.670467
0.746785 0.746785 0.746785
0.812690 0.812690 0.812690
0.861669 0.861669 0.861669
0.899347 0.899347 0.899347
0.930118 0.930118 0.930118
0.956597 0.956597 0.956597
0.980414 0.980414 0.980414
1.000000 1.000000 1.000000
1.000000 1.000000 1.000000
1.000000 1.000000 1.000000
1.000000 1.000000 1.000000
1.000000 1.000000 1.000000
1.000000 1.000000 1.000000
1.000000 1.000000 1.000000
1.000000 1.000000 1.000000
1.000000 1.000000 1.000000
1.000000 1.000000 1.000000
1.000000 1.000000 1.000000
1.000000 1.000000 1.000000
1.000000 1.000000 1.000000
1.000000 1.000000 1.000000
0.280475 0.280475 0.280475
0.285654 0.285654 0.285654
0.290860 0.290860 0.290860
0.296093 0.296093 0.296093
0.301351 0.301351 0.301351
0.306633 0.306633 0.306633
0.311937 0.311937 0.311937
0.385350 0.385350 0.385350
0.458928 0.458928 0.458928
0.529687 0.529687 0.529687
0.602157 0.602157 0.602157
0.680020 0.680020 0.680020
0.755545 0.755545 0.755545
0.819593 0.819593 0.819593
0.866735 0.866735 0.866735
0.903404 0.903404 0.903404
0.933533 0.933533 0.933533
0.959620 0.959620 0.959620
0.983179 0.983179 0.983179
1.000000 1.000000 1.000000
1.000000 1.000000 1.000000
1.000000 1.000000 1.000000
1.000000 1.000000 1.000000
1.000000 1.000000 1.000000
1.000000 1.000000 1.000000
1.000000 1.000000 1.000000
1.000000 1.000000 1.000000
1.000000 1.000000 1.000000
1.000000 1.000000 1.000000
1.000000 1.000000 1.000000
1.000000 1.000000 1.000000
1.000000 1.000000 1.000000
1.000000 1.000000 1.000000
0.356177 0.356177 0.356177
0.361620 0.361620 0.361620
0.367071 0.367071 0.367071
0.372528 0.372528 0.372528
0.377989 0.377989 0.377989
0.383453 0.383453 0.383453
0.388918 0.388918 0.388918
0.394384 0.394384 0.394384
0.467726 0.467726 0.467726
0.538084 0.538084 0.538084
0.611456 0.611456 0.611456
0.689541 0.689541 0.689541
0.764144 0.764144 0.764144
0.826229 0.826229 0.826229
0.871661 0.871661 0.871661
0.907367 0.907367 0.907367
0.936888 0.936888 0.936888
0.962606 0.962606 0.962606
0.985915 0.985915 0.985915
1.000000 1.000000 1.000000
1.000000 1.000000 1.000000
1.000000 1.000000 1.000000
1.000000 1.000000 1.000000
1.000000 1.000000 1.000000
1.000000 1.000000 1.000000
1.000000 1.000000 1.000000
1.000000 1.000000 1.000000
1.000000 1.000000 1.000000
1.000000 1.000000 1.000000
1.000000 1.000000 1.000000
1.000000 1.000000 1.000000
1.000000 1.000000 1.000000
1.000000 1.000000 1.000000
0.433675 0.433675 0.433675
0.439083 0.439083 0.439083
0.444476 0.444476 0.444476
0.449855 0.449855 0.449855
0.455216 0.455216 0.455216
0.460559 0.460559 0.460559
0.465882 0.465882 0.465882
0.471186 0.471186 0.471186
0.476474 0.476474 0.476474
0.546610 0.546610 0.546610
0.620847 0.620847 0.620847
0.699006 0.699006 0.699006
0.772543 0.772543 0.772543
0.832557 0.832557 0.832557
0.876447 0.876447 0.876447
0.911241 0.911241 0.911241
0.940191 0.940191 0.940191
0.965559 0.965559 0.965559
0.988626 0.988626 0.988626
1.000000 1.000000 1.000000
1.000000 1.000000 1.000000
1.000000 1.000000 1.000000
1.000000 1.000000 1.000000
1.000000 1.000000 1.000000
1.000000 1.000000 1.000000
1.000000 1.000000 1.000000
1.000000 1.000000 1.000000
1.000000 1.000000 1.000000
1.000000 1.000000 1.000000
1.000000 1.000000 1.000000
1.000000 1.000000 1.000000
1.000000 1.000000 1.000000
1.000000 1.000000 1.000000
0.508976 0.508976 0.508976
0.514137 0.514137 0.514137
0.519275 0.519275 0.519275
0.524389 0.524389 0.524389
0.529478 0.529478 0.529478
0.534550 0.534550 0.534550
0.539649 0.539649 0.539649
0.544804 0.544804 0.544804
0.550012 0.550012 0.550012
0.555270 0.555270 0.555270
0.630303 0.630303 0.630303
0.708405 0.708405 0.708405
0.780746 0.780746 0.780746
0.838579 0.838579 0.838579
0.881097 0.881097 0.881097
0.915025 0.915025 0.915025
0.943438 0.943438 0.943438
0.968476 0.968476 0.968476
0.991308 0.991308 0.991308
1.000000 1.000000 1.000000
1.000000 1.000000 1.000000
1.000000 1.000000 1.000000
1.000000 1.000000 1.000000
1.000000 1.000000 1.000000
1.000000 1.000000 1.000000
1.000000 1.000000 1.000000
1.000000 1.000000 1.000000
1.000000 1.000000 1.000000
1.000000 1.000000 1.000000
1.000000 1.000000 1.000000
1.000000 1.000000 1.000000
1.000000 1.000000 1.000000
1.000000 1.000000 1.000000
0.583387 0.583387 0.583387
0.588888 0.588888 0.588888
0.594417 0.594417 0.594417
0.599982 0.599982 0.599982
0.605585 0.605585 0.605585
0.611223 0.611223 0.611223
0.616893 0.616893 0.616893
0.622591 0.622591 0.622591
0.628313 0.628313 0.628313
0.634056 0.634056 0.634056
0.639816 0.639816 0.639816
0.717717 0.717717 0.717717
0.788732 0.788732 0.788732
0.844350 0.844350 0.844350
0.885628 0.885628 0.885628
0.918733 0.918733 0.918733
0.946639 0.946639 0.946639
0.971363 0.971363 0.971363
0.993965 0.993965 0.993965
1.000000 1.000000 1.000000
1.000000 1.000000 1.000000
1.000000 1.000000 1.000000
1.000000 1.000000 1.000000
1.000000 1.000000 1.000000
1.000000 1.000000 1.000000
1.000000 1.000000 1.000000
1.000000 1.000000 1.000000
1.000000 1.000000 1.000000
1.000000 1.000000 1.000000
1.000000 1.000000 1.000000
1.000000 1.000000 1.000000
1.000000 1.000000 1.000000
1.000000 1.000000 1.000000
0.664199 0.664199 0.664199
0.669989 0.669989 0.669989
0.675772 0.675772 0.675772
0.681546 0.681546 0.681546
0.687306 0.687306 0.687306
0.693048 0.693048 0.693048
0.698770 0.698770 0.698770
0.704466 0.704466 0.704466
0.710133 0.710133 0.710133
0.715767 0.715767 0.715767
0.721366 0.721366 0.721366
0.726924 0.726924 0.726924
0.796477 0.796477 0.796477
0.849930 0.849930 0.849930
0.890028 0.890028 0.890028
0.922361 0.922361 0.922361
0.949792 0.949792 0.949792
0.974220 0.974220 0.974220
0.996595 0.996595 0.996595
1.000000 1.000000 1.000000
1.000000 1.000000 1.000000
1.000000 1.000000 1.000000
1.000000 1.000000 1.000000
1.000000 1.000000 1.000000
1.000000 1.000000 1.000000
1.000000 1.000000 1.000000
1.000000 1.000000 1.000000
1.000000 1.000000 1.000000
1.000000 1.000000 1.000000
1.000000 1.000000 1.000000
1.000000 1.000000 1.000000
1.000000 1.000000 1.000000
1.000000 1.000000 1.000000
0.744475 0.744475 0.744475
0.749822 0.749822 0.749822
0.755111 0.755111 0.755111
0.760337 0.760337 0.760337
0.765496 0.765496 0.765496
0.770586 0.770586 0.770586
0.775603 0.775603 0.775603
0.780544 0.780544 0.780544
0.785405 0.785405 0.785405
0.790184 0.790184 0.790184
0.794876 0.794876 0.794876
0.799480 0.799480 0.799480
0.803992 0.803992 0.803992
0.855352 0.855352 0.855352
0.894320 0.894320 0.894320
0.925919 0.925919 0.925919
0.952903 0.952903 0.952903
0.977046 0.977046 0.977046
0.999197 0.999197 0.999197
1.000000 1.000000 1.000000
1.000000 1.000000 1.000000
1.000000 1.000000 1.000000
1.000000 1.000000 1.000000
1.000000 1.000000 1.000000
1.000000 1.000000 1.000000
1.000000 1.000000 1.000000
1.000000 1.000000 1.000000
1.000000 1.000000 1.000000
1.000000 1.000000 1.000000
1.000000 1.000000 1.000000
1.000000 1.000000 1.000000
1.000000 1.000000 1.000000
1.000000 1.000000 1.000000
0.813633 0.813633 0.813633
0.817829 0.817829 0.817829
0.821922 0.821922 0.821922
0.825908 0.825908 0.825908
0.829786 0.829786 0.829786
0.833553 0.833553 0.833553
0.837202 0.837202 0.837202
0.840741 0.840741 0.840741
0.844207 0.844207 0.844207
0.847609 0.847609 0.847609
0.850948 0.850948 0.850948
0.854226 0.854226 0.854226
0.857445 0.857445 0.857445
0.860606 0.860606 0.860606
0.898502 0.898502 0.898502
0.929411 0.929411 0.929411
0.955973 0.955973 0.955973
0.979845 0.979845 0.979845
1.000000 1.000000 1.000000
1.000000 1.000000 1.000000
1.000000 1.000000 1.000000
1.000000 1.000000 1.000000
1.000000 1.000000 1.000000
1.000000 1.000000 1.000000
1.000000 1.000000 1.000000
1.000000 1.000000 1.000000
1.000000 1.000000 1.000000
1.000000 1.000000 1.000000
1.000000 1.000000 1.000000
1.000000 1.000000 1.000000
1.000000 1.000000 1.000000
1.000000 1.000000 1.000000
1.000000 1.000000 1.000000
0.864374 0.864374 0.864374
0.867411 0.867411 0.867411
0.870395 0.870395 0.870395
0.873328 0.873328 0.873328
0.876210 0.876210 0.876210
0.879044 0.879044 0.879044
0.881830 0.881830 0.881830
0.884570 0.884570 0.884570
0.887266 0.887266 0.887266
0.889919 0.889919 0.889919
0.892529 0.892529 0.892529
0.895100 0.895100 0.895100
0.897631 0.897631 0.897631
0.900123 0.900123 0.900123
0.902580 0.902580 0.902580
0.932837 0.932837 0.932837
0.959003 0.959003 0.959003
0.982614 0.982614 0.982614
1.000000 1.000000 1.000000
1.000000 1.000000 1.000000
1.000000 1.000000 1.000000
1.000000 1.000000 1.000000
1.000000 1.000000 1.000000
1.000000 1.000000 1.000000
1.000000 1.000000 1.000000
1.000000 1.000000 1.000000
1.000000 1.000000 1.000000
1.000000 1.000000 1.000000
1.000000 1.000000 1.000000
1.000000 1.000000 1.000000
1.000000 1.000000 1.000000
1.000000 1.000000 1.000000
1.000000 1.000000 1.000000
0.903103 0.903103 0.903103
0.905515 0.905515 0.905515
0.907894 0.907894 0.907894
0.910240 0.910240 0.910240
0.912554 0.912554 0.912554
0.914838 0.914838 0.914838
0.917091 0.917091 0.917091
0.919317 0.919317 0.919317
0.921514 0.921514 0.921514
0.923686 0.923686 0.923686
0.925831 0.925831 0.925831
0.927952 0.927952 0.927952
0.930049 0.930049 0.930049
0.932124 0.932124 0.932124
0.934176 0.934176 0.934176
0.936207 0.936207 0.936207
0.961997 0.961997 0.961997
0.985357 0.985357 0.985357
1.000000 1.000000 1.000000
1.000000 1.000000 1.000000
1.000000 1.000000 1.000000
1.000000 1.000000 1.000000
1.000000 1.000000 1.000000
1.000000 1.000000 1.000000
1.000000 1.000000 1.000000
1.000000 1.000000 1.000000
1.000000 1.000000 1.000000
1.000000 1.000000 1.000000
1.000000 1.000000 1.000000
1.000000 1.000000 1.000000
1.000000 1.000000 1.000000
1.000000 1.000000 1.000000
1.000000 1.000000 1.000000
0.934612 0.934612 0.934612
0.936639 0.936639 0.936639
0.938645 0.938645 0.938645
0.940631 0.940631 0.940631
0.942599 0.942599 0.942599
0.944549 0.944549 0.944549
0.946481 0.946481 0.946481
0.948396 0.948396 0.948396
0.950294 0.950294 0.950294
0.952177 0.952177 0.952177
0.954044 0.954044 0.954044
0.955897 0.955897 0.955897
0.957735 0.957735 0.957735
0.959560 0.959560 0.959560
0.961371 0.961371 0.961371
0.963170 0.963170 0.963170
0.964956 0.964956 0.964956
0.988072 0.988072 0.988072
1.000000 1.000000 1.000000
1.000000 1.000000 1.000000
1.000000 1.000000 1.000000
1.000000 1.000000 1.000000
1.000000 1.000000 1.000000
1.000000 1.000000 1.000000
1.000000 1.000000 1.000000
1.000000 1.000000 1.000000
1.000000 1.000000 1.000000
1.000000 1.000000 1.000000
1.000000 1.000000 1.000000
1.000000 1.000000 1.000000
1.000000 1.000000 1.000000
1.000000 1.000000 1.000000
1.000000 1.000000 1.000000
0.961760 0.961760 0.961760
0.963555 0.963555 0.963555
0.965339 0.965339 0.965339
0.967109 0.967109 0.967109
0.968869 0.968869 0.968869
0.970616 0.970616 0.970616
0.972352 0.972352 0.972352
0.974078 0.974078 0.974078
0.975792 0.975792 0.975792
0.977496 0.977496 0.977496
0.979189 0.979189 0.979189
0.980872 0.980872 0.980872
0.982545 0.982545 0.982545
0.984208 0.984208 0.984208
0.985861 0.985861 0.985861
0.987504 0.987504 0.987504
0.989137 0.989137 0.989137
0.990760 0.990760 0.990760
1.000000 1.000000 1.000000
1.000000 1.000000 1.000000
1.000000 1.000000 1.000000
1.000000 1.000000 1.000000
1.000000 1.000000 1.000000
1.000000 1.000000 1.000000
1.000000 1.000000 1.000000
1.000000 1.000000 1.000000
1.000000 1.000000 1.000000
1.000000 1.000000 1.000000
1.000000 1.000000 1.000000
1.000000 1.000000 1.000000
1.000000 1.000000 1.000000
1.000000 1.000000 1.000000
1.000000 1.000000 1.000000
0.986215 0.986215 0.986215
0.987856 0.987856 0.987856
0.989487 0.989487 0.989487
0.991108 0.991108 0.991108
0.992719 0.992719 0.992719
0.994321 0.994321 0.994321
0.995913 0.995913 0.995913
0.997495 0.997495 0.997495
0.999068 0.999068 0.999068
1.000000 1.000000 1.000000
1.000000 1.000000 1.000000
1.000000 1.000000 1.000000
1.000000 1.000000 1.000000
1.000000 1.000000 1.000000
1.000000 1.000000 1.000000
1.000000 1.000000 1.000000
1.000000 1.000000 1.000000
1.000000 1.000000 1.000000
1.000000 1.000000 1.000000
1.000000 1.000000 1.000000
1.000000 1.000000 1.000000
1.000000 1.000000 1.000000
1.000000 1.000000 1.000000
1.000000 1.000000 1.000000
1.000000 1.000000 1.000000
1.000000 1.000000 1.000000
1.000000 1.000000 1.000000
1.000000 1.000000 1.000000
1.000000 1.000000 1.000000
1.000000 1.000000 1.000000
1.000000 1.000000 1.000000
1.000000 1.000000 1.000000
1.000000 1.000000 1.000000
1.000000 1.000000 1.000000
1.000000 1.000000 1.000000
1.000000 1.000000 1.000000
1.000000 1.000000 1.000000
1.000000 1.000000 1.000000
1.000000 1.000000 1.000000
1.000000 1.000000 1.000000
1.000000 1.000000 1.000000
1.000000 1.000000 1.000000
1.000000 1.000000 1.000000
1.000000 1.000000 1.000000
1.000000 1.000000 1.000000
1.000000 1.000000 1.000000
1.000000 1.000000 1.000000
1.000000 1.000000 1.000000
1.000000 1.000000 1.000000
1.000000 1.000000 1.000000
1.000000 1.000000 1.000000
1.000000 1.000000 1.000000
1.000000 1.000000 1.000000
1.000000 1.000000 1.000000
1.000000 1.000000 1.000000
1.000000 1.000000 1.000000
1.000000 1.000000 1.000000
1.000000 1.000000 1.000000
1.000000 1.000000 1.000000
1.000000 1.000000 1.000000
1.000000 1.000000 1.000000
1.000000 1.000000 1.000000
1.000000 1.000000 1.000000
1.000000 1.000000 1.000000
1.000000 1.000000 1.000000
1.000000 1.000000 1.000000
1.000000 1.000000 1.000000
1.000000 1.000000 1.000000
1.000000 1.000000 1.000000
1.000000 1.000000 1.000000
1.000000 1.000000 1.000000
1.000000 1.000000 1.000000
1.000000 1.000000 1.000000
1.000000 1.000000 1.000000
1.000000 1.000000 1.000000
1.000000 1.000000 1.000000
1.000000 1.000000 1.000000
1.000000 1.000000 1.000000
1.000000 1.000000 1.000000
1.000000 1.000000 1.000000
1.000000 1.000000 1.000000
1.000000 1.000000 1.000000
1.000000 1.000000 1.000000
1.000000 1.000000 1.000000
1.000000 1.000000 1.000000
1.000000 1.000000 1.000000
1.000000 1.000000 1.000000
1.000000 1.000000 1.000000
1.000000 1.000000 1.000000
1.000000 1.000000 1.000000
1.000000 1.000000 1.000000
1.000000 1.000000 1.000000
1.000000 1.000000 1.000000
1.000000 1.000000 1.000000
1.000000 1.000000 1.000000
1.000000 1.000000 1.000000
1.000000 1.000000 1.000000
1.000000 1.000000 1.000000
1.000000 1.000000 1.000000
1.000000 1.000000 1.000000
1.000000 1.000000 1.000000
1.000000 1.000000 1.000000
1.000000 1.000000 1.000000
1.000000 1.000000 1.000000
1.000000 1.000000 1.000000
1.000000 1.000000 1.000000
1.000000 1.000000 1.000000
1.000000 1.000000 1.000000
1.000000 1.000000 1.000000
1.000000 1.000000 1.000000
1.000000 1.000000 1.000000
1.000000 1.000000 1.000000
1.000000 1.000000 1.000000
1.000000 1.000000 1.000000
1.000000 1.000000 1.000000
1.000000 1.000000 1.000000
1.000000 1.000000 1.000000
1.000000 1.000000 1.000000
1.000000 1.000000 1.000000
1.000000 1.000000 1.000000
1.000000 1.000000 1.000000
1.000000 1.000000 1.000000
1.000000 1.000000 1.000000
1.000000 1.000000 1.000000
1.000000 1.000000 1.000000
1.000000 1.000000 1.000000
1.000000 1.000000 1.000000
1.000000 1.000000 1.000000
1.000000 1.000000 1.000000
1.000000 1.000000 1.000000
1.000000 1.000000 1.000000
1.000000 1.000000 1.000000
1.000000 1.000000 1.000000
1.000000 1.000000 1.000000
1.000000 1.000000 1.000000
1.000000 1.000000 1.000000
1.000000 1.000000 1.000000
1.000000 1.000000 1.000000
1.000000 1.000000 1.000000
1.000000 1.000000 1.000000
1.000000 1.000000 1.000000
1.000000 1.000000 1.000000
1.000000 1.000000 1.000000
1.000000 1.000000 1.000000
1.000000 1.000000 1.000000
1.000000 1.000000 1.000000
1.000000 1.000000 1.000000
1.000000 1.000000 1.000000
1.000000 1.000000 1.000000
1.000000 1.000000 1.000000
1.000000 1.000000 1.000000
1.000000 1.000000 1.000000
1.000000 1.000000 1.000000
1.000000 1.000000 1.000000
1.000000 1.000000 1.000000
1.000000 1.000000 1.000000
1.000000 1.000000 1.000000
1.000000 1.000000 1.000000
1.000000 1.000000 1.000000
1.000000 1.000000 1.000000
1.000000 1.000000 1.000000
1.000000 1.000000 1.000000
1.000000 1.000000 1.000000
1.000000 1.000000 1.000000
1.000000 1.000000 1.000000
1.000000 1.000000 1.000000
1.000000 1.000000 1.000000
1.000000 1.000000 1.000000
1.000000 1.000000 1.000000
1.000000 1.000000 1.000000
1.000000 1.000000 1.000000
1.000000 1.000000 1.000000
1.000000 1.000000 1.000000
1.000000 1.000000 1.000000
1.000000 1.000000 1.000000
1.000000 1.000000 1.000000
1.000000 1.000000 1.000000
1.000000 1.000000 1.000000
1.000000 1.000000 1.000000
1.000000 1.000000 1.000000
1.000000 1.000000 1.000000
1.000000 1.000000 1.000000
1.000000 1.000000 1.000000
1.000000 1.000000 1.000000
1.000000 1.000000 1.000000
1.000000 1.000000 1.000000
1.000000 1.000000 1.000000
1.000000 1.000000 1.000000
1.000000 1.000000 1.000000
1.000000 1.000000 1.000000
1.000000 1.000000 1.000000
1.000000 1.000000 1.000000
1.000000 1.000000 1.000000
1.000000 1.000000 1.000000
1.000000 1.000000 1.000000
1.000000 1.000000 1.000000
1.000000 1.000000 1.000000
1.000000 1.000000 1.000000
1.000000 1.000000 1.000000
1.000000 1.000000 1.000000
1.000000 1.000000 1.000000
1.000000 1.000000 1.000000
1.000000 1.000000 1.000000
1.000000 1.000000 1.000000
1.000000 1.000000 1.000000
1.000000 1.000000 1.000000
1.000000 1.000000 1.000000
1.000000 1.000000 1.000000
1.000000 1.000000 1.000000
1.000000 1.000000 1.000000
1.000000 1.000000 1.000000
1.000000 1.000000 1.000000
1.000000 1.000000 1.000000
1.000000 1.000000 1.000000
1.000000 1.000000 1.000000
1.000000 1.000000 1.000000
1.000000 1.000000 1.000000
1.000000 1.000000 1.000000
1.000000 1.000000 1.000000
1.000000 1.000000 1.000000
1.000000 1.000000 1.000000
1.000000 1.000000 1.000000
1.000000 1.000000 1.000000
1.000000 1.000000 1.000000
1.000000 1.000000 1.000000
1.000000 1.000000 1.000000
1.000000 1.000000 1.000000
1.000000 1.000000 1.000000
1.000000 1.000000 1.000000
1.000000 1.000000 1.000000
1.000000 1.000000 1.000000
1.000000 1.000000 1.000000
1.000000 1.000000 1.000000
1.000000 1.000000 1.000000
1.000000 1.000000 1.000000
1.000000 1.000000 1.000000
1.000000 1.000000 1.000000
1.000000 1.000000 1.000000
1.000000 1.000000 1.000000
1.000000 1.000000 1.000000
1.000000 1.000000 1.000000
1.000000 1.000000 1.000000
1.000000 1.000000 1.000000
1.000000 1.000000 1.000000
1.000000 1.000000 1.000000
1.000000 1.000000 1.000000
1.000000 1.000000 1.000000
1.000000 1.000000 1.000000
1.000000 1.000000 1.000000
1.000000 1.000000 1.000000
1.000000 1.000000 1.000000
1.000000 1.000000 1.000000
1.000000 1.000000 1.000000
1.000000 1.000000 1.000000
1.000000 1.000000 1.000000
1.000000 1.000000 1.000000
1.000000 1.000000 1.000000
1.000000 1.000000 1.000000
1.000000 1.000000 1.000000
1.000000 1.000000 1.000000
1.000000 1.000000 1.000000
1.000000 1.000000 1.000000
1.000000 1.000000 1.000000
1.000000 1.000000 1.000000
1.000000 1.000000 1.000000
1.000000 1.000000 1.000000
1.000000 1.000000 1.000000
1.000000 1.000000 1.000000
1.000000 1.000000 1.000000
1.000000 1.000000 1.000000
1.000000 1.000000 1.000000
1.000000 1.000000 1.000000
1.000000 1.000000 1.000000
1.000000 1.000000 1.000000
1.000000 1.000000 1.000000
1.000000 1.000000 1.000000
1.000000 1.000000 1.000000
1.000000 1.000000 1.000000
1.000000 1.000000 1.000000
1.000000 1.000000 1.000000
1.000000 1.000000 1.000000
1.000000 1.000000 1.000000
1.000000 1.000000 1.000000
1.000000 1.000000 1.000000
1.000000 1.000000 1.000000
1.000000 1.000000 1.000000
