ricette/lut/Lama-100-33.cube
# LUT generata da Camera Oscura BN
# Ricetta: Lama 100
# Pellicola: tmax100
# Nota: grana, vignetta e interventi locali non sono inclusi nella LUT.
TITLE "Lama 100"
LUT_3D_SIZE 5
DOMAIN_MIN 0.0 0.0 0.0
DOMAIN_MAX 1.0 1.0 1.0
0.000000 0.000000 0.000000
0.081971 0.081971 0.081971
0.172269 0.172269 0.172269
0.275375 0.275375 0.275375
0.391438 0.391438 0.391438
0.081971 0.081971 0.081971
0.125847 0.125847 0.125847
0.221859 0.221859 0.221859
0.332495 0.332495 0.332495
0.450290 0.450290 0.450290
0.172269 0.172269 0.172269
0.221859 0.221859 0.221859
0.275375 0.275375 0.275375
0.391438 0.391438 0.391438
0.507687 0.507687 0.507687
0.275375 0.275375 0.275375
0.332495 0.332495 0.332495
0.391438 0.391438 0.391438
0.450290 0.450290 0.450290
0.564396 0.564396 0.564396
0.391438 0.391438 0.391438
0.450290 0.450290 0.450290
0.507687 0.507687 0.507687
0.564396 0.564396 0.564396
0.621500 0.621500 0.621500
0.040140 0.040140 0.040140
0.172269 0.172269 0.172269
0.275375 0.275375 0.275375
0.391438 0.391438 0.391438
0.507687 0.507687 0.507687
0.125847 0.125847 0.125847
0.221859 0.221859 0.221859
0.332495 0.332495 0.332495
0.450290 0.450290 0.450290
0.564396 0.564396 0.564396
0.221859 0.221859 0.221859
0.332495 0.332495 0.332495
0.391438 0.391438 0.391438
0.507687 0.507687 0.507687
0.621500 0.621500 0.621500
0.332495 0.332495 0.332495
0.450290 0.450290 0.450290
0.507687 0.507687 0.507687
0.564396 0.564396 0.564396
0.677991 0.677991 0.677991
0.450290 0.450290 0.450290
0.564396 0.564396 0.564396
0.621500 0.621500 0.621500
0.677991 0.677991 0.677991
0.732573 0.732573 0.732573
0.081971 0.081971 0.081971
0.221859 0.221859 0.221859
0.391438 0.391438 0.391438
0.507687 0.507687 0.507687
0.621500 0.621500 0.621500
0.172269 0.172269 0.172269
0.275375 0.275375 0.275375
0.450290 0.450290 0.450290
0.564396 0.564396 0.564396
0.677991 0.677991 0.677991
0.275375 0.275375 0.275375
0.391438 0.391438 0.391438
0.507687 0.507687 0.507687
0.621500 0.621500 0.621500
0.732573 0.732573 0.732573
0.391438 0.391438 0.391438
0.507687 0.507687 0.507687
0.621500 0.621500 0.621500
0.677991 0.677991 0.677991
0.784032 0.784032 0.784032
0.507687 0.507687 0.507687
0.621500 0.621500 0.621500
0.732573 0.732573 0.732573
0.784032 0.784032 0.784032
0.831846 0.831846 0.831846
0.125847 0.125847 0.125847
0.275375 0.275375 0.275375
0.450290 0.450290 0.450290
0.621500 0.621500 0.621500
0.732573 0.732573 0.732573
0.221859 0.221859 0.221859
0.332495 0.332495 0.332495
0.507687 0.507687 0.507687
0.677991 0.677991 0.677991
0.784032 0.784032 0.784032
0.332495 0.332495 0.332495
0.450290 0.450290 0.450290
0.564396 0.564396 0.564396
0.732573 0.732573 0.732573
0.831846 0.831846 0.831846
0.450290 0.450290 0.450290
0.564396 0.564396 0.564396
0.677991 0.677991 0.677991
0.784032 0.784032 0.784032
0.876675 0.876675 0.876675
0.564396 0.564396 0.564396
0.677991 0.677991 0.677991
0.784032 0.784032 0.784032
0.876675 0.876675 0.876675
0.919252 0.919252 0.919252
0.172269 0.172269 0.172269
0.332495 0.332495 0.332495
0.507687 0.507687 0.507687
0.677991 0.677991 0.677991
0.831846 0.831846 0.831846
0.275375 0.275375 0.275375
0.391438 0.391438 0.391438
0.564396 0.564396 0.564396
0.732573 0.732573 0.732573
0.876675 0.876675 0.876675
0.391438 0.391438 0.391438
0.507687 0.507687 0.507687
0.621500 0.621500 0.621500
0.784032 0.784032 0.784032
0.919252 0.919252 0.919252
0.507687 0.507687 0.507687
0.621500 0.621500 0.621500
0.732573 0.732573 0.732573
0.831846 0.831846 0.831846
0.960198 0.960198 0.960198
0.621500 0.621500 0.621500
0.732573 0.732573 0.732573
0.831846 0.831846 0.831846
0.919252 0.919252 0.919252
1.000000 1.000000 1.000000
