ricette/lut/Lama-100-33.cube
# LUT generata da Camera Oscura BN
# Ricetta: Lama 100
# Pellicola: tmax100
# Nota: grana, vignetta e interventi locali non sono inclusi nella LUT.
TITLE "Lama 100"
LUT_3D_SIZE 9
DOMAIN_MIN 0.0 0.0 0.0
DOMAIN_MAX 1.0 1.0 1.0
0.000000 0.000000 0.000000
0.040140 0.040140 0.040140
0.081971 0.081971 0.081971
0.125847 0.125847 0.125847
0.172269 0.172269 0.172269
0.221859 0.221859 0.221859
0.275375 0.275375 0.275375
0.332495 0.332495 0.332495
0.391438 0.391438 0.391438
0.040140 0.040140 0.040140
0.060825 0.060825 0.060825
0.103624 0.103624 0.103624
0.148705 0.148705 0.148705
0.196628 0.196628 0.196628
0.248072 0.248072 0.248072
0.303589 0.303589 0.303589
0.361858 0.361858 0.361858
0.420995 0.420995 0.420995
0.081971 0.081971 0.081971
0.103624 0.103624 0.103624
0.125847 0.125847 0.125847
0.172269 0.172269 0.172269
0.221859 0.221859 0.221859
0.275375 0.275375 0.275375
0.332495 0.332495 0.332495
0.391438 0.391438 0.391438
0.450290 0.450290 0.450290
0.125847 0.125847 0.125847
0.148705 0.148705 0.148705
0.172269 0.172269 0.172269
0.196628 0.196628 0.196628
0.248072 0.248072 0.248072
0.303589 0.303589 0.303589
0.361858 0.361858 0.361858
0.420995 0.420995 0.420995
0.479204 0.479204 0.479204
0.172269 0.172269 0.172269
0.196628 0.196628 0.196628
0.221859 0.221859 0.221859
0.248072 0.248072 0.248072
0.275375 0.275375 0.275375
0.332495 0.332495 0.332495
0.391438 0.391438 0.391438
0.450290 0.450290 0.450290
0.507687 0.507687 0.507687
0.221859 0.221859 0.221859
0.248072 0.248072 0.248072
0.275375 0.275375 0.275375
0.303589 0.303589 0.303589
0.332495 0.332495 0.332495
0.361858 0.361858 0.361858
0.420995 0.420995 0.420995
0.479204 0.479204 0.479204
0.535959 0.535959 0.535959
0.275375 0.275375 0.275375
0.303589 0.303589 0.303589
0.332495 0.332495 0.332495
0.361858 0.361858 0.361858
0.391438 0.391438 0.391438
0.420995 0.420995 0.420995
0.450290 0.450290 0.450290
0.507687 0.507687 0.507687
0.564396 0.564396 0.564396
0.332495 0.332495 0.332495
0.361858 0.361858 0.361858
0.391438 0.391438 0.391438
0.420995 0.420995 0.420995
0.450290 0.450290 0.450290
0.479204 0.479204 0.479204
0.507687 0.507687 0.507687
0.535959 0.535959 0.535959
0.592942 0.592942 0.592942
0.391438 0.391438 0.391438
0.420995 0.420995 0.420995
0.450290 0.450290 0.450290
0.479204 0.479204 0.479204
0.507687 0.507687 0.507687
0.535959 0.535959 0.535959
0.564396 0.564396 0.564396
0.592942 0.592942 0.592942
0.621500 0.621500 0.621500
0.019875 0.019875 0.019875
0.081971 0.081971 0.081971
0.125847 0.125847 0.125847
0.172269 0.172269 0.172269
0.221859 0.221859 0.221859
0.275375 0.275375 0.275375
0.332495 0.332495 0.332495
0.391438 0.391438 0.391438
0.450290 0.450290 0.450290
0.060825 0.060825 0.060825
0.103624 0.103624 0.103624
0.148705 0.148705 0.148705
0.196628 0.196628 0.196628
0.248072 0.248072 0.248072
0.303589 0.303589 0.303589
0.361858 0.361858 0.361858
0.420995 0.420995 0.420995
0.479204 0.479204 0.479204
0.103624 0.103624 0.103624
0.148705 0.148705 0.148705
0.172269 0.172269 0.172269
0.221859 0.221859 0.221859
0.275375 0.275375 0.275375
0.332495 0.332495 0.332495
0.391438 0.391438 0.391438
0.450290 0.450290 0.450290
0.507687 0.507687 0.507687
0.148705 0.148705 0.148705
0.196628 0.196628 0.196628
0.221859 0.221859 0.221859
0.248072 0.248072 0.248072
0.303589 0.303589 0.303589
0.361858 0.361858 0.361858
0.420995 0.420995 0.420995
0.479204 0.479204 0.479204
0.535959 0.535959 0.535959
0.196628 0.196628 0.196628
0.248072 0.248072 0.248072
0.275375 0.275375 0.275375
0.303589 0.303589 0.303589
0.332495 0.332495 0.332495
0.391438 0.391438 0.391438
0.450290 0.450290 0.450290
0.507687 0.507687 0.507687
0.564396 0.564396 0.564396
0.248072 0.248072 0.248072
0.303589 0.303589 0.303589
0.332495 0.332495 0.332495
0.361858 0.361858 0.361858
0.391438 0.391438 0.391438
0.420995 0.420995 0.420995
0.479204 0.479204 0.479204
0.535959 0.535959 0.535959
0.592942 0.592942 0.592942
0.303589 0.303589 0.303589
0.361858 0.361858 0.361858
0.391438 0.391438 0.391438
0.420995 0.420995 0.420995
0.450290 0.450290 0.450290
0.479204 0.479204 0.479204
0.507687 0.507687 0.507687
0.564396 0.564396 0.564396
0.621500 0.621500 0.621500
0.361858 0.361858 0.361858
0.420995 0.420995 0.420995
0.450290 0.450290 0.450290
0.479204 0.479204 0.479204
0.507687 0.507687 0.507687
0.535959 0.535959 0.535959
0.564396 0.564396 0.564396
0.592942 0.592942 0.592942
0.649904 0.649904 0.649904
0.420995 0.420995 0.420995
0.479204 0.479204 0.479204
0.507687 0.507687 0.507687
0.535959 0.535959 0.535959
0.564396 0.564396 0.564396
0.592942 0.592942 0.592942
0.621500 0.621500 0.621500
0.649904 0.649904 0.649904
0.677991 0.677991 0.677991
0.040140 0.040140 0.040140
0.103624 0.103624 0.103624
0.172269 0.172269 0.172269
0.221859 0.221859 0.221859
0.275375 0.275375 0.275375
0.332495 0.332495 0.332495
0.391438 0.391438 0.391438
0.450290 0.450290 0.450290
0.507687 0.507687 0.507687
0.081971 0.081971 0.081971
0.125847 0.125847 0.125847
0.196628 0.196628 0.196628
0.248072 0.248072 0.248072
0.303589 0.303589 0.303589
0.361858 0.361858 0.361858
0.420995 0.420995 0.420995
0.479204 0.479204 0.479204
0.535959 0.535959 0.535959
0.125847 0.125847 0.125847
0.172269 0.172269 0.172269
0.221859 0.221859 0.221859
0.275375 0.275375 0.275375
0.332495 0.332495 0.332495
0.391438 0.391438 0.391438
0.450290 0.450290 0.450290
0.507687 0.507687 0.507687
0.564396 0.564396 0.564396
0.172269 0.172269 0.172269
0.221859 0.221859 0.221859
0.275375 0.275375 0.275375
0.303589 0.303589 0.303589
0.361858 0.361858 0.361858
0.420995 0.420995 0.420995
0.479204 0.479204 0.479204
0.535959 0.535959 0.535959
0.592942 0.592942 0.592942
0.221859 0.221859 0.221859
0.275375 0.275375 0.275375
0.332495 0.332495 0.332495
0.361858 0.361858 0.361858
0.391438 0.391438 0.391438
0.450290 0.450290 0.450290
0.507687 0.507687 0.507687
0.564396 0.564396 0.564396
0.621500 0.621500 0.621500
0.275375 0.275375 0.275375
0.332495 0.332495 0.332495
0.391438 0.391438 0.391438
0.420995 0.420995 0.420995
0.450290 0.450290 0.450290
0.479204 0.479204 0.479204
0.535959 0.535959 0.535959
0.592942 0.592942 0.592942
0.649904 0.649904 0.649904
0.332495 0.332495 0.332495
0.391438 0.391438 0.391438
0.450290 0.450290 0.450290
0.479204 0.479204 0.479204
0.507687 0.507687 0.507687
0.535959 0.535959 0.535959
0.564396 0.564396 0.564396
0.621500 0.621500 0.621500
0.677991 0.677991 0.677991
0.391438 0.391438 0.391438
0.450290 0.450290 0.450290
0.507687 0.507687 0.507687
0.535959 0.535959 0.535959
0.564396 0.564396 0.564396
0.592942 0.592942 0.592942
0.621500 0.621500 0.621500
0.649904 0.649904 0.649904
0.705600 0.705600 0.705600
0.450290 0.450290 0.450290
0.507687 0.507687 0.507687
0.564396 0.564396 0.564396
0.592942 0.592942 0.592942
0.621500 0.621500 0.621500
0.649904 0.649904 0.649904
0.677991 0.677991 0.677991
0.705600 0.705600 0.705600
0.732573 0.732573 0.732573
0.060825 0.060825 0.060825
0.125847 0.125847 0.125847
0.196628 0.196628 0.196628
0.275375 0.275375 0.275375
0.332495 0.332495 0.332495
0.391438 0.391438 0.391438
0.450290 0.450290 0.450290
0.507687 0.507687 0.507687
0.564396 0.564396 0.564396
0.103624 0.103624 0.103624
0.148705 0.148705 0.148705
0.221859 0.221859 0.221859
0.303589 0.303589 0.303589
0.361858 0.361858 0.361858
0.420995 0.420995 0.420995
0.479204 0.479204 0.479204
0.535959 0.535959 0.535959
0.592942 0.592942 0.592942
0.148705 0.148705 0.148705
0.196628 0.196628 0.196628
0.248072 0.248072 0.248072
0.332495 0.332495 0.332495
0.391438 0.391438 0.391438
0.450290 0.450290 0.450290
0.507687 0.507687 0.507687
0.564396 0.564396 0.564396
0.621500 0.621500 0.621500
0.196628 0.196628 0.196628
0.248072 0.248072 0.248072
0.303589 0.303589 0.303589
0.361858 0.361858 0.361858
0.420995 0.420995 0.420995
0.479204 0.479204 0.479204
0.535959 0.535959 0.535959
0.592942 0.592942 0.592942
0.649904 0.649904 0.649904
0.248072 0.248072 0.248072
0.303589 0.303589 0.303589
0.361858 0.361858 0.361858
0.420995 0.420995 0.420995
0.450290 0.450290 0.450290
0.507687 0.507687 0.507687
0.564396 0.564396 0.564396
0.621500 0.621500 0.621500
0.677991 0.677991 0.677991
0.303589 0.303589 0.303589
0.361858 0.361858 0.361858
0.420995 0.420995 0.420995
0.479204 0.479204 0.479204
0.507687 0.507687 0.507687
0.535959 0.535959 0.535959
0.592942 0.592942 0.592942
0.649904 0.649904 0.649904
0.705600 0.705600 0.705600
0.361858 0.361858 0.361858
0.420995 0.420995 0.420995
0.479204 0.479204 0.479204
0.535959 0.535959 0.535959
0.564396 0.564396 0.564396
0.592942 0.592942 0.592942
0.621500 0.621500 0.621500
0.677991 0.677991 0.677991
0.732573 0.732573 0.732573
0.420995 0.420995 0.420995
0.479204 0.479204 0.479204
0.535959 0.535959 0.535959
0.592942 0.592942 0.592942
0.621500 0.621500 0.621500
0.649904 0.649904 0.649904
0.677991 0.677991 0.677991
0.705600 0.705600 0.705600
0.758765 0.758765 0.758765
0.479204 0.479204 0.479204
0.535959 0.535959 0.535959
0.592942 0.592942 0.592942
0.649904 0.649904 0.649904
0.677991 0.677991 0.677991
0.705600 0.705600 0.705600
0.732573 0.732573 0.732573
0.758765 0.758765 0.758765
0.784032 0.784032 0.784032
0.081971 0.081971 0.081971
0.148705 0.148705 0.148705
0.221859 0.221859 0.221859
0.303589 0.303589 0.303589
0.391438 0.391438 0.391438
0.450290 0.450290 0.450290
0.507687 0.507687 0.507687
0.564396 0.564396 0.564396
0.621500 0.621500 0.621500
0.125847 0.125847 0.125847
0.172269 0.172269 0.172269
0.248072 0.248072 0.248072
0.332495 0.332495 0.332495
0.420995 0.420995 0.420995
0.479204 0.479204 0.479204
0.535959 0.535959 0.535959
0.592942 0.592942 0.592942
0.649904 0.649904 0.649904
0.172269 0.172269 0.172269
0.221859 0.221859 0.221859
0.275375 0.275375 0.275375
0.361858 0.361858 0.361858
0.450290 0.450290 0.450290
0.507687 0.507687 0.507687
0.564396 0.564396 0.564396
0.621500 0.621500 0.621500
0.677991 0.677991 0.677991
0.221859 0.221859 0.221859
0.275375 0.275375 0.275375
0.332495 0.332495 0.332495
0.391438 0.391438 0.391438
0.479204 0.479204 0.479204
0.535959 0.535959 0.535959
0.592942 0.592942 0.592942
0.649904 0.649904 0.649904
0.705600 0.705600 0.705600
0.275375 0.275375 0.275375
0.332495 0.332495 0.332495
0.391438 0.391438 0.391438
0.450290 0.450290 0.450290
0.507687 0.507687 0.507687
0.564396 0.564396 0.564396
0.621500 0.621500 0.621500
0.677991 0.677991 0.677991
0.732573 0.732573 0.732573
0.332495 0.332495 0.332495
0.391438 0.391438 0.391438
0.450290 0.450290 0.450290
0.507687 0.507687 0.507687
0.564396 0.564396 0.564396
0.592942 0.592942 0.592942
0.649904 0.649904 0.649904
0.705600 0.705600 0.705600
0.758765 0.758765 0.758765
0.391438 0.391438 0.391438
0.450290 0.450290 0.450290
0.507687 0.507687 0.507687
0.564396 0.564396 0.564396
0.621500 0.621500 0.621500
0.649904 0.649904 0.649904
0.677991 0.677991 0.677991
0.732573 0.732573 0.732573
0.784032 0.784032 0.784032
0.450290 0.450290 0.450290
0.507687 0.507687 0.507687
0.564396 0.564396 0.564396
0.621500 0.621500 0.621500
0.677991 0.677991 0.677991
0.705600 0.705600 0.705600
0.732573 0.732573 0.732573
0.758765 0.758765 0.758765
0.808359 0.808359 0.808359
0.507687 0.507687 0.507687
0.564396 0.564396 0.564396
0.621500 0.621500 0.621500
0.677991 0.677991 0.677991
0.732573 0.732573 0.732573
0.758765 0.758765 0.758765
0.784032 0.784032 0.784032
0.808359 0.808359 0.808359
0.831846 0.831846 0.831846
0.103624 0.103624 0.103624
0.172269 0.172269 0.172269
0.248072 0.248072 0.248072
0.332495 0.332495 0.332495
0.420995 0.420995 0.420995
0.507687 0.507687 0.507687
0.564396 0.564396 0.564396
0.621500 0.621500 0.621500
0.677991 0.677991 0.677991
0.148705 0.148705 0.148705
0.196628 0.196628 0.196628
0.275375 0.275375 0.275375
0.361858 0.361858 0.361858
0.450290 0.450290 0.450290
0.535959 0.535959 0.535959
0.592942 0.592942 0.592942
0.649904 0.649904 0.649904
0.705600 0.705600 0.705600
0.196628 0.196628 0.196628
0.248072 0.248072 0.248072
0.303589 0.303589 0.303589
0.391438 0.391438 0.391438
0.479204 0.479204 0.479204
0.564396 0.564396 0.564396
0.621500 0.621500 0.621500
0.677991 0.677991 0.677991
0.732573 0.732573 0.732573
0.248072 0.248072 0.248072
0.303589 0.303589 0.303589
0.361858 0.361858 0.361858
0.420995 0.420995 0.420995
0.507687 0.507687 0.507687
0.592942 0.592942 0.592942
0.649904 0.649904 0.649904
0.705600 0.705600 0.705600
0.758765 0.758765 0.758765
0.303589 0.303589 0.303589
0.361858 0.361858 0.361858
0.420995 0.420995 0.420995
0.479204 0.479204 0.479204
0.535959 0.535959 0.535959
0.621500 0.621500 0.621500
0.677991 0.677991 0.677991
0.732573 0.732573 0.732573
0.784032 0.784032 0.784032
0.361858 0.361858 0.361858
0.420995 0.420995 0.420995
0.479204 0.479204 0.479204
0.535959 0.535959 0.535959
0.592942 0.592942 0.592942
0.649904 0.649904 0.649904
0.705600 0.705600 0.705600
0.758765 0.758765 0.758765
0.808359 0.808359 0.808359
0.420995 0.420995 0.420995
0.479204 0.479204 0.479204
0.535959 0.535959 0.535959
0.592942 0.592942 0.592942
0.649904 0.649904 0.649904
0.705600 0.705600 0.705600
0.732573 0.732573 0.732573
0.784032 0.784032 0.784032
0.831846 0.831846 0.831846
0.479204 0.479204 0.479204
0.535959 0.535959 0.535959
0.592942 0.592942 0.592942
0.649904 0.649904 0.649904
0.705600 0.705600 0.705600
0.758765 0.758765 0.758765
0.784032 0.784032 0.784032
0.808359 0.808359 0.808359
0.854584 0.854584 0.854584
0.535959 0.535959 0.535959
0.592942 0.592942 0.592942
0.649904 0.649904 0.649904
0.705600 0.705600 0.705600
0.758765 0.758765 0.758765
0.808359 0.808359 0.808359
0.831846 0.831846 0.831846
0.854584 0.854584 0.854584
0.876675 0.876675 0.876675
0.125847 0.125847 0.125847
0.196628 0.196628 0.196628
0.275375 0.275375 0.275375
0.361858 0.361858 0.361858
0.450290 0.450290 0.450290
0.535959 0.535959 0.535959
0.621500 0.621500 0.621500
0.677991 0.677991 0.677991
0.732573 0.732573 0.732573
0.172269 0.172269 0.172269
0.221859 0.221859 0.221859
0.303589 0.303589 0.303589
0.391438 0.391438 0.391438
0.479204 0.479204 0.479204
0.564396 0.564396 0.564396
0.649904 0.649904 0.649904
0.705600 0.705600 0.705600
0.758765 0.758765 0.758765
0.221859 0.221859 0.221859
0.275375 0.275375 0.275375
0.332495 0.332495 0.332495
0.420995 0.420995 0.420995
0.507687 0.507687 0.507687
0.592942 0.592942 0.592942
0.677991 0.677991 0.677991
0.732573 0.732573 0.732573
0.784032 0.784032 0.784032
0.275375 0.275375 0.275375
0.332495 0.332495 0.332495
0.391438 0.391438 0.391438
0.450290 0.450290 0.450290
0.535959 0.535959 0.535959
0.621500 0.621500 0.621500
0.705600 0.705600 0.705600
0.758765 0.758765 0.758765
0.808359 0.808359 0.808359
0.332495 0.332495 0.332495
0.391438 0.391438 0.391438
0.450290 0.450290 0.450290
0.507687 0.507687 0.507687
0.564396 0.564396 0.564396
0.649904 0.649904 0.649904
0.732573 0.732573 0.732573
0.784032 0.784032 0.784032
0.831846 0.831846 0.831846
0.391438 0.391438 0.391438
0.450290 0.450290 0.450290
0.507687 0.507687 0.507687
0.564396 0.564396 0.564396
0.621500 0.621500 0.621500
0.677991 0.677991 0.677991
0.758765 0.758765 0.758765
0.808359 0.808359 0.808359
0.854584 0.854584 0.854584
0.450290 0.450290 0.450290
0.507687 0.507687 0.507687
0.564396 0.564396 0.564396
0.621500 0.621500 0.621500
0.677991 0.677991 0.677991
0.732573 0.732573 0.732573
0.784032 0.784032 0.784032
0.831846 0.831846 0.831846
0.876675 0.876675 0.876675
0.507687 0.507687 0.507687
0.564396 0.564396 0.564396
0.621500 0.621500 0.621500
0.677991 0.677991 0.677991
0.732573 0.732573 0.732573
0.784032 0.784032 0.784032
0.831846 0.831846 0.831846
0.854584 0.854584 0.854584
0.898204 0.898204 0.898204
0.564396 0.564396 0.564396
0.621500 0.621500 0.621500
0.677991 0.677991 0.677991
0.732573 0.732573 0.732573
0.784032 0.784032 0.784032
0.831846 0.831846 0.831846
0.876675 0.876675 0.876675
0.898204 0.898204 0.898204
0.919252 0.919252 0.919252
0.148705 0.148705 0.148705
0.221859 0.221859 0.221859
0.303589 0.303589 0.303589
0.391438 0.391438 0.391438
0.479204 0.479204 0.479204
0.564396 0.564396 0.564396
0.649904 0.649904 0.649904
0.732573 0.732573 0.732573
0.784032 0.784032 0.784032
0.196628 0.196628 0.196628
0.248072 0.248072 0.248072
0.332495 0.332495 0.332495
0.420995 0.420995 0.420995
0.507687 0.507687 0.507687
0.592942 0.592942 0.592942
0.677991 0.677991 0.677991
0.758765 0.758765 0.758765
0.808359 0.808359 0.808359
0.248072 0.248072 0.248072
0.303589 0.303589 0.303589
0.361858 0.361858 0.361858
0.450290 0.450290 0.450290
0.535959 0.535959 0.535959
0.621500 0.621500 0.621500
0.705600 0.705600 0.705600
0.784032 0.784032 0.784032
0.831846 0.831846 0.831846
0.303589 0.303589 0.303589
0.361858 0.361858 0.361858
0.420995 0.420995 0.420995
0.479204 0.479204 0.479204
0.564396 0.564396 0.564396
0.649904 0.649904 0.649904
0.732573 0.732573 0.732573
0.808359 0.808359 0.808359
0.854584 0.854584 0.854584
0.361858 0.361858 0.361858
0.420995 0.420995 0.420995
0.479204 0.479204 0.479204
0.535959 0.535959 0.535959
0.592942 0.592942 0.592942
0.677991 0.677991 0.677991
0.758765 0.758765 0.758765
0.831846 0.831846 0.831846
0.876675 0.876675 0.876675
0.420995 0.420995 0.420995
0.479204 0.479204 0.479204
0.535959 0.535959 0.535959
0.592942 0.592942 0.592942
0.649904 0.649904 0.649904
0.705600 0.705600 0.705600
0.784032 0.784032 0.784032
0.854584 0.854584 0.854584
0.898204 0.898204 0.898204
0.479204 0.479204 0.479204
0.535959 0.535959 0.535959
0.592942 0.592942 0.592942
0.649904 0.649904 0.649904
0.705600 0.705600 0.705600
0.758765 0.758765 0.758765
0.808359 0.808359 0.808359
0.876675 0.876675 0.876675
0.919252 0.919252 0.919252
0.535959 0.535959 0.535959
0.592942 0.592942 0.592942
0.649904 0.649904 0.649904
0.705600 0.705600 0.705600
0.758765 0.758765 0.758765
0.808359 0.808359 0.808359
0.854584 0.854584 0.854584
0.898204 0.898204 0.898204
0.939895 0.939895 0.939895
0.592942 0.592942 0.592942
0.649904 0.649904 0.649904
0.705600 0.705600 0.705600
0.758765 0.758765 0.758765
0.808359 0.808359 0.808359
0.854584 0.854584 0.854584
0.898204 0.898204 0.898204
0.939895 0.939895 0.939895
0.960198 0.960198 0.960198
0.172269 0.172269 0.172269
0.248072 0.248072 0.248072
0.332495 0.332495 0.332495
0.420995 0.420995 0.420995
0.507687 0.507687 0.507687
0.592942 0.592942 0.592942
0.677991 0.677991 0.677991
0.758765 0.758765 0.758765
0.831846 0.831846 0.831846
0.221859 0.221859 0.221859
0.275375 0.275375 0.275375
0.361858 0.361858 0.361858
0.450290 0.450290 0.450290
0.535959 0.535959 0.535959
0.621500 0.621500 0.621500
0.705600 0.705600 0.705600
0.784032 0.784032 0.784032
0.854584 0.854584 0.854584
0.275375 0.275375 0.275375
0.332495 0.332495 0.332495
0.391438 0.391438 0.391438
0.479204 0.479204 0.479204
0.564396 0.564396 0.564396
0.649904 0.649904 0.649904
0.732573 0.732573 0.732573
0.808359 0.808359 0.808359
0.876675 0.876675 0.876675
0.332495 0.332495 0.332495
0.391438 0.391438 0.391438
0.450290 0.450290 0.450290
0.507687 0.507687 0.507687
0.592942 0.592942 0.592942
0.677991 0.677991 0.677991
0.758765 0.758765 0.758765
0.831846 0.831846 0.831846
0.898204 0.898204 0.898204
0.391438 0.391438 0.391438
0.450290 0.450290 0.450290
0.507687 0.507687 0.507687
0.564396 0.564396 0.564396
0.621500 0.621500 0.621500
0.705600 0.705600 0.705600
0.784032 0.784032 0.784032
0.854584 0.854584 0.854584
0.919252 0.919252 0.919252
0.450290 0.450290 0.450290
0.507687 0.507687 0.507687
0.564396 0.564396 0.564396
0.621500 0.621500 0.621500
0.677991 0.677991 0.677991
0.732573 0.732573 0.732573
0.808359 0.808359 0.808359
0.876675 0.876675 0.876675
0.939895 0.939895 0.939895
0.507687 0.507687 0.507687
0.564396 0.564396 0.564396
0.621500 0.621500 0.621500
0.677991 0.677991 0.677991
0.732573 0.732573 0.732573
0.784032 0.784032 0.784032
0.831846 0.831846 0.831846
0.898204 0.898204 0.898204
0.960198 0.960198 0.960198
0.564396 0.564396 0.564396
0.621500 0.621500 0.621500
0.677991 0.677991 0.677991
0.732573 0.732573 0.732573
0.784032 0.784032 0.784032
0.831846 0.831846 0.831846
0.876675 0.876675 0.876675
0.919252 0.919252 0.919252
0.980217 0.980217 0.980217
0.621500 0.621500 0.621500
0.677991 0.677991 0.677991
0.732573 0.732573 0.732573
0.784032 0.784032 0.784032
0.831846 0.831846 0.831846
0.876675 0.876675 0.876675
0.919252 0.919252 0.919252
0.960198 0.960198 0.960198
1.000000 1.000000 1.000000
