ricette/lut/Lama-100-33.cube
# LUT generata da Camera Oscura BN
# Ricetta: Lama 100
# Pellicola: tmax100
# Nota: grana, vignetta e interventi locali non sono inclusi nella LUT.
TITLE "Lama 100"
LUT_3D_SIZE 33
DOMAIN_MIN 0.0 0.0 0.0
DOMAIN_MAX 1.0 1.0 1.0
0.000000 0.000000 0.000000
0.009890 0.009890 0.009890
0.019875 0.019875 0.019875
0.029957 0.029957 0.029957
0.040140 0.040140 0.040140
0.050427 0.050427 0.050427
0.060825 0.060825 0.060825
0.071338 0.071338 0.071338
0.081971 0.081971 0.081971
0.092731 0.092731 0.092731
0.103624 0.103624 0.103624
0.114660 0.114660 0.114660
0.125847 0.125847 0.125847
0.137192 0.137192 0.137192
0.148705 0.148705 0.148705
0.160394 0.160394 0.160394
0.172269 0.172269 0.172269
0.184345 0.184345 0.184345
0.196628 0.196628 0.196628
0.209129 0.209129 0.209129
0.221859 0.221859 0.221859
0.234829 0.234829 0.234829
0.248072 0.248072 0.248072
0.261596 0.261596 0.261596
0.275375 0.275375 0.275375
0.289381 0.289381 0.289381
0.303589 0.303589 0.303589
0.317969 0.317969 0.317969
0.332495 0.332495 0.332495
0.347134 0.347134 0.347134
0.361858 0.361858 0.361858
0.376636 0.376636 0.376636
0.391438 0.391438 0.391438
0.009890 0.009890 0.009890
0.014871 0.014871 0.014871
0.024903 0.024903 0.024903
0.035035 0.035035 0.035035
0.045271 0.045271 0.045271
0.055613 0.055613 0.055613
0.066067 0.066067 0.066067
0.076638 0.076638 0.076638
0.087334 0.087334 0.087334
0.098161 0.098161 0.098161
0.109125 0.109125 0.109125
0.120235 0.120235 0.120235
0.131499 0.131499 0.131499
0.142925 0.142925 0.142925
0.154526 0.154526 0.154526
0.166309 0.166309 0.166309
0.178283 0.178283 0.178283
0.190460 0.190460 0.190460
0.202848 0.202848 0.202848
0.215464 0.215464 0.215464
0.228315 0.228315 0.228315
0.241416 0.241416 0.241416
0.254801 0.254801 0.254801
0.268453 0.268453 0.268453
0.282350 0.282350 0.282350
0.296462 0.296462 0.296462
0.310761 0.310761 0.310761
0.325217 0.325217 0.325217
0.339802 0.339802 0.339802
0.354487 0.354487 0.354487
0.369242 0.369242 0.369242
0.384036 0.384036 0.384036
0.398839 0.398839 0.398839
0.019875 0.019875 0.019875
0.024903 0.024903 0.024903
0.029957 0.029957 0.029957
0.040140 0.040140 0.040140
0.050427 0.050427 0.050427
0.060825 0.060825 0.060825
0.071338 0.071338 0.071338
0.081971 0.081971 0.081971
0.092731 0.092731 0.092731
0.103624 0.103624 0.103624
0.114660 0.114660 0.114660
0.125847 0.125847 0.125847
0.137192 0.137192 0.137192
0.148705 0.148705 0.148705
0.160394 0.160394 0.160394
0.172269 0.172269 0.172269
0.184345 0.184345 0.184345
0.196628 0.196628 0.196628
0.209129 0.209129 0.209129
0.221859 0.221859 0.221859
0.234829 0.234829 0.234829
0.248072 0.248072 0.248072
0.261596 0.261596 0.261596
0.275375 0.275375 0.275375
0.289381 0.289381 0.289381
0.303589 0.303589 0.303589
0.317969 0.317969 0.317969
0.332495 0.332495 0.332495
0.347134 0.347134 0.347134
0.361858 0.361858 0.361858
0.376636 0.376636 0.376636
0.391438 0.391438 0.391438
0.406234 0.406234 0.406234
0.029957 0.029957 0.029957
0.035035 0.035035 0.035035
0.040140 0.040140 0.040140
0.045271 0.045271 0.045271
0.055613 0.055613 0.055613
0.066067 0.066067 0.066067
0.076638 0.076638 0.076638
0.087334 0.087334 0.087334
0.098161 0.098161 0.098161
0.109125 0.109125 0.109125
0.120235 0.120235 0.120235
0.131499 0.131499 0.131499
0.142925 0.142925 0.142925
0.154526 0.154526 0.154526
0.166309 0.166309 0.166309
0.178283 0.178283 0.178283
0.190460 0.190460 0.190460
0.202848 0.202848 0.202848
0.215464 0.215464 0.215464
0.228315 0.228315 0.228315
0.241416 0.241416 0.241416
0.254801 0.254801 0.254801
0.268453 0.268453 0.268453
0.282350 0.282350 0.282350
0.296462 0.296462 0.296462
0.310761 0.310761 0.310761
0.325217 0.325217 0.325217
0.339802 0.339802 0.339802
0.354487 0.354487 0.354487
0.369242 0.369242 0.369242
0.384036 0.384036 0.384036
0.398839 0.398839 0.398839
0.413621 0.413621 0.413621
0.040140 0.040140 0.040140
0.045271 0.045271 0.045271
0.050427 0.050427 0.050427
0.055613 0.055613 0.055613
0.060825 0.060825 0.060825
0.071338 0.071338 0.071338
0.081971 0.081971 0.081971
0.092731 0.092731 0.092731
0.103624 0.103624 0.103624
0.114660 0.114660 0.114660
0.125847 0.125847 0.125847
0.137192 0.137192 0.137192
0.148705 0.148705 0.148705
0.160394 0.160394 0.160394
0.172269 0.172269 0.172269
0.184345 0.184345 0.184345
0.196628 0.196628 0.196628
0.209129 0.209129 0.209129
0.221859 0.221859 0.221859
0.234829 0.234829 0.234829
0.248072 0.248072 0.248072
0.261596 0.261596 0.261596
0.275375 0.275375 0.275375
0.289381 0.289381 0.289381
0.303589 0.303589 0.303589
0.317969 0.317969 0.317969
0.332495 0.332495 0.332495
0.347134 0.347134 0.347134
0.361858 0.361858 0.361858
0.376636 0.376636 0.376636
0.391438 0.391438 0.391438
0.406234 0.406234 0.406234
0.420995 0.420995 0.420995
0.050427 0.050427 0.050427
0.055613 0.055613 0.055613
0.060825 0.060825 0.060825
0.066067 0.066067 0.066067
0.071338 0.071338 0.071338
0.076638 0.076638 0.076638
0.087334 0.087334 0.087334
0.098161 0.098161 0.098161
0.109125 0.109125 0.109125
0.120235 0.120235 0.120235
0.131499 0.131499 0.131499
0.142925 0.142925 0.142925
0.154526 0.154526 0.154526
0.166309 0.166309 0.166309
0.178283 0.178283 0.178283
0.190460 0.190460 0.190460
0.202848 0.202848 0.202848
0.215464 0.215464 0.215464
0.228315 0.228315 0.228315
0.241416 0.241416 0.241416
0.254801 0.254801 0.254801
0.268453 0.268453 0.268453
0.282350 0.282350 0.282350
0.296462 0.296462 0.296462
0.310761 0.310761 0.310761
0.325217 0.325217 0.325217
0.339802 0.339802 0.339802
0.354487 0.354487 0.354487
0.369242 0.369242 0.369242
0.384036 0.384036 0.384036
0.398839 0.398839 0.398839
0.413621 0.413621 0.413621
0.428353 0.428353 0.428353
0.060825 0.060825 0.060825
0.066067 0.066067 0.066067
0.071338 0.071338 0.071338
0.076638 0.076638 0.076638
0.081971 0.081971 0.081971
0.087334 0.087334 0.087334
0.092731 0.092731 0.092731
0.103624 0.103624 0.103624
0.114660 0.114660 0.114660
0.125847 0.125847 0.125847
0.137192 0.137192 0.137192
0.148705 0.148705 0.148705
0.160394 0.160394 0.160394
0.172269 0.172269 0.172269
0.184345 0.184345 0.184345
0.196628 0.196628 0.196628
0.209129 0.209129 0.209129
0.221859 0.221859 0.221859
0.234829 0.234829 0.234829
0.248072 0.248072 0.248072
0.261596 0.261596 0.261596
0.275375 0.275375 0.275375
0.289381 0.289381 0.289381
0.303589 0.303589 0.303589
0.317969 0.317969 0.317969
0.332495 0.332495 0.332495
0.347134 0.347134 0.347134
0.361858 0.361858 0.361858
0.376636 0.376636 0.376636
0.391438 0.391438 0.391438
0.406234 0.406234 0.406234
0.420995 0.420995 0.420995
0.435690 0.435690 0.435690
0.071338 0.071338 0.071338
0.076638 0.076638 0.076638
0.081971 0.081971 0.081971
0.087334 0.087334 0.087334
0.092731 0.092731 0.092731
0.098161 0.098161 0.098161
0.103624 0.103624 0.103624
0.109125 0.109125 0.109125
0.120235 0.120235 0.120235
0.131499 0.131499 0.131499
0.142925 0.142925 0.142925
0.154526 0.154526 0.154526
0.166309 0.166309 0.166309
0.178283 0.178283 0.178283
0.190460 0.190460 0.190460
0.202848 0.202848 0.202848
0.215464 0.215464 0.215464
0.228315 0.228315 0.228315
0.241416 0.241416 0.241416
0.254801 0.254801 0.254801
0.268453 0.268453 0.268453
0.282350 0.282350 0.282350
0.296462 0.296462 0.296462
0.310761 0.310761 0.310761
0.325217 0.325217 0.325217
0.339802 0.339802 0.339802
0.354487 0.354487 0.354487
0.369242 0.369242 0.369242
0.384036 0.384036 0.384036
0.398839 0.398839 0.398839
0.413621 0.413621 0.413621
0.428353 0.428353 0.428353
0.443004 0.443004 0.443004
0.081971 0.081971 0.081971
0.087334 0.087334 0.087334
0.092731 0.092731 0.092731
0.098161 0.098161 0.098161
0.103624 0.103624 0.103624
0.109125 0.109125 0.109125
0.114660 0.114660 0.114660
0.120235 0.120235 0.120235
0.125847 0.125847 0.125847
0.137192 0.137192 0.137192
0.148705 0.148705 0.148705
0.160394 0.160394 0.160394
0.172269 0.172269 0.172269
0.184345 0.184345 0.184345
0.196628 0.196628 0.196628
0.209129 0.209129 0.209129
0.221859 0.221859 0.221859
0.234829 0.234829 0.234829
0.248072 0.248072 0.248072
0.261596 0.261596 0.261596
0.275375 0.275375 0.275375
0.289381 0.289381 0.289381
0.303589 0.303589 0.303589
0.317969 0.317969 0.317969
0.332495 0.332495 0.332495
0.347134 0.347134 0.347134
0.361858 0.361858 0.361858
0.376636 0.376636 0.376636
0.391438 0.391438 0.391438
0.406234 0.406234 0.406234
0.420995 0.420995 0.420995
0.435690 0.435690 0.435690
0.450290 0.450290 0.450290
0.092731 0.092731 0.092731
0.098161 0.098161 0.098161
0.103624 0.103624 0.103624
0.109125 0.109125 0.109125
0.114660 0.114660 0.114660
0.120235 0.120235 0.120235
0.125847 0.125847 0.125847
0.131499 0.131499 0.131499
0.137192 0.137192 0.137192
0.142925 0.142925 0.142925
0.154526 0.154526 0.154526
0.166309 0.166309 0.166309
0.178283 0.178283 0.178283
0.190460 0.190460 0.190460
0.202848 0.202848 0.202848
0.215464 0.215464 0.215464
0.228315 0.228315 0.228315
0.241416 0.241416 0.241416
0.254801 0.254801 0.254801
0.268453 0.268453 0.268453
0.282350 0.282350 0.282350
0.296462 0.296462 0.296462
0.310761 0.310761 0.310761
0.325217 0.325217 0.325217
0.339802 0.339802 0.339802
0.354487 0.354487 0.354487
0.369242 0.369242 0.369242
0.384036 0.384036 0.384036
0.398839 0.398839 0.398839
0.413621 0.413621 0.413621
0.428353 0.428353 0.428353
0.443004 0.443004 0.443004
0.457549 0.457549 0.457549
0.103624 0.103624 0.103624
0.109125 0.109125 0.109125
0.114660 0.114660 0.114660
0.120235 0.120235 0.120235
0.125847 0.125847 0.125847
0.131499 0.131499 0.131499
0.137192 0.137192 0.137192
0.142925 0.142925 0.142925
0.148705 0.148705 0.148705
0.154526 0.154526 0.154526
0.160394 0.160394 0.160394
0.172269 0.172269 0.172269
0.184345 0.184345 0.184345
0.196628 0.196628 0.196628
0.209129 0.209129 0.209129
0.221859 0.221859 0.221859
0.234829 0.234829 0.234829
0.248072 0.248072 0.248072
0.261596 0.261596 0.261596
0.275375 0.275375 0.275375
0.289381 0.289381 0.289381
0.303589 0.303589 0.303589
0.317969 0.317969 0.317969
0.332495 0.332495 0.332495
0.347134 0.347134 0.347134
0.361858 0.361858 0.361858
0.376636 0.376636 0.376636
0.391438 0.391438 0.391438
0.406234 0.406234 0.406234
0.420995 0.420995 0.420995
0.435690 0.435690 0.435690
0.450290 0.450290 0.450290
0.464790 0.464790 0.464790
0.114660 0.114660 0.114660
0.120235 0.120235 0.120235
0.125847 0.125847 0.125847
0.131499 0.131499 0.131499
0.137192 0.137192 0.137192
0.142925 0.142925 0.142925
0.148705 0.148705 0.148705
0.154526 0.154526 0.154526
0.160394 0.160394 0.160394
0.166309 0.166309 0.166309
0.172269 0.172269 0.172269
0.178283 0.178283 0.178283
0.190460 0.190460 0.190460
0.202848 0.202848 0.202848
0.215464 0.215464 0.215464
0.228315 0.228315 0.228315
0.241416 0.241416 0.241416
0.254801 0.254801 0.254801
0.268453 0.268453 0.268453
0.282350 0.282350 0.282350
0.296462 0.296462 0.296462
0.310761 0.310761 0.310761
0.325217 0.325217 0.325217
0.339802 0.339802 0.339802
0.354487 0.354487 0.354487
0.369242 0.369242 0.369242
0.384036 0.384036 0.384036
0.398839 0.398839 0.398839
0.413621 0.413621 0.413621
0.428353 0.428353 0.428353
0.443004 0.443004 0.443004
0.457549 0.457549 0.457549
0.472008 0.472008 0.472008
0.125847 0.125847 0.125847
0.131499 0.131499 0.131499
0.137192 0.137192 0.137192
0.142925 0.142925 0.142925
0.148705 0.148705 0.148705
0.154526 0.154526 0.154526
0.160394 0.160394 0.160394
0.166309 0.166309 0.166309
0.172269 0.172269 0.172269
0.178283 0.178283 0.178283
0.184345 0.184345 0.184345
0.190460 0.190460 0.190460
0.196628 0.196628 0.196628
0.209129 0.209129 0.209129
0.221859 0.221859 0.221859
0.234829 0.234829 0.234829
0.248072 0.248072 0.248072
0.261596 0.261596 0.261596
0.275375 0.275375 0.275375
0.289381 0.289381 0.289381
0.303589 0.303589 0.303589
0.317969 0.317969 0.317969
0.332495 0.332495 0.332495
0.347134 0.347134 0.347134
0.361858 0.361858 0.361858
0.376636 0.376636 0.376636
0.391438 0.391438 0.391438
0.406234 0.406234 0.406234
0.420995 0.420995 0.420995
0.435690 0.435690 0.435690
0.450290 0.450290 0.450290
0.464790 0.464790 0.464790
0.479204 0.479204 0.479204
0.137192 0.137192 0.137192
0.142925 0.142925 0.142925
0.148705 0.148705 0.148705
0.154526 0.154526 0.154526
0.160394 0.160394 0.160394
0.166309 0.166309 0.166309
0.172269 0.172269 0.172269
0.178283 0.178283 0.178283
0.184345 0.184345 0.184345
0.190460 0.190460 0.190460
0.196628 0.196628 0.196628
0.202848 0.202848 0.202848
0.209129 0.209129 0.209129
0.215464 0.215464 0.215464
0.228315 0.228315 0.228315
0.241416 0.241416 0.241416
0.254801 0.254801 0.254801
0.268453 0.268453 0.268453
0.282350 0.282350 0.282350
0.296462 0.296462 0.296462
0.310761 0.310761 0.310761
0.325217 0.325217 0.325217
0.339802 0.339802 0.339802
0.354487 0.354487 0.354487
0.369242 0.369242 0.369242
0.384036 0.384036 0.384036
0.398839 0.398839 0.398839
0.413621 0.413621 0.413621
0.428353 0.428353 0.428353
0.443004 0.443004 0.443004
0.457549 0.457549 0.457549
0.472008 0.472008 0.472008
0.486372 0.486372 0.486372
0.148705 0.148705 0.148705
0.154526 0.154526 0.154526
0.160394 0.160394 0.160394
0.166309 0.166309 0.166309
0.172269 0.172269 0.172269
0.178283 0.178283 0.178283
0.184345 0.184345 0.184345
0.190460 0.190460 0.190460
0.196628 0.196628 0.196628
0.202848 0.202848 0.202848
0.209129 0.209129 0.209129
0.215464 0.215464 0.215464
0.221859 0.221859 0.221859
0.228315 0.228315 0.228315
0.234829 0.234829 0.234829
0.248072 0.248072 0.248072
0.261596 0.261596 0.261596
0.275375 0.275375 0.275375
0.289381 0.289381 0.289381
0.303589 0.303589 0.303589
0.317969 0.317969 0.317969
0.332495 0.332495 0.332495
0.347134 0.347134 0.347134
0.361858 0.361858 0.361858
0.376636 0.376636 0.376636
0.391438 0.391438 0.391438
0.406234 0.406234 0.406234
0.420995 0.420995 0.420995
0.435690 0.435690 0.435690
0.450290 0.450290 0.450290
0.464790 0.464790 0.464790
0.479204 0.479204 0.479204
0.493511 0.493511 0.493511
0.160394 0.160394 0.160394
0.166309 0.166309 0.166309
0.172269 0.172269 0.172269
0.178283 0.178283 0.178283
0.184345 0.184345 0.184345
0.190460 0.190460 0.190460
0.196628 0.196628 0.196628
0.202848 0.202848 0.202848
0.209129 0.209129 0.209129
0.215464 0.215464 0.215464
0.221859 0.221859 0.221859
0.228315 0.228315 0.228315
0.234829 0.234829 0.234829
0.241416 0.241416 0.241416
0.248072 0.248072 0.248072
0.254801 0.254801 0.254801
0.268453 0.268453 0.268453
0.282350 0.282350 0.282350
0.296462 0.296462 0.296462
0.310761 0.310761 0.310761
0.325217 0.325217 0.325217
0.339802 0.339802 0.339802
0.354487 0.354487 0.354487
0.369242 0.369242 0.369242
0.384036 0.384036 0.384036
0.398839 0.398839 0.398839
0.413621 0.413621 0.413621
0.428353 0.428353 0.428353
0.443004 0.443004 0.443004
0.457549 0.457549 0.457549
0.472008 0.472008 0.472008
0.486372 0.486372 0.486372
0.500618 0.500618 0.500618
0.172269 0.172269 0.172269
0.178283 0.178283 0.178283
0.184345 0.184345 0.184345
0.190460 0.190460 0.190460
0.196628 0.196628 0.196628
0.202848 0.202848 0.202848
0.209129 0.209129 0.209129
0.215464 0.215464 0.215464
0.221859 0.221859 0.221859
0.228315 0.228315 0.228315
0.234829 0.234829 0.234829
0.241416 0.241416 0.241416
0.248072 0.248072 0.248072
0.254801 0.254801 0.254801
0.261596 0.261596 0.261596
0.268453 0.268453 0.268453
0.275375 0.275375 0.275375
0.289381 0.289381 0.289381
0.303589 0.303589 0.303589
0.317969 0.317969 0.317969
0.332495 0.332495 0.332495
0.347134 0.347134 0.347134
0.361858 0.361858 0.361858
0.376636 0.376636 0.376636
0.391438 0.391438 0.391438
0.406234 0.406234 0.406234
0.420995 0.420995 0.420995
0.435690 0.435690 0.435690
0.450290 0.450290 0.450290
0.464790 0.464790 0.464790
0.479204 0.479204 0.479204
0.493511 0.493511 0.493511
0.507687 0.507687 0.507687
0.184345 0.184345 0.184345
0.190460 0.190460 0.190460
0.196628 0.196628 0.196628
0.202848 0.202848 0.202848
0.209129 0.209129 0.209129
0.215464 0.215464 0.215464
0.221859 0.221859 0.221859
0.228315 0.228315 0.228315
0.234829 0.234829 0.234829
0.241416 0.241416 0.241416
0.248072 0.248072 0.248072
0.254801 0.254801 0.254801
0.261596 0.261596 0.261596
0.268453 0.268453 0.268453
0.275375 0.275375 0.275375
0.282350 0.282350 0.282350
0.289381 0.289381 0.289381
0.296462 0.296462 0.296462
0.310761 0.310761 0.310761
0.325217 0.325217 0.325217
0.339802 0.339802 0.339802
0.354487 0.354487 0.354487
0.369242 0.369242 0.369242
0.384036 0.384036 0.384036
0.398839 0.398839 0.398839
0.413621 0.413621 0.413621
0.428353 0.428353 0.428353
0.443004 0.443004 0.443004
0.457549 0.457549 0.457549
0.472008 0.472008 0.472008
0.486372 0.486372 0.486372
0.500618 0.500618 0.500618
0.514735 0.514735 0.514735
0.196628 0.196628 0.196628
0.202848 0.202848 0.202848
0.209129 0.209129 0.209129
0.215464 0.215464 0.215464
0.221859 0.221859 0.221859
0.228315 0.228315 0.228315
0.234829 0.234829 0.234829
0.241416 0.241416 0.241416
0.248072 0.248072 0.248072
0.254801 0.254801 0.254801
0.261596 0.261596 0.261596
0.268453 0.268453 0.268453
0.275375 0.275375 0.275375
0.282350 0.282350 0.282350
0.289381 0.289381 0.289381
0.296462 0.296462 0.296462
0.303589 0.303589 0.303589
0.310761 0.310761 0.310761
0.317969 0.317969 0.317969
0.332495 0.332495 0.332495
0.347134 0.347134 0.347134
0.361858 0.361858 0.361858
0.376636 0.376636 0.376636
0.391438 0.391438 0.391438
0.406234 0.406234 0.406234
0.420995 0.420995 0.420995
0.435690 0.435690 0.435690
0.450290 0.450290 0.450290
0.464790 0.464790 0.464790
0.479204 0.479204 0.479204
0.493511 0.493511 0.493511
0.507687 0.507687 0.507687
0.521796 0.521796 0.521796
0.209129 0.209129 0.209129
0.215464 0.215464 0.215464
0.221859 0.221859 0.221859
0.228315 0.228315 0.228315
0.234829 0.234829 0.234829
0.241416 0.241416 0.241416
0.248072 0.248072 0.248072
0.254801 0.254801 0.254801
0.261596 0.261596 0.261596
0.268453 0.268453 0.268453
0.275375 0.275375 0.275375
0.282350 0.282350 0.282350
0.289381 0.289381 0.289381
0.296462 0.296462 0.296462
0.303589 0.303589 0.303589
0.310761 0.310761 0.310761
0.317969 0.317969 0.317969
0.325217 0.325217 0.325217
0.332495 0.332495 0.332495
0.339802 0.339802 0.339802
0.354487 0.354487 0.354487
0.369242 0.369242 0.369242
0.384036 0.384036 0.384036
0.398839 0.398839 0.398839
0.413621 0.413621 0.413621
0.428353 0.428353 0.428353
0.443004 0.443004 0.443004
0.457549 0.457549 0.457549
0.472008 0.472008 0.472008
0.486372 0.486372 0.486372
0.500618 0.500618 0.500618
0.514735 0.514735 0.514735
0.528871 0.528871 0.528871
0.221859 0.221859 0.221859
0.228315 0.228315 0.228315
0.234829 0.234829 0.234829
0.241416 0.241416 0.241416
0.248072 0.248072 0.248072
0.254801 0.254801 0.254801
0.261596 0.261596 0.261596
0.268453 0.268453 0.268453
0.275375 0.275375 0.275375
0.282350 0.282350 0.282350
0.289381 0.289381 0.289381
0.296462 0.296462 0.296462
0.303589 0.303589 0.303589
0.310761 0.310761 0.310761
0.317969 0.317969 0.317969
0.325217 0.325217 0.325217
0.332495 0.332495 0.332495
0.339802 0.339802 0.339802
0.347134 0.347134 0.347134
0.354487 0.354487 0.354487
0.361858 0.361858 0.361858
0.376636 0.376636 0.376636
0.391438 0.391438 0.391438
0.406234 0.406234 0.406234
0.420995 0.420995 0.420995
0.435690 0.435690 0.435690
0.450290 0.450290 0.450290
0.464790 0.464790 0.464790
0.479204 0.479204 0.479204
0.493511 0.493511 0.493511
0.507687 0.507687 0.507687
0.521796 0.521796 0.521796
0.535959 0.535959 0.535959
0.234829 0.234829 0.234829
0.241416 0.241416 0.241416
0.248072 0.248072 0.248072
0.254801 0.254801 0.254801
0.261596 0.261596 0.261596
0.268453 0.268453 0.268453
0.275375 0.275375 0.275375
0.282350 0.282350 0.282350
0.289381 0.289381 0.289381
0.296462 0.296462 0.296462
0.303589 0.303589 0.303589
0.310761 0.310761 0.310761
0.317969 0.317969 0.317969
0.325217 0.325217 0.325217
0.332495 0.332495 0.332495
0.339802 0.339802 0.339802
0.347134 0.347134 0.347134
0.354487 0.354487 0.354487
0.361858 0.361858 0.361858
0.369242 0.369242 0.369242
0.376636 0.376636 0.376636
0.384036 0.384036 0.384036
0.398839 0.398839 0.398839
0.413621 0.413621 0.413621
0.428353 0.428353 0.428353
0.443004 0.443004 0.443004
0.457549 0.457549 0.457549
0.472008 0.472008 0.472008
0.486372 0.486372 0.486372
0.500618 0.500618 0.500618
0.514735 0.514735 0.514735
0.528871 0.528871 0.528871
0.543058 0.543058 0.543058
0.248072 0.248072 0.248072
0.254801 0.254801 0.254801
0.261596 0.261596 0.261596
0.268453 0.268453 0.268453
0.275375 0.275375 0.275375
0.282350 0.282350 0.282350
0.289381 0.289381 0.289381
0.296462 0.296462 0.296462
0.303589 0.303589 0.303589
0.310761 0.310761 0.310761
0.317969 0.317969 0.317969
0.325217 0.325217 0.325217
0.332495 0.332495 0.332495
0.339802 0.339802 0.339802
0.347134 0.347134 0.347134
0.354487 0.354487 0.354487
0.361858 0.361858 0.361858
0.369242 0.369242 0.369242
0.376636 0.376636 0.376636
0.384036 0.384036 0.384036
0.391438 0.391438 0.391438
0.398839 0.398839 0.398839
0.406234 0.406234 0.406234
0.420995 0.420995 0.420995
0.435690 0.435690 0.435690
0.450290 0.450290 0.450290
0.464790 0.464790 0.464790
0.479204 0.479204 0.479204
0.493511 0.493511 0.493511
0.507687 0.507687 0.507687
0.521796 0.521796 0.521796
0.535959 0.535959 0.535959
0.550164 0.550164 0.550164
0.261596 0.261596 0.261596
0.268453 0.268453 0.268453
0.275375 0.275375 0.275375
0.282350 0.282350 0.282350
0.289381 0.289381 0.289381
0.296462 0.296462 0.296462
0.303589 0.303589 0.303589
0.310761 0.310761 0.310761
0.317969 0.317969 0.317969
0.325217 0.325217 0.325217
0.332495 0.332495 0.332495
0.339802 0.339802 0.339802
0.347134 0.347134 0.347134
0.354487 0.354487 0.354487
0.361858 0.361858 0.361858
0.369242 0.369242 0.369242
0.376636 0.376636 0.376636
0.384036 0.384036 0.384036
0.391438 0.391438 0.391438
0.398839 0.398839 0.398839
0.406234 0.406234 0.406234
0.413621 0.413621 0.413621
0.420995 0.420995 0.420995
0.428353 0.428353 0.428353
0.443004 0.443004 0.443004
0.457549 0.457549 0.457549
0.472008 0.472008 0.472008
0.486372 0.486372 0.486372
0.500618 0.500618 0.500618
0.514735 0.514735 0.514735
0.528871 0.528871 0.528871
0.543058 0.543058 0.543058
0.557278 0.557278 0.557278
0.275375 0.275375 0.275375
0.282350 0.282350 0.282350
0.289381 0.289381 0.289381
0.296462 0.296462 0.296462
0.303589 0.303589 0.303589
0.310761 0.310761 0.310761
0.317969 0.317969 0.317969
0.325217 0.325217 0.325217
0.332495 0.332495 0.332495
0.339802 0.339802 0.339802
0.347134 0.347134 0.347134
0.354487 0.354487 0.354487
0.361858 0.361858 0.361858
0.369242 0.369242 0.369242
0.376636 0.376636 0.376636
0.384036 0.384036 0.384036
0.391438 0.391438 0.391438
0.398839 0.398839 0.398839
0.406234 0.406234 0.406234
0.413621 0.413621 0.413621
0.420995 0.420995 0.420995
0.428353 0.428353 0.428353
0.435690 0.435690 0.435690
0.443004 0.443004 0.443004
0.450290 0.450290 0.450290
0.464790 0.464790 0.464790
0.479204 0.479204 0.479204
0.493511 0.493511 0.493511
0.507687 0.507687 0.507687
0.521796 0.521796 0.521796
0.535959 0.535959 0.535959
0.550164 0.550164 0.550164
0.564396 0.564396 0.564396
0.289381 0.289381 0.289381
0.296462 0.296462 0.296462
0.303589 0.303589 0.303589
0.310761 0.310761 0.310761
0.317969 0.317969 0.317969
0.325217 0.325217 0.325217
0.332495 0.332495 0.332495
0.339802 0.339802 0.339802
0.347134 0.347134 0.347134
0.354487 0.354487 0.354487
0.361858 0.361858 0.361858
0.369242 0.369242 0.369242
0.376636 0.376636 0.376636
0.384036 0.384036 0.384036
0.391438 0.391438 0.391438
0.398839 0.398839 0.398839
0.406234 0.406234 0.406234
0.413621 0.413621 0.413621
0.420995 0.420995 0.420995
0.428353 0.428353 0.428353
0.435690 0.435690 0.435690
0.443004 0.443004 0.443004
0.450290 0.450290 0.450290
0.457549 0.457549 0.457549
0.464790 0.464790 0.464790
0.472008 0.472008 0.472008
0.486372 0.486372 0.486372
0.500618 0.500618 0.500618
0.514735 0.514735 0.514735
0.528871 0.528871 0.528871
0.543058 0.543058 0.543058
0.557278 0.557278 0.557278
0.571522 0.571522 0.571522
0.303589 0.303589 0.303589
0.310761 0.310761 0.310761
0.317969 0.317969 0.317969
0.325217 0.325217 0.325217
0.332495 0.332495 0.332495
0.339802 0.339802 0.339802
0.347134 0.347134 0.347134
0.354487 0.354487 0.354487
0.361858 0.361858 0.361858
0.369242 0.369242 0.369242
0.376636 0.376636 0.376636
0.384036 0.384036 0.384036
0.391438 0.391438 0.391438
0.398839 0.398839 0.398839
0.406234 0.406234 0.406234
0.413621 0.413621 0.413621
0.420995 0.420995 0.420995
0.428353 0.428353 0.428353
0.435690 0.435690 0.435690
0.443004 0.443004 0.443004
0.450290 0.450290 0.450290
0.457549 0.457549 0.457549
