ricette/lut/Nebbia-400-33.cube
# LUT generata da Camera Oscura BN
# Ricetta: Nebbia 400
# Pellicola: hp5
# Nota: grana, vignetta e interventi locali non sono inclusi nella LUT.
TITLE "Nebbia 400"
LUT_3D_SIZE 33
DOMAIN_MIN 0.0 0.0 0.0
DOMAIN_MAX 1.0 1.0 1.0
0.015686 0.015686 0.015686
0.024401 0.024401 0.024401
0.033115 0.033115 0.033115
0.041862 0.041862 0.041862
0.050681 0.050681 0.050681
0.059614 0.059614 0.059614
0.068707 0.068707 0.068707
0.078010 0.078010 0.078010
0.087571 0.087571 0.087571
0.097443 0.097443 0.097443
0.107685 0.107685 0.107685
0.118357 0.118357 0.118357
0.129533 0.129533 0.129533
0.141194 0.141194 0.141194
0.153280 0.153280 0.153280
0.165730 0.165730 0.165730
0.178476 0.178476 0.178476
0.191454 0.191454 0.191454
0.204587 0.204587 0.204587
0.217799 0.217799 0.217799
0.231015 0.231015 0.231015
0.244157 0.244157 0.244157
0.257288 0.257288 0.257288
0.270491 0.270491 0.270491
0.283759 0.283759 0.283759
0.297085 0.297085 0.297085
0.310464 0.310464 0.310464
0.323889 0.323889 0.323889
0.337353 0.337353 0.337353
0.350850 0.350850 0.350850
0.364373 0.364373 0.364373
0.377914 0.377914 0.377914
0.391468 0.391468 0.391468
0.024401 0.024401 0.024401
0.028756 0.028756 0.028756
0.037481 0.037481 0.037481
0.046259 0.046259 0.046259
0.055131 0.055131 0.055131
0.064139 0.064139 0.064139
0.073330 0.073330 0.073330
0.082752 0.082752 0.082752
0.092462 0.092462 0.092462
0.102515 0.102515 0.102515
0.112967 0.112967 0.112967
0.123883 0.123883 0.123883
0.135305 0.135305 0.135305
0.147184 0.147184 0.147184
0.159463 0.159463 0.159463
0.172072 0.172072 0.172072
0.184943 0.184943 0.184943
0.198006 0.198006 0.198006
0.211187 0.211187 0.211187
0.224411 0.224411 0.224411
0.237599 0.237599 0.237599
0.250714 0.250714 0.250714
0.263881 0.263881 0.263881
0.277117 0.277117 0.277117
0.290415 0.290415 0.290415
0.303769 0.303769 0.303769
0.317171 0.317171 0.317171
0.330617 0.330617 0.330617
0.344098 0.344098 0.344098
0.357608 0.357608 0.357608
0.371141 0.371141 0.371141
0.384690 0.384690 0.384690
0.398247 0.398247 0.398247
0.033115 0.033115 0.033115
0.037481 0.037481 0.037481
0.041862 0.041862 0.041862
0.050681 0.050681 0.050681
0.059614 0.059614 0.059614
0.068707 0.068707 0.068707
0.078010 0.078010 0.078010
0.087571 0.087571 0.087571
0.097443 0.097443 0.097443
0.107685 0.107685 0.107685
0.118357 0.118357 0.118357
0.129533 0.129533 0.129533
0.141194 0.141194 0.141194
0.153280 0.153280 0.153280
0.165730 0.165730 0.165730
0.178476 0.178476 0.178476
0.191454 0.191454 0.191454
0.204587 0.204587 0.204587
0.217799 0.217799 0.217799
0.231015 0.231015 0.231015
0.244157 0.244157 0.244157
0.257288 0.257288 0.257288
0.270491 0.270491 0.270491
0.283759 0.283759 0.283759
0.297085 0.297085 0.297085
0.310464 0.310464 0.310464
0.323889 0.323889 0.323889
0.337353 0.337353 0.337353
0.350850 0.350850 0.350850
0.364373 0.364373 0.364373
0.377914 0.377914 0.377914
0.391468 0.391468 0.391468
0.405026 0.405026 0.405026
0.041862 0.041862 0.041862
0.046259 0.046259 0.046259
0.050681 0.050681 0.050681
0.055131 0.055131 0.055131
0.064139 0.064139 0.064139
0.073330 0.073330 0.073330
0.082752 0.082752 0.082752
0.092462 0.092462 0.092462
0.102515 0.102515 0.102515
0.112967 0.112967 0.112967
0.123883 0.123883 0.123883
0.135305 0.135305 0.135305
0.147184 0.147184 0.147184
0.159463 0.159463 0.159463
0.172072 0.172072 0.172072
0.184943 0.184943 0.184943
0.198006 0.198006 0.198006
0.211187 0.211187 0.211187
0.224411 0.224411 0.224411
0.237599 0.237599 0.237599
0.250714 0.250714 0.250714
0.263881 0.263881 0.263881
0.277117 0.277117 0.277117
0.290415 0.290415 0.290415
0.303769 0.303769 0.303769
0.317171 0.317171 0.317171
0.330617 0.330617 0.330617
0.344098 0.344098 0.344098
0.357608 0.357608 0.357608
0.371141 0.371141 0.371141
0.384690 0.384690 0.384690
0.398247 0.398247 0.398247
0.411805 0.411805 0.411805
0.050681 0.050681 0.050681
0.055131 0.055131 0.055131
0.059614 0.059614 0.059614
0.064139 0.064139 0.064139
0.068707 0.068707 0.068707
0.078010 0.078010 0.078010
0.087571 0.087571 0.087571
0.097443 0.097443 0.097443
0.107685 0.107685 0.107685
0.118357 0.118357 0.118357
0.129533 0.129533 0.129533
0.141194 0.141194 0.141194
0.153280 0.153280 0.153280
0.165730 0.165730 0.165730
0.178476 0.178476 0.178476
0.191454 0.191454 0.191454
0.204587 0.204587 0.204587
0.217799 0.217799 0.217799
0.231015 0.231015 0.231015
0.244157 0.244157 0.244157
0.257288 0.257288 0.257288
0.270491 0.270491 0.270491
0.283759 0.283759 0.283759
0.297085 0.297085 0.297085
0.310464 0.310464 0.310464
0.323889 0.323889 0.323889
0.337353 0.337353 0.337353
0.350850 0.350850 0.350850
0.364373 0.364373 0.364373
0.377914 0.377914 0.377914
0.391468 0.391468 0.391468
0.405026 0.405026 0.405026
0.418583 0.418583 0.418583
0.059614 0.059614 0.059614
0.064139 0.064139 0.064139
0.068707 0.068707 0.068707
0.073330 0.073330 0.073330
0.078010 0.078010 0.078010
0.082752 0.082752 0.082752
0.092462 0.092462 0.092462
0.102515 0.102515 0.102515
0.112967 0.112967 0.112967
0.123883 0.123883 0.123883
0.135305 0.135305 0.135305
0.147184 0.147184 0.147184
0.159463 0.159463 0.159463
0.172072 0.172072 0.172072
0.184943 0.184943 0.184943
0.198006 0.198006 0.198006
0.211187 0.211187 0.211187
0.224411 0.224411 0.224411
0.237599 0.237599 0.237599
0.250714 0.250714 0.250714
0.263881 0.263881 0.263881
0.277117 0.277117 0.277117
0.290415 0.290415 0.290415
0.303769 0.303769 0.303769
0.317171 0.317171 0.317171
0.330617 0.330617 0.330617
0.344098 0.344098 0.344098
0.357608 0.357608 0.357608
0.371141 0.371141 0.371141
0.384690 0.384690 0.384690
0.398247 0.398247 0.398247
0.411805 0.411805 0.411805
0.425358 0.425358 0.425358
0.068707 0.068707 0.068707
0.073330 0.073330 0.073330
0.078010 0.078010 0.078010
0.082752 0.082752 0.082752
0.087571 0.087571 0.087571
0.092462 0.092462 0.092462
0.097443 0.097443 0.097443
0.107685 0.107685 0.107685
0.118357 0.118357 0.118357
0.129533 0.129533 0.129533
0.141194 0.141194 0.141194
0.153280 0.153280 0.153280
0.165730 0.165730 0.165730
0.178476 0.178476 0.178476
0.191454 0.191454 0.191454
0.204587 0.204587 0.204587
0.217799 0.217799 0.217799
0.231015 0.231015 0.231015
0.244157 0.244157 0.244157
0.257288 0.257288 0.257288
0.270491 0.270491 0.270491
0.283759 0.283759 0.283759
0.297085 0.297085 0.297085
0.310464 0.310464 0.310464
0.323889 0.323889 0.323889
0.337353 0.337353 0.337353
0.350850 0.350850 0.350850
0.364373 0.364373 0.364373
0.377914 0.377914 0.377914
0.391468 0.391468 0.391468
0.405026 0.405026 0.405026
0.418583 0.418583 0.418583
0.432130 0.432130 0.432130
0.078010 0.078010 0.078010
0.082752 0.082752 0.082752
0.087571 0.087571 0.087571
0.092462 0.092462 0.092462
0.097443 0.097443 0.097443
0.102515 0.102515 0.102515
0.107685 0.107685 0.107685
0.112967 0.112967 0.112967
0.123883 0.123883 0.123883
0.135305 0.135305 0.135305
0.147184 0.147184 0.147184
0.159463 0.159463 0.159463
0.172072 0.172072 0.172072
0.184943 0.184943 0.184943
0.198006 0.198006 0.198006
0.211187 0.211187 0.211187
0.224411 0.224411 0.224411
0.237599 0.237599 0.237599
0.250714 0.250714 0.250714
0.263881 0.263881 0.263881
0.277117 0.277117 0.277117
0.290415 0.290415 0.290415
0.303769 0.303769 0.303769
0.317171 0.317171 0.317171
0.330617 0.330617 0.330617
0.344098 0.344098 0.344098
0.357608 0.357608 0.357608
0.371141 0.371141 0.371141
0.384690 0.384690 0.384690
0.398247 0.398247 0.398247
0.411805 0.411805 0.411805
0.425358 0.425358 0.425358
0.438899 0.438899 0.438899
0.087571 0.087571 0.087571
0.092462 0.092462 0.092462
0.097443 0.097443 0.097443
0.102515 0.102515 0.102515
0.107685 0.107685 0.107685
0.112967 0.112967 0.112967
0.118357 0.118357 0.118357
0.123883 0.123883 0.123883
0.129533 0.129533 0.129533
0.141194 0.141194 0.141194
0.153280 0.153280 0.153280
0.165730 0.165730 0.165730
0.178476 0.178476 0.178476
0.191454 0.191454 0.191454
0.204587 0.204587 0.204587
0.217799 0.217799 0.217799
0.231015 0.231015 0.231015
0.244157 0.244157 0.244157
0.257288 0.257288 0.257288
0.270491 0.270491 0.270491
0.283759 0.283759 0.283759
0.297085 0.297085 0.297085
0.310464 0.310464 0.310464
0.323889 0.323889 0.323889
0.337353 0.337353 0.337353
0.350850 0.350850 0.350850
0.364373 0.364373 0.364373
0.377914 0.377914 0.377914
0.391468 0.391468 0.391468
0.405026 0.405026 0.405026
0.418583 0.418583 0.418583
0.432130 0.432130 0.432130
0.445662 0.445662 0.445662
0.097443 0.097443 0.097443
0.102515 0.102515 0.102515
0.107685 0.107685 0.107685
0.112967 0.112967 0.112967
0.118357 0.118357 0.118357
0.123883 0.123883 0.123883
0.129533 0.129533 0.129533
0.135305 0.135305 0.135305
0.141194 0.141194 0.141194
0.147184 0.147184 0.147184
0.159463 0.159463 0.159463
0.172072 0.172072 0.172072
0.184943 0.184943 0.184943
0.198006 0.198006 0.198006
0.211187 0.211187 0.211187
0.224411 0.224411 0.224411
0.237599 0.237599 0.237599
0.250714 0.250714 0.250714
0.263881 0.263881 0.263881
0.277117 0.277117 0.277117
0.290415 0.290415 0.290415
0.303769 0.303769 0.303769
0.317171 0.317171 0.317171
0.330617 0.330617 0.330617
0.344098 0.344098 0.344098
0.357608 0.357608 0.357608
0.371141 0.371141 0.371141
0.384690 0.384690 0.384690
0.398247 0.398247 0.398247
0.411805 0.411805 0.411805
0.425358 0.425358 0.425358
0.438899 0.438899 0.438899
0.452423 0.452423 0.452423
0.107685 0.107685 0.107685
0.112967 0.112967 0.112967
0.118357 0.118357 0.118357
0.123883 0.123883 0.123883
0.129533 0.129533 0.129533
0.135305 0.135305 0.135305
0.141194 0.141194 0.141194
0.147184 0.147184 0.147184
0.153280 0.153280 0.153280
0.159463 0.159463 0.159463
0.165730 0.165730 0.165730
0.178476 0.178476 0.178476
0.191454 0.191454 0.191454
0.204587 0.204587 0.204587
0.217799 0.217799 0.217799
0.231015 0.231015 0.231015
0.244157 0.244157 0.244157
0.257288 0.257288 0.257288
0.270491 0.270491 0.270491
0.283759 0.283759 0.283759
0.297085 0.297085 0.297085
0.310464 0.310464 0.310464
0.323889 0.323889 0.323889
0.337353 0.337353 0.337353
0.350850 0.350850 0.350850
0.364373 0.364373 0.364373
0.377914 0.377914 0.377914
0.391468 0.391468 0.391468
0.405026 0.405026 0.405026
0.418583 0.418583 0.418583
0.432130 0.432130 0.432130
0.445662 0.445662 0.445662
0.459189 0.459189 0.459189
0.118357 0.118357 0.118357
0.123883 0.123883 0.123883
0.129533 0.129533 0.129533
0.135305 0.135305 0.135305
0.141194 0.141194 0.141194
0.147184 0.147184 0.147184
0.153280 0.153280 0.153280
0.159463 0.159463 0.159463
0.165730 0.165730 0.165730
0.172072 0.172072 0.172072
0.178476 0.178476 0.178476
0.184943 0.184943 0.184943
0.198006 0.198006 0.198006
0.211187 0.211187 0.211187
0.224411 0.224411 0.224411
0.237599 0.237599 0.237599
0.250714 0.250714 0.250714
0.263881 0.263881 0.263881
0.277117 0.277117 0.277117
0.290415 0.290415 0.290415
0.303769 0.303769 0.303769
0.317171 0.317171 0.317171
0.330617 0.330617 0.330617
0.344098 0.344098 0.344098
0.357608 0.357608 0.357608
0.371141 0.371141 0.371141
0.384690 0.384690 0.384690
0.398247 0.398247 0.398247
0.411805 0.411805 0.411805
0.425358 0.425358 0.425358
0.438899 0.438899 0.438899
0.452423 0.452423 0.452423
0.465962 0.465962 0.465962
0.129533 0.129533 0.129533
0.135305 0.135305 0.135305
0.141194 0.141194 0.141194
0.147184 0.147184 0.147184
0.153280 0.153280 0.153280
0.159463 0.159463 0.159463
0.165730 0.165730 0.165730
0.172072 0.172072 0.172072
0.178476 0.178476 0.178476
0.184943 0.184943 0.184943
0.191454 0.191454 0.191454
0.198006 0.198006 0.198006
0.204587 0.204587 0.204587
0.217799 0.217799 0.217799
0.231015 0.231015 0.231015
0.244157 0.244157 0.244157
0.257288 0.257288 0.257288
0.270491 0.270491 0.270491
0.283759 0.283759 0.283759
0.297085 0.297085 0.297085
0.310464 0.310464 0.310464
0.323889 0.323889 0.323889
0.337353 0.337353 0.337353
0.350850 0.350850 0.350850
0.364373 0.364373 0.364373
0.377914 0.377914 0.377914
0.391468 0.391468 0.391468
0.405026 0.405026 0.405026
0.418583 0.418583 0.418583
0.432130 0.432130 0.432130
0.445662 0.445662 0.445662
0.459189 0.459189 0.459189
0.472740 0.472740 0.472740
0.141194 0.141194 0.141194
0.147184 0.147184 0.147184
0.153280 0.153280 0.153280
0.159463 0.159463 0.159463
0.165730 0.165730 0.165730
0.172072 0.172072 0.172072
0.178476 0.178476 0.178476
0.184943 0.184943 0.184943
0.191454 0.191454 0.191454
0.198006 0.198006 0.198006
0.204587 0.204587 0.204587
0.211187 0.211187 0.211187
0.217799 0.217799 0.217799
0.224411 0.224411 0.224411
0.237599 0.237599 0.237599
0.250714 0.250714 0.250714
0.263881 0.263881 0.263881
0.277117 0.277117 0.277117
0.290415 0.290415 0.290415
0.303769 0.303769 0.303769
0.317171 0.317171 0.317171
0.330617 0.330617 0.330617
0.344098 0.344098 0.344098
0.357608 0.357608 0.357608
0.371141 0.371141 0.371141
0.384690 0.384690 0.384690
0.398247 0.398247 0.398247
0.411805 0.411805 0.411805
0.425358 0.425358 0.425358
0.438899 0.438899 0.438899
0.452423 0.452423 0.452423
0.465962 0.465962 0.465962
0.479525 0.479525 0.479525
0.153280 0.153280 0.153280
0.159463 0.159463 0.159463
0.165730 0.165730 0.165730
0.172072 0.172072 0.172072
0.178476 0.178476 0.178476
0.184943 0.184943 0.184943
0.191454 0.191454 0.191454
0.198006 0.198006 0.198006
0.204587 0.204587 0.204587
0.211187 0.211187 0.211187
0.217799 0.217799 0.217799
0.224411 0.224411 0.224411
0.231015 0.231015 0.231015
0.237599 0.237599 0.237599
0.244157 0.244157 0.244157
0.257288 0.257288 0.257288
0.270491 0.270491 0.270491
0.283759 0.283759 0.283759
0.297085 0.297085 0.297085
0.310464 0.310464 0.310464
0.323889 0.323889 0.323889
0.337353 0.337353 0.337353
0.350850 0.350850 0.350850
0.364373 0.364373 0.364373
0.377914 0.377914 0.377914
0.391468 0.391468 0.391468
0.405026 0.405026 0.405026
0.418583 0.418583 0.418583
0.432130 0.432130 0.432130
0.445662 0.445662 0.445662
0.459189 0.459189 0.459189
0.472740 0.472740 0.472740
0.486315 0.486315 0.486315
0.165730 0.165730 0.165730
0.172072 0.172072 0.172072
0.178476 0.178476 0.178476
0.184943 0.184943 0.184943
0.191454 0.191454 0.191454
0.198006 0.198006 0.198006
0.204587 0.204587 0.204587
0.211187 0.211187 0.211187
0.217799 0.217799 0.217799
0.224411 0.224411 0.224411
0.231015 0.231015 0.231015
0.237599 0.237599 0.237599
0.244157 0.244157 0.244157
0.250714 0.250714 0.250714
0.257288 0.257288 0.257288
0.263881 0.263881 0.263881
0.277117 0.277117 0.277117
0.290415 0.290415 0.290415
0.303769 0.303769 0.303769
0.317171 0.317171 0.317171
0.330617 0.330617 0.330617
0.344098 0.344098 0.344098
0.357608 0.357608 0.357608
0.371141 0.371141 0.371141
0.384690 0.384690 0.384690
0.398247 0.398247 0.398247
0.411805 0.411805 0.411805
0.425358 0.425358 0.425358
0.438899 0.438899 0.438899
0.452423 0.452423 0.452423
0.465962 0.465962 0.465962
0.479525 0.479525 0.479525
0.493109 0.493109 0.493109
0.178476 0.178476 0.178476
0.184943 0.184943 0.184943
0.191454 0.191454 0.191454
0.198006 0.198006 0.198006
0.204587 0.204587 0.204587
0.211187 0.211187 0.211187
0.217799 0.217799 0.217799
0.224411 0.224411 0.224411
0.231015 0.231015 0.231015
0.237599 0.237599 0.237599
0.244157 0.244157 0.244157
0.250714 0.250714 0.250714
0.257288 0.257288 0.257288
0.263881 0.263881 0.263881
0.270491 0.270491 0.270491
0.277117 0.277117 0.277117
0.283759 0.283759 0.283759
0.297085 0.297085 0.297085
0.310464 0.310464 0.310464
0.323889 0.323889 0.323889
0.337353 0.337353 0.337353
0.350850 0.350850 0.350850
0.364373 0.364373 0.364373
0.377914 0.377914 0.377914
0.391468 0.391468 0.391468
0.405026 0.405026 0.405026
0.418583 0.418583 0.418583
0.432130 0.432130 0.432130
0.445662 0.445662 0.445662
0.459189 0.459189 0.459189
0.472740 0.472740 0.472740
0.486315 0.486315 0.486315
0.499909 0.499909 0.499909
0.191454 0.191454 0.191454
0.198006 0.198006 0.198006
0.204587 0.204587 0.204587
0.211187 0.211187 0.211187
0.217799 0.217799 0.217799
0.224411 0.224411 0.224411
0.231015 0.231015 0.231015
0.237599 0.237599 0.237599
0.244157 0.244157 0.244157
0.250714 0.250714 0.250714
0.257288 0.257288 0.257288
0.263881 0.263881 0.263881
0.270491 0.270491 0.270491
0.277117 0.277117 0.277117
0.283759 0.283759 0.283759
0.290415 0.290415 0.290415
0.297085 0.297085 0.297085
0.303769 0.303769 0.303769
0.317171 0.317171 0.317171
0.330617 0.330617 0.330617
0.344098 0.344098 0.344098
0.357608 0.357608 0.357608
0.371141 0.371141 0.371141
0.384690 0.384690 0.384690
0.398247 0.398247 0.398247
0.411805 0.411805 0.411805
0.425358 0.425358 0.425358
0.438899 0.438899 0.438899
0.452423 0.452423 0.452423
0.465962 0.465962 0.465962
0.479525 0.479525 0.479525
0.493109 0.493109 0.493109
0.506724 0.506724 0.506724
0.204587 0.204587 0.204587
0.211187 0.211187 0.211187
0.217799 0.217799 0.217799
0.224411 0.224411 0.224411
0.231015 0.231015 0.231015
0.237599 0.237599 0.237599
0.244157 0.244157 0.244157
0.250714 0.250714 0.250714
0.257288 0.257288 0.257288
0.263881 0.263881 0.263881
0.270491 0.270491 0.270491
0.277117 0.277117 0.277117
0.283759 0.283759 0.283759
0.290415 0.290415 0.290415
0.297085 0.297085 0.297085
0.303769 0.303769 0.303769
0.310464 0.310464 0.310464
0.317171 0.317171 0.317171
0.323889 0.323889 0.323889
0.337353 0.337353 0.337353
0.350850 0.350850 0.350850
0.364373 0.364373 0.364373
0.377914 0.377914 0.377914
0.391468 0.391468 0.391468
0.405026 0.405026 0.405026
0.418583 0.418583 0.418583
0.432130 0.432130 0.432130
0.445662 0.445662 0.445662
0.459189 0.459189 0.459189
0.472740 0.472740 0.472740
0.486315 0.486315 0.486315
0.499909 0.499909 0.499909
0.513584 0.513584 0.513584
0.217799 0.217799 0.217799
0.224411 0.224411 0.224411
0.231015 0.231015 0.231015
0.237599 0.237599 0.237599
0.244157 0.244157 0.244157
0.250714 0.250714 0.250714
0.257288 0.257288 0.257288
0.263881 0.263881 0.263881
0.270491 0.270491 0.270491
0.277117 0.277117 0.277117
0.283759 0.283759 0.283759
0.290415 0.290415 0.290415
0.297085 0.297085 0.297085
0.303769 0.303769 0.303769
0.310464 0.310464 0.310464
0.317171 0.317171 0.317171
0.323889 0.323889 0.323889
0.330617 0.330617 0.330617
0.337353 0.337353 0.337353
0.344098 0.344098 0.344098
0.357608 0.357608 0.357608
0.371141 0.371141 0.371141
0.384690 0.384690 0.384690
0.398247 0.398247 0.398247
0.411805 0.411805 0.411805
0.425358 0.425358 0.425358
0.438899 0.438899 0.438899
0.452423 0.452423 0.452423
0.465962 0.465962 0.465962
0.479525 0.479525 0.479525
0.493109 0.493109 0.493109
0.506724 0.506724 0.506724
0.520486 0.520486 0.520486
0.231015 0.231015 0.231015
0.237599 0.237599 0.237599
0.244157 0.244157 0.244157
0.250714 0.250714 0.250714
0.257288 0.257288 0.257288
0.263881 0.263881 0.263881
0.270491 0.270491 0.270491
0.277117 0.277117 0.277117
0.283759 0.283759 0.283759
0.290415 0.290415 0.290415
0.297085 0.297085 0.297085
0.303769 0.303769 0.303769
0.310464 0.310464 0.310464
0.317171 0.317171 0.317171
0.323889 0.323889 0.323889
0.330617 0.330617 0.330617
0.337353 0.337353 0.337353
0.344098 0.344098 0.344098
0.350850 0.350850 0.350850
0.357608 0.357608 0.357608
0.364373 0.364373 0.364373
0.377914 0.377914 0.377914
0.391468 0.391468 0.391468
0.405026 0.405026 0.405026
0.418583 0.418583 0.418583
0.432130 0.432130 0.432130
0.445662 0.445662 0.445662
0.459189 0.459189 0.459189
0.472740 0.472740 0.472740
0.486315 0.486315 0.486315
0.499909 0.499909 0.499909
0.513584 0.513584 0.513584
0.527426 0.527426 0.527426
0.244157 0.244157 0.244157
0.250714 0.250714 0.250714
0.257288 0.257288 0.257288
0.263881 0.263881 0.263881
0.270491 0.270491 0.270491
0.277117 0.277117 0.277117
0.283759 0.283759 0.283759
0.290415 0.290415 0.290415
0.297085 0.297085 0.297085
0.303769 0.303769 0.303769
0.310464 0.310464 0.310464
0.317171 0.317171 0.317171
0.323889 0.323889 0.323889
0.330617 0.330617 0.330617
0.337353 0.337353 0.337353
0.344098 0.344098 0.344098
0.350850 0.350850 0.350850
0.357608 0.357608 0.357608
0.364373 0.364373 0.364373
0.371141 0.371141 0.371141
0.377914 0.377914 0.377914
0.384690 0.384690 0.384690
0.398247 0.398247 0.398247
0.411805 0.411805 0.411805
0.425358 0.425358 0.425358
0.438899 0.438899 0.438899
0.452423 0.452423 0.452423
0.465962 0.465962 0.465962
0.479525 0.479525 0.479525
0.493109 0.493109 0.493109
0.506724 0.506724 0.506724
0.520486 0.520486 0.520486
0.534403 0.534403 0.534403
0.257288 0.257288 0.257288
0.263881 0.263881 0.263881
0.270491 0.270491 0.270491
0.277117 0.277117 0.277117
0.283759 0.283759 0.283759
0.290415 0.290415 0.290415
0.297085 0.297085 0.297085
0.303769 0.303769 0.303769
0.310464 0.310464 0.310464
0.317171 0.317171 0.317171
0.323889 0.323889 0.323889
0.330617 0.330617 0.330617
0.337353 0.337353 0.337353
0.344098 0.344098 0.344098
0.350850 0.350850 0.350850
0.357608 0.357608 0.357608
0.364373 0.364373 0.364373
0.371141 0.371141 0.371141
0.377914 0.377914 0.377914
0.384690 0.384690 0.384690
0.391468 0.391468 0.391468
0.398247 0.398247 0.398247
0.405026 0.405026 0.405026
0.418583 0.418583 0.418583
0.432130 0.432130 0.432130
0.445662 0.445662 0.445662
0.459189 0.459189 0.459189
0.472740 0.472740 0.472740
0.486315 0.486315 0.486315
0.499909 0.499909 0.499909
0.513584 0.513584 0.513584
0.527426 0.527426 0.527426
0.541410 0.541410 0.541410
0.270491 0.270491 0.270491
0.277117 0.277117 0.277117
0.283759 0.283759 0.283759
0.290415 0.290415 0.290415
0.297085 0.297085 0.297085
0.303769 0.303769 0.303769
0.310464 0.310464 0.310464
0.317171 0.317171 0.317171
0.323889 0.323889 0.323889
0.330617 0.330617 0.330617
0.337353 0.337353 0.337353
0.344098 0.344098 0.344098
0.350850 0.350850 0.350850
0.357608 0.357608 0.357608
0.364373 0.364373 0.364373
0.371141 0.371141 0.371141
0.377914 0.377914 0.377914
0.384690 0.384690 0.384690
0.391468 0.391468 0.391468
0.398247 0.398247 0.398247
0.405026 0.405026 0.405026
0.411805 0.411805 0.411805
0.418583 0.418583 0.418583
0.425358 0.425358 0.425358
0.438899 0.438899 0.438899
0.452423 0.452423 0.452423
0.465962 0.465962 0.465962
0.479525 0.479525 0.479525
0.493109 0.493109 0.493109
0.506724 0.506724 0.506724
0.520486 0.520486 0.520486
0.534403 0.534403 0.534403
0.548447 0.548447 0.548447
0.283759 0.283759 0.283759
0.290415 0.290415 0.290415
0.297085 0.297085 0.297085
0.303769 0.303769 0.303769
0.310464 0.310464 0.310464
0.317171 0.317171 0.317171
0.323889 0.323889 0.323889
0.330617 0.330617 0.330617
0.337353 0.337353 0.337353
0.344098 0.344098 0.344098
0.350850 0.350850 0.350850
0.357608 0.357608 0.357608
0.364373 0.364373 0.364373
0.371141 0.371141 0.371141
0.377914 0.377914 0.377914
0.384690 0.384690 0.384690
0.391468 0.391468 0.391468
0.398247 0.398247 0.398247
0.405026 0.405026 0.405026
0.411805 0.411805 0.411805
0.418583 0.418583 0.418583
0.425358 0.425358 0.425358
0.432130 0.432130 0.432130
0.438899 0.438899 0.438899
0.445662 0.445662 0.445662
0.459189 0.459189 0.459189
0.472740 0.472740 0.472740
0.486315 0.486315 0.486315
0.499909 0.499909 0.499909
0.513584 0.513584 0.513584
0.527426 0.527426 0.527426
0.541410 0.541410 0.541410
0.555509 0.555509 0.555509
0.297085 0.297085 0.297085
0.303769 0.303769 0.303769
0.310464 0.310464 0.310464
0.317171 0.317171 0.317171
0.323889 0.323889 0.323889
0.330617 0.330617 0.330617
0.337353 0.337353 0.337353
0.344098 0.344098 0.344098
0.350850 0.350850 0.350850
0.357608 0.357608 0.357608
0.364373 0.364373 0.364373
0.371141 0.371141 0.371141
0.377914 0.377914 0.377914
0.384690 0.384690 0.384690
0.391468 0.391468 0.391468
0.398247 0.398247 0.398247
0.405026 0.405026 0.405026
0.411805 0.411805 0.411805
0.418583 0.418583 0.418583
0.425358 0.425358 0.425358
0.432130 0.432130 0.432130
0.438899 0.438899 0.438899
0.445662 0.445662 0.445662
0.452423 0.452423 0.452423
0.459189 0.459189 0.459189
0.465962 0.465962 0.465962
0.479525 0.479525 0.479525
0.493109 0.493109 0.493109
0.506724 0.506724 0.506724
0.520486 0.520486 0.520486
0.534403 0.534403 0.534403
0.548447 0.548447 0.548447
0.562607 0.562607 0.562607
0.310464 0.310464 0.310464
0.317171 0.317171 0.317171
0.323889 0.323889 0.323889
0.330617 0.330617 0.330617
0.337353 0.337353 0.337353
0.344098 0.344098 0.344098
0.350850 0.350850 0.350850
0.357608 0.357608 0.357608
0.364373 0.364373 0.364373
0.371141 0.371141 0.371141
0.377914 0.377914 0.377914
0.384690 0.384690 0.384690
0.391468 0.391468 0.391468
0.398247 0.398247 0.398247
0.405026 0.405026 0.405026
0.411805 0.411805 0.411805
0.418583 0.418583 0.418583
0.425358 0.425358 0.425358
0.432130 0.432130 0.432130
0.438899 0.438899 0.438899
0.445662 0.445662 0.445662
0.452423 0.452423 0.452423
