ricette/lut/Nebbia-400-33.cube
# LUT generata da Camera Oscura BN
# Ricetta: Nebbia 400
# Pellicola: hp5
# Nota: grana, vignetta e interventi locali non sono inclusi nella LUT.
TITLE "Nebbia 400"
LUT_3D_SIZE 5
DOMAIN_MIN 0.0 0.0 0.0
DOMAIN_MAX 1.0 1.0 1.0
0.015686 0.015686 0.015686
0.087571 0.087571 0.087571
0.178476 0.178476 0.178476
0.283759 0.283759 0.283759
0.391468 0.391468 0.391468
0.087571 0.087571 0.087571
0.129533 0.129533 0.129533
0.231015 0.231015 0.231015
0.337353 0.337353 0.337353
0.445662 0.445662 0.445662
0.178476 0.178476 0.178476
0.231015 0.231015 0.231015
0.283759 0.283759 0.283759
0.391468 0.391468 0.391468
0.499909 0.499909 0.499909
0.283759 0.283759 0.283759
0.337353 0.337353 0.337353
0.391468 0.391468 0.391468
0.445662 0.445662 0.445662
0.555509 0.555509 0.555509
0.391468 0.391468 0.391468
0.445662 0.445662 0.445662
0.499909 0.499909 0.499909
0.555509 0.555509 0.555509
0.613054 0.613054 0.613054
0.050681 0.050681 0.050681
0.178476 0.178476 0.178476
0.283759 0.283759 0.283759
0.391468 0.391468 0.391468
0.499909 0.499909 0.499909
0.129533 0.129533 0.129533
0.231015 0.231015 0.231015
0.337353 0.337353 0.337353
0.445662 0.445662 0.445662
0.555509 0.555509 0.555509
0.231015 0.231015 0.231015
0.337353 0.337353 0.337353
0.391468 0.391468 0.391468
0.499909 0.499909 0.499909
0.613054 0.613054 0.613054
0.337353 0.337353 0.337353
0.445662 0.445662 0.445662
0.499909 0.499909 0.499909
0.555509 0.555509 0.555509
0.670860 0.670860 0.670860
0.445662 0.445662 0.445662
0.555509 0.555509 0.555509
0.613054 0.613054 0.613054
0.670860 0.670860 0.670860
0.726510 0.726510 0.726510
0.087571 0.087571 0.087571
0.231015 0.231015 0.231015
0.391468 0.391468 0.391468
0.499909 0.499909 0.499909
0.613054 0.613054 0.613054
0.178476 0.178476 0.178476
0.283759 0.283759 0.283759
0.445662 0.445662 0.445662
0.555509 0.555509 0.555509
0.670860 0.670860 0.670860
0.283759 0.283759 0.283759
0.391468 0.391468 0.391468
0.499909 0.499909 0.499909
0.613054 0.613054 0.613054
0.726510 0.726510 0.726510
0.391468 0.391468 0.391468
0.499909 0.499909 0.499909
0.613054 0.613054 0.613054
0.670860 0.670860 0.670860
0.777723 0.777723 0.777723
0.499909 0.499909 0.499909
0.613054 0.613054 0.613054
0.726510 0.726510 0.726510
0.777723 0.777723 0.777723
0.824060 0.824060 0.824060
0.129533 0.129533 0.129533
0.283759 0.283759 0.283759
0.445662 0.445662 0.445662
0.613054 0.613054 0.613054
0.726510 0.726510 0.726510
0.231015 0.231015 0.231015
0.337353 0.337353 0.337353
0.499909 0.499909 0.499909
0.670860 0.670860 0.670860
0.777723 0.777723 0.777723
0.337353 0.337353 0.337353
0.445662 0.445662 0.445662
0.555509 0.555509 0.555509
0.726510 0.726510 0.726510
0.824060 0.824060 0.824060
0.445662 0.445662 0.445662
0.555509 0.555509 0.555509
0.670860 0.670860 0.670860
0.777723 0.777723 0.777723
0.866668 0.866668 0.866668
0.555509 0.555509 0.555509
0.670860 0.670860 0.670860
0.777723 0.777723 0.777723
0.866668 0.866668 0.866668
0.906469 0.906469 0.906469
0.178476 0.178476 0.178476
0.337353 0.337353 0.337353
0.499909 0.499909 0.499909
0.670860 0.670860 0.670860
0.824060 0.824060 0.824060
0.283759 0.283759 0.283759
0.391468 0.391468 0.391468
0.555509 0.555509 0.555509
0.726510 0.726510 0.726510
0.866668 0.866668 0.866668
0.391468 0.391468 0.391468
0.499909 0.499909 0.499909
0.613054 0.613054 0.613054
0.777723 0.777723 0.777723
0.906469 0.906469 0.906469
0.499909 0.499909 0.499909
0.613054 0.613054 0.613054
0.726510 0.726510 0.726510
0.824060 0.824060 0.824060
0.944204 0.944204 0.944204
0.613054 0.613054 0.613054
0.726510 0.726510 0.726510
0.824060 0.824060 0.824060
0.906469 0.906469 0.906469
0.980392 0.980392 0.980392
