ricette/lut/Nebbia-400-33.cube
# LUT generata da Camera Oscura BN
# Ricetta: Nebbia 400
# Pellicola: hp5
# Nota: grana, vignetta e interventi locali non sono inclusi nella LUT.
TITLE "Nebbia 400"
LUT_3D_SIZE 9
DOMAIN_MIN 0.0 0.0 0.0
DOMAIN_MAX 1.0 1.0 1.0
0.015686 0.015686 0.015686
0.050681 0.050681 0.050681
0.087571 0.087571 0.087571
0.129533 0.129533 0.129533
0.178476 0.178476 0.178476
0.231015 0.231015 0.231015
0.283759 0.283759 0.283759
0.337353 0.337353 0.337353
0.391468 0.391468 0.391468
0.050681 0.050681 0.050681
0.068707 0.068707 0.068707
0.107685 0.107685 0.107685
0.153280 0.153280 0.153280
0.204587 0.204587 0.204587
0.257288 0.257288 0.257288
0.310464 0.310464 0.310464
0.364373 0.364373 0.364373
0.418583 0.418583 0.418583
0.087571 0.087571 0.087571
0.107685 0.107685 0.107685
0.129533 0.129533 0.129533
0.178476 0.178476 0.178476
0.231015 0.231015 0.231015
0.283759 0.283759 0.283759
0.337353 0.337353 0.337353
0.391468 0.391468 0.391468
0.445662 0.445662 0.445662
0.129533 0.129533 0.129533
0.153280 0.153280 0.153280
0.178476 0.178476 0.178476
0.204587 0.204587 0.204587
0.257288 0.257288 0.257288
0.310464 0.310464 0.310464
0.364373 0.364373 0.364373
0.418583 0.418583 0.418583
0.472740 0.472740 0.472740
0.178476 0.178476 0.178476
0.204587 0.204587 0.204587
0.231015 0.231015 0.231015
0.257288 0.257288 0.257288
0.283759 0.283759 0.283759
0.337353 0.337353 0.337353
0.391468 0.391468 0.391468
0.445662 0.445662 0.445662
0.499909 0.499909 0.499909
0.231015 0.231015 0.231015
0.257288 0.257288 0.257288
0.283759 0.283759 0.283759
0.310464 0.310464 0.310464
0.337353 0.337353 0.337353
0.364373 0.364373 0.364373
0.418583 0.418583 0.418583
0.472740 0.472740 0.472740
0.527426 0.527426 0.527426
0.283759 0.283759 0.283759
0.310464 0.310464 0.310464
0.337353 0.337353 0.337353
0.364373 0.364373 0.364373
0.391468 0.391468 0.391468
0.418583 0.418583 0.418583
0.445662 0.445662 0.445662
0.499909 0.499909 0.499909
0.555509 0.555509 0.555509
0.337353 0.337353 0.337353
0.364373 0.364373 0.364373
0.391468 0.391468 0.391468
0.418583 0.418583 0.418583
0.445662 0.445662 0.445662
0.472740 0.472740 0.472740
0.499909 0.499909 0.499909
0.527426 0.527426 0.527426
0.584100 0.584100 0.584100
0.391468 0.391468 0.391468
0.418583 0.418583 0.418583
0.445662 0.445662 0.445662
0.472740 0.472740 0.472740
0.499909 0.499909 0.499909
0.527426 0.527426 0.527426
0.555509 0.555509 0.555509
0.584100 0.584100 0.584100
0.613054 0.613054 0.613054
0.033115 0.033115 0.033115
0.087571 0.087571 0.087571
0.129533 0.129533 0.129533
0.178476 0.178476 0.178476
0.231015 0.231015 0.231015
0.283759 0.283759 0.283759
0.337353 0.337353 0.337353
0.391468 0.391468 0.391468
0.445662 0.445662 0.445662
0.068707 0.068707 0.068707
0.107685 0.107685 0.107685
0.153280 0.153280 0.153280
0.204587 0.204587 0.204587
0.257288 0.257288 0.257288
0.310464 0.310464 0.310464
0.364373 0.364373 0.364373
0.418583 0.418583 0.418583
0.472740 0.472740 0.472740
0.107685 0.107685 0.107685
0.153280 0.153280 0.153280
0.178476 0.178476 0.178476
0.231015 0.231015 0.231015
0.283759 0.283759 0.283759
0.337353 0.337353 0.337353
0.391468 0.391468 0.391468
0.445662 0.445662 0.445662
0.499909 0.499909 0.499909
0.153280 0.153280 0.153280
0.204587 0.204587 0.204587
0.231015 0.231015 0.231015
0.257288 0.257288 0.257288
0.310464 0.310464 0.310464
0.364373 0.364373 0.364373
0.418583 0.418583 0.418583
0.472740 0.472740 0.472740
0.527426 0.527426 0.527426
0.204587 0.204587 0.204587
0.257288 0.257288 0.257288
0.283759 0.283759 0.283759
0.310464 0.310464 0.310464
0.337353 0.337353 0.337353
0.391468 0.391468 0.391468
0.445662 0.445662 0.445662
0.499909 0.499909 0.499909
0.555509 0.555509 0.555509
0.257288 0.257288 0.257288
0.310464 0.310464 0.310464
0.337353 0.337353 0.337353
0.364373 0.364373 0.364373
0.391468 0.391468 0.391468
0.418583 0.418583 0.418583
0.472740 0.472740 0.472740
0.527426 0.527426 0.527426
0.584100 0.584100 0.584100
0.310464 0.310464 0.310464
0.364373 0.364373 0.364373
0.391468 0.391468 0.391468
0.418583 0.418583 0.418583
0.445662 0.445662 0.445662
0.472740 0.472740 0.472740
0.499909 0.499909 0.499909
0.555509 0.555509 0.555509
0.613054 0.613054 0.613054
0.364373 0.364373 0.364373
0.418583 0.418583 0.418583
0.445662 0.445662 0.445662
0.472740 0.472740 0.472740
0.499909 0.499909 0.499909
0.527426 0.527426 0.527426
0.555509 0.555509 0.555509
0.584100 0.584100 0.584100
0.642075 0.642075 0.642075
0.418583 0.418583 0.418583
0.472740 0.472740 0.472740
0.499909 0.499909 0.499909
0.527426 0.527426 0.527426
0.555509 0.555509 0.555509
0.584100 0.584100 0.584100
0.613054 0.613054 0.613054
0.642075 0.642075 0.642075
0.670860 0.670860 0.670860
0.050681 0.050681 0.050681
0.107685 0.107685 0.107685
0.178476 0.178476 0.178476
0.231015 0.231015 0.231015
0.283759 0.283759 0.283759
0.337353 0.337353 0.337353
0.391468 0.391468 0.391468
0.445662 0.445662 0.445662
0.499909 0.499909 0.499909
0.087571 0.087571 0.087571
0.129533 0.129533 0.129533
0.204587 0.204587 0.204587
0.257288 0.257288 0.257288
0.310464 0.310464 0.310464
0.364373 0.364373 0.364373
0.418583 0.418583 0.418583
0.472740 0.472740 0.472740
0.527426 0.527426 0.527426
0.129533 0.129533 0.129533
0.178476 0.178476 0.178476
0.231015 0.231015 0.231015
0.283759 0.283759 0.283759
0.337353 0.337353 0.337353
0.391468 0.391468 0.391468
0.445662 0.445662 0.445662
0.499909 0.499909 0.499909
0.555509 0.555509 0.555509
0.178476 0.178476 0.178476
0.231015 0.231015 0.231015
0.283759 0.283759 0.283759
0.310464 0.310464 0.310464
0.364373 0.364373 0.364373
0.418583 0.418583 0.418583
0.472740 0.472740 0.472740
0.527426 0.527426 0.527426
0.584100 0.584100 0.584100
0.231015 0.231015 0.231015
0.283759 0.283759 0.283759
0.337353 0.337353 0.337353
0.364373 0.364373 0.364373
0.391468 0.391468 0.391468
0.445662 0.445662 0.445662
0.499909 0.499909 0.499909
0.555509 0.555509 0.555509
0.613054 0.613054 0.613054
0.283759 0.283759 0.283759
0.337353 0.337353 0.337353
0.391468 0.391468 0.391468
0.418583 0.418583 0.418583
0.445662 0.445662 0.445662
0.472740 0.472740 0.472740
0.527426 0.527426 0.527426
0.584100 0.584100 0.584100
0.642075 0.642075 0.642075
0.337353 0.337353 0.337353
0.391468 0.391468 0.391468
0.445662 0.445662 0.445662
0.472740 0.472740 0.472740
0.499909 0.499909 0.499909
0.527426 0.527426 0.527426
0.555509 0.555509 0.555509
0.613054 0.613054 0.613054
0.670860 0.670860 0.670860
0.391468 0.391468 0.391468
0.445662 0.445662 0.445662
0.499909 0.499909 0.499909
0.527426 0.527426 0.527426
0.555509 0.555509 0.555509
0.584100 0.584100 0.584100
0.613054 0.613054 0.613054
0.642075 0.642075 0.642075
0.699105 0.699105 0.699105
0.445662 0.445662 0.445662
0.499909 0.499909 0.499909
0.555509 0.555509 0.555509
0.584100 0.584100 0.584100
0.613054 0.613054 0.613054
0.642075 0.642075 0.642075
0.670860 0.670860 0.670860
0.699105 0.699105 0.699105
0.726510 0.726510 0.726510
0.068707 0.068707 0.068707
0.129533 0.129533 0.129533
0.204587 0.204587 0.204587
0.283759 0.283759 0.283759
0.337353 0.337353 0.337353
0.391468 0.391468 0.391468
0.445662 0.445662 0.445662
0.499909 0.499909 0.499909
0.555509 0.555509 0.555509
0.107685 0.107685 0.107685
0.153280 0.153280 0.153280
0.231015 0.231015 0.231015
0.310464 0.310464 0.310464
0.364373 0.364373 0.364373
0.418583 0.418583 0.418583
0.472740 0.472740 0.472740
0.527426 0.527426 0.527426
0.584100 0.584100 0.584100
0.153280 0.153280 0.153280
0.204587 0.204587 0.204587
0.257288 0.257288 0.257288
0.337353 0.337353 0.337353
0.391468 0.391468 0.391468
0.445662 0.445662 0.445662
0.499909 0.499909 0.499909
0.555509 0.555509 0.555509
0.613054 0.613054 0.613054
0.204587 0.204587 0.204587
0.257288 0.257288 0.257288
0.310464 0.310464 0.310464
0.364373 0.364373 0.364373
0.418583 0.418583 0.418583
0.472740 0.472740 0.472740
0.527426 0.527426 0.527426
0.584100 0.584100 0.584100
0.642075 0.642075 0.642075
0.257288 0.257288 0.257288
0.310464 0.310464 0.310464
0.364373 0.364373 0.364373
0.418583 0.418583 0.418583
0.445662 0.445662 0.445662
0.499909 0.499909 0.499909
0.555509 0.555509 0.555509
0.613054 0.613054 0.613054
0.670860 0.670860 0.670860
0.310464 0.310464 0.310464
0.364373 0.364373 0.364373
0.418583 0.418583 0.418583
0.472740 0.472740 0.472740
0.499909 0.499909 0.499909
0.527426 0.527426 0.527426
0.584100 0.584100 0.584100
0.642075 0.642075 0.642075
0.699105 0.699105 0.699105
0.364373 0.364373 0.364373
0.418583 0.418583 0.418583
0.472740 0.472740 0.472740
0.527426 0.527426 0.527426
0.555509 0.555509 0.555509
0.584100 0.584100 0.584100
0.613054 0.613054 0.613054
0.670860 0.670860 0.670860
0.726510 0.726510 0.726510
0.418583 0.418583 0.418583
0.472740 0.472740 0.472740
0.527426 0.527426 0.527426
0.584100 0.584100 0.584100
0.613054 0.613054 0.613054
0.642075 0.642075 0.642075
0.670860 0.670860 0.670860
0.699105 0.699105 0.699105
0.752799 0.752799 0.752799
0.472740 0.472740 0.472740
0.527426 0.527426 0.527426
0.584100 0.584100 0.584100
0.642075 0.642075 0.642075
0.670860 0.670860 0.670860
0.699105 0.699105 0.699105
0.726510 0.726510 0.726510
0.752799 0.752799 0.752799
0.777723 0.777723 0.777723
0.087571 0.087571 0.087571
0.153280 0.153280 0.153280
0.231015 0.231015 0.231015
0.310464 0.310464 0.310464
0.391468 0.391468 0.391468
0.445662 0.445662 0.445662
0.499909 0.499909 0.499909
0.555509 0.555509 0.555509
0.613054 0.613054 0.613054
0.129533 0.129533 0.129533
0.178476 0.178476 0.178476
0.257288 0.257288 0.257288
0.337353 0.337353 0.337353
0.418583 0.418583 0.418583
0.472740 0.472740 0.472740
0.527426 0.527426 0.527426
0.584100 0.584100 0.584100
0.642075 0.642075 0.642075
0.178476 0.178476 0.178476
0.231015 0.231015 0.231015
0.283759 0.283759 0.283759
0.364373 0.364373 0.364373
0.445662 0.445662 0.445662
0.499909 0.499909 0.499909
0.555509 0.555509 0.555509
0.613054 0.613054 0.613054
0.670860 0.670860 0.670860
0.231015 0.231015 0.231015
0.283759 0.283759 0.283759
0.337353 0.337353 0.337353
0.391468 0.391468 0.391468
0.472740 0.472740 0.472740
0.527426 0.527426 0.527426
0.584100 0.584100 0.584100
0.642075 0.642075 0.642075
0.699105 0.699105 0.699105
0.283759 0.283759 0.283759
0.337353 0.337353 0.337353
0.391468 0.391468 0.391468
0.445662 0.445662 0.445662
0.499909 0.499909 0.499909
0.555509 0.555509 0.555509
0.613054 0.613054 0.613054
0.670860 0.670860 0.670860
0.726510 0.726510 0.726510
0.337353 0.337353 0.337353
0.391468 0.391468 0.391468
0.445662 0.445662 0.445662
0.499909 0.499909 0.499909
0.555509 0.555509 0.555509
0.584100 0.584100 0.584100
0.642075 0.642075 0.642075
0.699105 0.699105 0.699105
0.752799 0.752799 0.752799
0.391468 0.391468 0.391468
0.445662 0.445662 0.445662
0.499909 0.499909 0.499909
0.555509 0.555509 0.555509
0.613054 0.613054 0.613054
0.642075 0.642075 0.642075
0.670860 0.670860 0.670860
0.726510 0.726510 0.726510
0.777723 0.777723 0.777723
0.445662 0.445662 0.445662
0.499909 0.499909 0.499909
0.555509 0.555509 0.555509
0.613054 0.613054 0.613054
0.670860 0.670860 0.670860
0.699105 0.699105 0.699105
0.726510 0.726510 0.726510
0.752799 0.752799 0.752799
0.801418 0.801418 0.801418
0.499909 0.499909 0.499909
0.555509 0.555509 0.555509
0.613054 0.613054 0.613054
0.670860 0.670860 0.670860
0.726510 0.726510 0.726510
0.752799 0.752799 0.752799
0.777723 0.777723 0.777723
0.801418 0.801418 0.801418
0.824060 0.824060 0.824060
0.107685 0.107685 0.107685
0.178476 0.178476 0.178476
0.257288 0.257288 0.257288
0.337353 0.337353 0.337353
0.418583 0.418583 0.418583
0.499909 0.499909 0.499909
0.555509 0.555509 0.555509
0.613054 0.613054 0.613054
0.670860 0.670860 0.670860
0.153280 0.153280 0.153280
0.204587 0.204587 0.204587
0.283759 0.283759 0.283759
0.364373 0.364373 0.364373
0.445662 0.445662 0.445662
0.527426 0.527426 0.527426
0.584100 0.584100 0.584100
0.642075 0.642075 0.642075
0.699105 0.699105 0.699105
0.204587 0.204587 0.204587
0.257288 0.257288 0.257288
0.310464 0.310464 0.310464
0.391468 0.391468 0.391468
0.472740 0.472740 0.472740
0.555509 0.555509 0.555509
0.613054 0.613054 0.613054
0.670860 0.670860 0.670860
0.726510 0.726510 0.726510
0.257288 0.257288 0.257288
0.310464 0.310464 0.310464
0.364373 0.364373 0.364373
0.418583 0.418583 0.418583
0.499909 0.499909 0.499909
0.584100 0.584100 0.584100
0.642075 0.642075 0.642075
0.699105 0.699105 0.699105
0.752799 0.752799 0.752799
0.310464 0.310464 0.310464
0.364373 0.364373 0.364373
0.418583 0.418583 0.418583
0.472740 0.472740 0.472740
0.527426 0.527426 0.527426
0.613054 0.613054 0.613054
0.670860 0.670860 0.670860
0.726510 0.726510 0.726510
0.777723 0.777723 0.777723
0.364373 0.364373 0.364373
0.418583 0.418583 0.418583
0.472740 0.472740 0.472740
0.527426 0.527426 0.527426
0.584100 0.584100 0.584100
0.642075 0.642075 0.642075
0.699105 0.699105 0.699105
0.752799 0.752799 0.752799
0.801418 0.801418 0.801418
0.418583 0.418583 0.418583
0.472740 0.472740 0.472740
0.527426 0.527426 0.527426
0.584100 0.584100 0.584100
0.642075 0.642075 0.642075
0.699105 0.699105 0.699105
0.726510 0.726510 0.726510
0.777723 0.777723 0.777723
0.824060 0.824060 0.824060
0.472740 0.472740 0.472740
0.527426 0.527426 0.527426
0.584100 0.584100 0.584100
0.642075 0.642075 0.642075
0.699105 0.699105 0.699105
0.752799 0.752799 0.752799
0.777723 0.777723 0.777723
0.801418 0.801418 0.801418
0.845768 0.845768 0.845768
0.527426 0.527426 0.527426
0.584100 0.584100 0.584100
0.642075 0.642075 0.642075
0.699105 0.699105 0.699105
0.752799 0.752799 0.752799
0.801418 0.801418 0.801418
0.824060 0.824060 0.824060
0.845768 0.845768 0.845768
0.866668 0.866668 0.866668
0.129533 0.129533 0.129533
0.204587 0.204587 0.204587
0.283759 0.283759 0.283759
0.364373 0.364373 0.364373
0.445662 0.445662 0.445662
0.527426 0.527426 0.527426
0.613054 0.613054 0.613054
0.670860 0.670860 0.670860
0.726510 0.726510 0.726510
0.178476 0.178476 0.178476
0.231015 0.231015 0.231015
0.310464 0.310464 0.310464
0.391468 0.391468 0.391468
0.472740 0.472740 0.472740
0.555509 0.555509 0.555509
0.642075 0.642075 0.642075
0.699105 0.699105 0.699105
0.752799 0.752799 0.752799
0.231015 0.231015 0.231015
0.283759 0.283759 0.283759
0.337353 0.337353 0.337353
0.418583 0.418583 0.418583
0.499909 0.499909 0.499909
0.584100 0.584100 0.584100
0.670860 0.670860 0.670860
0.726510 0.726510 0.726510
0.777723 0.777723 0.777723
0.283759 0.283759 0.283759
0.337353 0.337353 0.337353
0.391468 0.391468 0.391468
0.445662 0.445662 0.445662
0.527426 0.527426 0.527426
0.613054 0.613054 0.613054
0.699105 0.699105 0.699105
0.752799 0.752799 0.752799
0.801418 0.801418 0.801418
0.337353 0.337353 0.337353
0.391468 0.391468 0.391468
0.445662 0.445662 0.445662
0.499909 0.499909 0.499909
0.555509 0.555509 0.555509
0.642075 0.642075 0.642075
0.726510 0.726510 0.726510
0.777723 0.777723 0.777723
0.824060 0.824060 0.824060
0.391468 0.391468 0.391468
0.445662 0.445662 0.445662
0.499909 0.499909 0.499909
0.555509 0.555509 0.555509
0.613054 0.613054 0.613054
0.670860 0.670860 0.670860
0.752799 0.752799 0.752799
0.801418 0.801418 0.801418
0.845768 0.845768 0.845768
0.445662 0.445662 0.445662
0.499909 0.499909 0.499909
0.555509 0.555509 0.555509
0.613054 0.613054 0.613054
0.670860 0.670860 0.670860
0.726510 0.726510 0.726510
0.777723 0.777723 0.777723
0.824060 0.824060 0.824060
0.866668 0.866668 0.866668
0.499909 0.499909 0.499909
0.555509 0.555509 0.555509
0.613054 0.613054 0.613054
0.670860 0.670860 0.670860
0.726510 0.726510 0.726510
0.777723 0.777723 0.777723
0.824060 0.824060 0.824060
0.845768 0.845768 0.845768
0.886869 0.886869 0.886869
0.555509 0.555509 0.555509
0.613054 0.613054 0.613054
0.670860 0.670860 0.670860
0.726510 0.726510 0.726510
0.777723 0.777723 0.777723
0.824060 0.824060 0.824060
0.866668 0.866668 0.866668
0.886869 0.886869 0.886869
0.906469 0.906469 0.906469
0.153280 0.153280 0.153280
0.231015 0.231015 0.231015
0.310464 0.310464 0.310464
0.391468 0.391468 0.391468
0.472740 0.472740 0.472740
0.555509 0.555509 0.555509
0.642075 0.642075 0.642075
0.726510 0.726510 0.726510
0.777723 0.777723 0.777723
0.204587 0.204587 0.204587
0.257288 0.257288 0.257288
0.337353 0.337353 0.337353
0.418583 0.418583 0.418583
0.499909 0.499909 0.499909
0.584100 0.584100 0.584100
0.670860 0.670860 0.670860
0.752799 0.752799 0.752799
0.801418 0.801418 0.801418
0.257288 0.257288 0.257288
0.310464 0.310464 0.310464
0.364373 0.364373 0.364373
0.445662 0.445662 0.445662
0.527426 0.527426 0.527426
0.613054 0.613054 0.613054
0.699105 0.699105 0.699105
0.777723 0.777723 0.777723
0.824060 0.824060 0.824060
0.310464 0.310464 0.310464
0.364373 0.364373 0.364373
0.418583 0.418583 0.418583
0.472740 0.472740 0.472740
0.555509 0.555509 0.555509
0.642075 0.642075 0.642075
0.726510 0.726510 0.726510
0.801418 0.801418 0.801418
0.845768 0.845768 0.845768
0.364373 0.364373 0.364373
0.418583 0.418583 0.418583
0.472740 0.472740 0.472740
0.527426 0.527426 0.527426
0.584100 0.584100 0.584100
0.670860 0.670860 0.670860
0.752799 0.752799 0.752799
0.824060 0.824060 0.824060
0.866668 0.866668 0.866668
0.418583 0.418583 0.418583
0.472740 0.472740 0.472740
0.527426 0.527426 0.527426
0.584100 0.584100 0.584100
0.642075 0.642075 0.642075
0.699105 0.699105 0.699105
0.777723 0.777723 0.777723
0.845768 0.845768 0.845768
0.886869 0.886869 0.886869
0.472740 0.472740 0.472740
0.527426 0.527426 0.527426
0.584100 0.584100 0.584100
0.642075 0.642075 0.642075
0.699105 0.699105 0.699105
0.752799 0.752799 0.752799
0.801418 0.801418 0.801418
0.866668 0.866668 0.866668
0.906469 0.906469 0.906469
0.527426 0.527426 0.527426
0.584100 0.584100 0.584100
0.642075 0.642075 0.642075
0.699105 0.699105 0.699105
0.752799 0.752799 0.752799
0.801418 0.801418 0.801418
0.845768 0.845768 0.845768
0.886869 0.886869 0.886869
0.925558 0.925558 0.925558
0.584100 0.584100 0.584100
0.642075 0.642075 0.642075
0.699105 0.699105 0.699105
0.752799 0.752799 0.752799
0.801418 0.801418 0.801418
0.845768 0.845768 0.845768
0.886869 0.886869 0.886869
0.925558 0.925558 0.925558
0.944204 0.944204 0.944204
0.178476 0.178476 0.178476
0.257288 0.257288 0.257288
0.337353 0.337353 0.337353
0.418583 0.418583 0.418583
0.499909 0.499909 0.499909
0.584100 0.584100 0.584100
0.670860 0.670860 0.670860
0.752799 0.752799 0.752799
0.824060 0.824060 0.824060
0.231015 0.231015 0.231015
0.283759 0.283759 0.283759
0.364373 0.364373 0.364373
0.445662 0.445662 0.445662
0.527426 0.527426 0.527426
0.613054 0.613054 0.613054
0.699105 0.699105 0.699105
0.777723 0.777723 0.777723
0.845768 0.845768 0.845768
0.283759 0.283759 0.283759
0.337353 0.337353 0.337353
0.391468 0.391468 0.391468
0.472740 0.472740 0.472740
0.555509 0.555509 0.555509
0.642075 0.642075 0.642075
0.726510 0.726510 0.726510
0.801418 0.801418 0.801418
0.866668 0.866668 0.866668
0.337353 0.337353 0.337353
0.391468 0.391468 0.391468
0.445662 0.445662 0.445662
0.499909 0.499909 0.499909
0.584100 0.584100 0.584100
0.670860 0.670860 0.670860
0.752799 0.752799 0.752799
0.824060 0.824060 0.824060
0.886869 0.886869 0.886869
0.391468 0.391468 0.391468
0.445662 0.445662 0.445662
0.499909 0.499909 0.499909
0.555509 0.555509 0.555509
0.613054 0.613054 0.613054
0.699105 0.699105 0.699105
0.777723 0.777723 0.777723
0.845768 0.845768 0.845768
0.906469 0.906469 0.906469
0.445662 0.445662 0.445662
0.499909 0.499909 0.499909
0.555509 0.555509 0.555509
0.613054 0.613054 0.613054
0.670860 0.670860 0.670860
0.726510 0.726510 0.726510
0.801418 0.801418 0.801418
0.866668 0.866668 0.866668
0.925558 0.925558 0.925558
0.499909 0.499909 0.499909
0.555509 0.555509 0.555509
0.613054 0.613054 0.613054
0.670860 0.670860 0.670860
0.726510 0.726510 0.726510
0.777723 0.777723 0.777723
0.824060 0.824060 0.824060
0.886869 0.886869 0.886869
0.944204 0.944204 0.944204
0.555509 0.555509 0.555509
0.613054 0.613054 0.613054
0.670860 0.670860 0.670860
0.726510 0.726510 0.726510
0.777723 0.777723 0.777723
0.824060 0.824060 0.824060
0.866668 0.866668 0.866668
0.906469 0.906469 0.906469
0.962468 0.962468 0.962468
0.613054 0.613054 0.613054
0.670860 0.670860 0.670860
0.726510 0.726510 0.726510
0.777723 0.777723 0.777723
0.824060 0.824060 0.824060
0.866668 0.866668 0.866668
0.906469 0.906469 0.906469
0.944204 0.944204 0.944204
0.980392 0.980392 0.980392
