ricette/lut/Notte-3200-33.cube
# LUT generata da Camera Oscura BN
# Ricetta: Notte 3200
# Pellicola: delta3200
# Nota: grana, vignetta e interventi locali non sono inclusi nella LUT.
TITLE "Notte 3200"
LUT_3D_SIZE 9
DOMAIN_MIN 0.0 0.0 0.0
DOMAIN_MAX 1.0 1.0 1.0
0.058824 0.058824 0.058824
0.092227 0.092227 0.092227
0.127817 0.127817 0.127817
0.166402 0.166402 0.166402
0.207918 0.207918 0.207918
0.252520 0.252520 0.252520
0.300901 0.300901 0.300901
0.352646 0.352646 0.352646
0.406939 0.406939 0.406939
0.092227 0.092227 0.092227
0.109704 0.109704 0.109704
0.146676 0.146676 0.146676
0.186824 0.186824 0.186824
0.229785 0.229785 0.229785
0.276236 0.276236 0.276236
0.326402 0.326402 0.326402
0.379528 0.379528 0.379528
0.434768 0.434768 0.434768
0.127817 0.127817 0.127817
0.146676 0.146676 0.146676
0.166402 0.166402 0.166402
0.207918 0.207918 0.207918
0.252520 0.252520 0.252520
0.300901 0.300901 0.300901
0.352646 0.352646 0.352646
0.406939 0.406939 0.406939
0.462893 0.462893 0.462893
0.166402 0.166402 0.166402
0.186824 0.186824 0.186824
0.207918 0.207918 0.207918
0.229785 0.229785 0.229785
0.276236 0.276236 0.276236
0.326402 0.326402 0.326402
0.379528 0.379528 0.379528
0.434768 0.434768 0.434768
0.491194 0.491194 0.491194
0.207918 0.207918 0.207918
0.229785 0.229785 0.229785
0.252520 0.252520 0.252520
0.276236 0.276236 0.276236
0.300901 0.300901 0.300901
0.352646 0.352646 0.352646
0.406939 0.406939 0.406939
0.462893 0.462893 0.462893
0.519548 0.519548 0.519548
0.252520 0.252520 0.252520
0.276236 0.276236 0.276236
0.300901 0.300901 0.300901
0.326402 0.326402 0.326402
0.352646 0.352646 0.352646
0.379528 0.379528 0.379528
0.434768 0.434768 0.434768
0.491194 0.491194 0.491194
0.548371 0.548371 0.548371
0.300901 0.300901 0.300901
0.326402 0.326402 0.326402
0.352646 0.352646 0.352646
0.379528 0.379528 0.379528
0.406939 0.406939 0.406939
0.434768 0.434768 0.434768
0.462893 0.462893 0.462893
0.519548 0.519548 0.519548
0.578088 0.578088 0.578088
0.352646 0.352646 0.352646
0.379528 0.379528 0.379528
0.406939 0.406939 0.406939
0.434768 0.434768 0.434768
0.462893 0.462893 0.462893
0.491194 0.491194 0.491194
0.519548 0.519548 0.519548
0.548371 0.548371 0.548371
0.608601 0.608601 0.608601
0.406939 0.406939 0.406939
0.434768 0.434768 0.434768
0.462893 0.462893 0.462893
0.491194 0.491194 0.491194
0.519548 0.519548 0.519548
0.548371 0.548371 0.548371
0.578088 0.578088 0.578088
0.608601 0.608601 0.608601
0.639604 0.639604 0.639604
0.075291 0.075291 0.075291
0.127817 0.127817 0.127817
0.166402 0.166402 0.166402
0.207918 0.207918 0.207918
0.252520 0.252520 0.252520
0.300901 0.300901 0.300901
0.352646 0.352646 0.352646
0.406939 0.406939 0.406939
0.462893 0.462893 0.462893
0.109704 0.109704 0.109704
0.146676 0.146676 0.146676
0.186824 0.186824 0.186824
0.229785 0.229785 0.229785
0.276236 0.276236 0.276236
0.326402 0.326402 0.326402
0.379528 0.379528 0.379528
0.434768 0.434768 0.434768
0.491194 0.491194 0.491194
0.146676 0.146676 0.146676
0.186824 0.186824 0.186824
0.207918 0.207918 0.207918
0.252520 0.252520 0.252520
0.300901 0.300901 0.300901
0.352646 0.352646 0.352646
0.406939 0.406939 0.406939
0.462893 0.462893 0.462893
0.519548 0.519548 0.519548
0.186824 0.186824 0.186824
0.229785 0.229785 0.229785
0.252520 0.252520 0.252520
0.276236 0.276236 0.276236
0.326402 0.326402 0.326402
0.379528 0.379528 0.379528
0.434768 0.434768 0.434768
0.491194 0.491194 0.491194
0.548371 0.548371 0.548371
0.229785 0.229785 0.229785
0.276236 0.276236 0.276236
0.300901 0.300901 0.300901
0.326402 0.326402 0.326402
0.352646 0.352646 0.352646
0.406939 0.406939 0.406939
0.462893 0.462893 0.462893
0.519548 0.519548 0.519548
0.578088 0.578088 0.578088
0.276236 0.276236 0.276236
0.326402 0.326402 0.326402
0.352646 0.352646 0.352646
0.379528 0.379528 0.379528
0.406939 0.406939 0.406939
0.434768 0.434768 0.434768
0.491194 0.491194 0.491194
0.548371 0.548371 0.548371
0.608601 0.608601 0.608601
0.326402 0.326402 0.326402
0.379528 0.379528 0.379528
0.406939 0.406939 0.406939
0.434768 0.434768 0.434768
0.462893 0.462893 0.462893
0.491194 0.491194 0.491194
0.519548 0.519548 0.519548
0.578088 0.578088 0.578088
0.639604 0.639604 0.639604
0.379528 0.379528 0.379528
0.434768 0.434768 0.434768
0.462893 0.462893 0.462893
0.491194 0.491194 0.491194
0.519548 0.519548 0.519548
0.548371 0.548371 0.548371
0.578088 0.578088 0.578088
0.608601 0.608601 0.608601
0.670600 0.670600 0.670600
0.434768 0.434768 0.434768
0.491194 0.491194 0.491194
0.519548 0.519548 0.519548
0.548371 0.548371 0.548371
0.578088 0.578088 0.578088
0.608601 0.608601 0.608601
0.639604 0.639604 0.639604
0.670600 0.670600 0.670600
0.701088 0.701088 0.701088
0.092227 0.092227 0.092227
0.146676 0.146676 0.146676
0.207918 0.207918 0.207918
0.252520 0.252520 0.252520
0.300901 0.300901 0.300901
0.352646 0.352646 0.352646
0.406939 0.406939 0.406939
0.462893 0.462893 0.462893
0.519548 0.519548 0.519548
0.127817 0.127817 0.127817
0.166402 0.166402 0.166402
0.229785 0.229785 0.229785
0.276236 0.276236 0.276236
0.326402 0.326402 0.326402
0.379528 0.379528 0.379528
0.434768 0.434768 0.434768
0.491194 0.491194 0.491194
0.548371 0.548371 0.548371
0.166402 0.166402 0.166402
0.207918 0.207918 0.207918
0.252520 0.252520 0.252520
0.300901 0.300901 0.300901
0.352646 0.352646 0.352646
0.406939 0.406939 0.406939
0.462893 0.462893 0.462893
0.519548 0.519548 0.519548
0.578088 0.578088 0.578088
0.207918 0.207918 0.207918
0.252520 0.252520 0.252520
0.300901 0.300901 0.300901
0.326402 0.326402 0.326402
0.379528 0.379528 0.379528
0.434768 0.434768 0.434768
0.491194 0.491194 0.491194
0.548371 0.548371 0.548371
0.608601 0.608601 0.608601
0.252520 0.252520 0.252520
0.300901 0.300901 0.300901
0.352646 0.352646 0.352646
0.379528 0.379528 0.379528
0.406939 0.406939 0.406939
0.462893 0.462893 0.462893
0.519548 0.519548 0.519548
0.578088 0.578088 0.578088
0.639604 0.639604 0.639604
0.300901 0.300901 0.300901
0.352646 0.352646 0.352646
0.406939 0.406939 0.406939
0.434768 0.434768 0.434768
0.462893 0.462893 0.462893
0.491194 0.491194 0.491194
0.548371 0.548371 0.548371
0.608601 0.608601 0.608601
0.670600 0.670600 0.670600
0.352646 0.352646 0.352646
0.406939 0.406939 0.406939
0.462893 0.462893 0.462893
0.491194 0.491194 0.491194
0.519548 0.519548 0.519548
0.548371 0.548371 0.548371
0.578088 0.578088 0.578088
0.639604 0.639604 0.639604
0.701088 0.701088 0.701088
0.406939 0.406939 0.406939
0.462893 0.462893 0.462893
0.519548 0.519548 0.519548
0.548371 0.548371 0.548371
0.578088 0.578088 0.578088
0.608601 0.608601 0.608601
0.639604 0.639604 0.639604
0.670600 0.670600 0.670600
0.730579 0.730579 0.730579
0.462893 0.462893 0.462893
0.519548 0.519548 0.519548
0.578088 0.578088 0.578088
0.608601 0.608601 0.608601
0.639604 0.639604 0.639604
0.670600 0.670600 0.670600
0.701088 0.701088 0.701088
0.730579 0.730579 0.730579
0.758606 0.758606 0.758606
0.109704 0.109704 0.109704
0.166402 0.166402 0.166402
0.229785 0.229785 0.229785
0.300901 0.300901 0.300901
0.352646 0.352646 0.352646
0.406939 0.406939 0.406939
0.462893 0.462893 0.462893
0.519548 0.519548 0.519548
0.578088 0.578088 0.578088
0.146676 0.146676 0.146676
0.186824 0.186824 0.186824
0.252520 0.252520 0.252520
0.326402 0.326402 0.326402
0.379528 0.379528 0.379528
0.434768 0.434768 0.434768
0.491194 0.491194 0.491194
0.548371 0.548371 0.548371
0.608601 0.608601 0.608601
0.186824 0.186824 0.186824
0.229785 0.229785 0.229785
0.276236 0.276236 0.276236
0.352646 0.352646 0.352646
0.406939 0.406939 0.406939
0.462893 0.462893 0.462893
0.519548 0.519548 0.519548
0.578088 0.578088 0.578088
0.639604 0.639604 0.639604
0.229785 0.229785 0.229785
0.276236 0.276236 0.276236
0.326402 0.326402 0.326402
0.379528 0.379528 0.379528
0.434768 0.434768 0.434768
0.491194 0.491194 0.491194
0.548371 0.548371 0.548371
0.608601 0.608601 0.608601
0.670600 0.670600 0.670600
0.276236 0.276236 0.276236
0.326402 0.326402 0.326402
0.379528 0.379528 0.379528
0.434768 0.434768 0.434768
0.462893 0.462893 0.462893
0.519548 0.519548 0.519548
0.578088 0.578088 0.578088
0.639604 0.639604 0.639604
0.701088 0.701088 0.701088
0.326402 0.326402 0.326402
0.379528 0.379528 0.379528
0.434768 0.434768 0.434768
0.491194 0.491194 0.491194
0.519548 0.519548 0.519548
0.548371 0.548371 0.548371
0.608601 0.608601 0.608601
0.670600 0.670600 0.670600
0.730579 0.730579 0.730579
0.379528 0.379528 0.379528
0.434768 0.434768 0.434768
0.491194 0.491194 0.491194
0.548371 0.548371 0.548371
0.578088 0.578088 0.578088
0.608601 0.608601 0.608601
0.639604 0.639604 0.639604
0.701088 0.701088 0.701088
0.758606 0.758606 0.758606
0.434768 0.434768 0.434768
0.491194 0.491194 0.491194
0.548371 0.548371 0.548371
0.608601 0.608601 0.608601
0.639604 0.639604 0.639604
0.670600 0.670600 0.670600
0.701088 0.701088 0.701088
0.730579 0.730579 0.730579
0.784761 0.784761 0.784761
0.491194 0.491194 0.491194
0.548371 0.548371 0.548371
0.608601 0.608601 0.608601
0.670600 0.670600 0.670600
0.701088 0.701088 0.701088
0.730579 0.730579 0.730579
0.758606 0.758606 0.758606
0.784761 0.784761 0.784761
0.808933 0.808933 0.808933
0.127817 0.127817 0.127817
0.186824 0.186824 0.186824
0.252520 0.252520 0.252520
0.326402 0.326402 0.326402
0.406939 0.406939 0.406939
0.462893 0.462893 0.462893
0.519548 0.519548 0.519548
0.578088 0.578088 0.578088
0.639604 0.639604 0.639604
0.166402 0.166402 0.166402
0.207918 0.207918 0.207918
0.276236 0.276236 0.276236
0.352646 0.352646 0.352646
0.434768 0.434768 0.434768
0.491194 0.491194 0.491194
0.548371 0.548371 0.548371
0.608601 0.608601 0.608601
0.670600 0.670600 0.670600
0.207918 0.207918 0.207918
0.252520 0.252520 0.252520
0.300901 0.300901 0.300901
0.379528 0.379528 0.379528
0.462893 0.462893 0.462893
0.519548 0.519548 0.519548
0.578088 0.578088 0.578088
0.639604 0.639604 0.639604
0.701088 0.701088 0.701088
0.252520 0.252520 0.252520
0.300901 0.300901 0.300901
0.352646 0.352646 0.352646
0.406939 0.406939 0.406939
0.491194 0.491194 0.491194
0.548371 0.548371 0.548371
0.608601 0.608601 0.608601
0.670600 0.670600 0.670600
0.730579 0.730579 0.730579
0.300901 0.300901 0.300901
0.352646 0.352646 0.352646
0.406939 0.406939 0.406939
0.462893 0.462893 0.462893
0.519548 0.519548 0.519548
0.578088 0.578088 0.578088
0.639604 0.639604 0.639604
0.701088 0.701088 0.701088
0.758606 0.758606 0.758606
0.352646 0.352646 0.352646
0.406939 0.406939 0.406939
0.462893 0.462893 0.462893
0.519548 0.519548 0.519548
0.578088 0.578088 0.578088
0.608601 0.608601 0.608601
0.670600 0.670600 0.670600
0.730579 0.730579 0.730579
0.784761 0.784761 0.784761
0.406939 0.406939 0.406939
0.462893 0.462893 0.462893
0.519548 0.519548 0.519548
0.578088 0.578088 0.578088
0.639604 0.639604 0.639604
0.670600 0.670600 0.670600
0.701088 0.701088 0.701088
0.758606 0.758606 0.758606
0.808933 0.808933 0.808933
0.462893 0.462893 0.462893
0.519548 0.519548 0.519548
0.578088 0.578088 0.578088
0.639604 0.639604 0.639604
0.701088 0.701088 0.701088
0.730579 0.730579 0.730579
0.758606 0.758606 0.758606
0.784761 0.784761 0.784761
0.831535 0.831535 0.831535
0.519548 0.519548 0.519548
0.578088 0.578088 0.578088
0.639604 0.639604 0.639604
0.701088 0.701088 0.701088
0.758606 0.758606 0.758606
0.784761 0.784761 0.784761
0.808933 0.808933 0.808933
0.831535 0.831535 0.831535
0.852753 0.852753 0.852753
0.146676 0.146676 0.146676
0.207918 0.207918 0.207918
0.276236 0.276236 0.276236
0.352646 0.352646 0.352646
0.434768 0.434768 0.434768
0.519548 0.519548 0.519548
0.578088 0.578088 0.578088
0.639604 0.639604 0.639604
0.701088 0.701088 0.701088
0.186824 0.186824 0.186824
0.229785 0.229785 0.229785
0.300901 0.300901 0.300901
0.379528 0.379528 0.379528
0.462893 0.462893 0.462893
0.548371 0.548371 0.548371
0.608601 0.608601 0.608601
0.670600 0.670600 0.670600
0.730579 0.730579 0.730579
0.229785 0.229785 0.229785
0.276236 0.276236 0.276236
0.326402 0.326402 0.326402
0.406939 0.406939 0.406939
0.491194 0.491194 0.491194
0.578088 0.578088 0.578088
0.639604 0.639604 0.639604
0.701088 0.701088 0.701088
0.758606 0.758606 0.758606
0.276236 0.276236 0.276236
0.326402 0.326402 0.326402
0.379528 0.379528 0.379528
0.434768 0.434768 0.434768
0.519548 0.519548 0.519548
0.608601 0.608601 0.608601
0.670600 0.670600 0.670600
0.730579 0.730579 0.730579
0.784761 0.784761 0.784761
0.326402 0.326402 0.326402
0.379528 0.379528 0.379528
0.434768 0.434768 0.434768
0.491194 0.491194 0.491194
0.548371 0.548371 0.548371
0.639604 0.639604 0.639604
0.701088 0.701088 0.701088
0.758606 0.758606 0.758606
0.808933 0.808933 0.808933
0.379528 0.379528 0.379528
0.434768 0.434768 0.434768
0.491194 0.491194 0.491194
0.548371 0.548371 0.548371
0.608601 0.608601 0.608601
0.670600 0.670600 0.670600
0.730579 0.730579 0.730579
0.784761 0.784761 0.784761
0.831535 0.831535 0.831535
0.434768 0.434768 0.434768
0.491194 0.491194 0.491194
0.548371 0.548371 0.548371
0.608601 0.608601 0.608601
0.670600 0.670600 0.670600
0.730579 0.730579 0.730579
0.758606 0.758606 0.758606
0.808933 0.808933 0.808933
0.852753 0.852753 0.852753
0.491194 0.491194 0.491194
0.548371 0.548371 0.548371
0.608601 0.608601 0.608601
0.670600 0.670600 0.670600
0.730579 0.730579 0.730579
0.784761 0.784761 0.784761
0.808933 0.808933 0.808933
0.831535 0.831535 0.831535
0.872744 0.872744 0.872744
0.548371 0.548371 0.548371
0.608601 0.608601 0.608601
0.670600 0.670600 0.670600
0.730579 0.730579 0.730579
0.784761 0.784761 0.784761
0.831535 0.831535 0.831535
0.852753 0.852753 0.852753
0.872744 0.872744 0.872744
0.891666 0.891666 0.891666
0.166402 0.166402 0.166402
0.229785 0.229785 0.229785
0.300901 0.300901 0.300901
0.379528 0.379528 0.379528
0.462893 0.462893 0.462893
0.548371 0.548371 0.548371
0.639604 0.639604 0.639604
0.701088 0.701088 0.701088
0.758606 0.758606 0.758606
0.207918 0.207918 0.207918
0.252520 0.252520 0.252520
0.326402 0.326402 0.326402
0.406939 0.406939 0.406939
0.491194 0.491194 0.491194
0.578088 0.578088 0.578088
0.670600 0.670600 0.670600
0.730579 0.730579 0.730579
0.784761 0.784761 0.784761
0.252520 0.252520 0.252520
0.300901 0.300901 0.300901
0.352646 0.352646 0.352646
0.434768 0.434768 0.434768
0.519548 0.519548 0.519548
0.608601 0.608601 0.608601
0.701088 0.701088 0.701088
0.758606 0.758606 0.758606
0.808933 0.808933 0.808933
0.300901 0.300901 0.300901
0.352646 0.352646 0.352646
0.406939 0.406939 0.406939
0.462893 0.462893 0.462893
0.548371 0.548371 0.548371
0.639604 0.639604 0.639604
0.730579 0.730579 0.730579
0.784761 0.784761 0.784761
0.831535 0.831535 0.831535
0.352646 0.352646 0.352646
0.406939 0.406939 0.406939
0.462893 0.462893 0.462893
0.519548 0.519548 0.519548
0.578088 0.578088 0.578088
0.670600 0.670600 0.670600
0.758606 0.758606 0.758606
0.808933 0.808933 0.808933
0.852753 0.852753 0.852753
0.406939 0.406939 0.406939
0.462893 0.462893 0.462893
0.519548 0.519548 0.519548
0.578088 0.578088 0.578088
0.639604 0.639604 0.639604
0.701088 0.701088 0.701088
0.784761 0.784761 0.784761
0.831535 0.831535 0.831535
0.872744 0.872744 0.872744
0.462893 0.462893 0.462893
0.519548 0.519548 0.519548
0.578088 0.578088 0.578088
0.639604 0.639604 0.639604
0.701088 0.701088 0.701088
0.758606 0.758606 0.758606
0.808933 0.808933 0.808933
0.852753 0.852753 0.852753
0.891666 0.891666 0.891666
0.519548 0.519548 0.519548
0.578088 0.578088 0.578088
0.639604 0.639604 0.639604
0.701088 0.701088 0.701088
0.758606 0.758606 0.758606
0.808933 0.808933 0.808933
0.852753 0.852753 0.852753
0.872744 0.872744 0.872744
0.909644 0.909644 0.909644
0.578088 0.578088 0.578088
0.639604 0.639604 0.639604
0.701088 0.701088 0.701088
0.758606 0.758606 0.758606
0.808933 0.808933 0.808933
0.852753 0.852753 0.852753
0.891666 0.891666 0.891666
0.909644 0.909644 0.909644
0.926781 0.926781 0.926781
0.186824 0.186824 0.186824
0.252520 0.252520 0.252520
0.326402 0.326402 0.326402
0.406939 0.406939 0.406939
0.491194 0.491194 0.491194
0.578088 0.578088 0.578088
0.670600 0.670600 0.670600
0.758606 0.758606 0.758606
0.808933 0.808933 0.808933
0.229785 0.229785 0.229785
0.276236 0.276236 0.276236
0.352646 0.352646 0.352646
0.434768 0.434768 0.434768
0.519548 0.519548 0.519548
0.608601 0.608601 0.608601
0.701088 0.701088 0.701088
0.784761 0.784761 0.784761
0.831535 0.831535 0.831535
0.276236 0.276236 0.276236
0.326402 0.326402 0.326402
0.379528 0.379528 0.379528
0.462893 0.462893 0.462893
0.548371 0.548371 0.548371
0.639604 0.639604 0.639604
0.730579 0.730579 0.730579
0.808933 0.808933 0.808933
0.852753 0.852753 0.852753
0.326402 0.326402 0.326402
0.379528 0.379528 0.379528
0.434768 0.434768 0.434768
0.491194 0.491194 0.491194
0.578088 0.578088 0.578088
0.670600 0.670600 0.670600
0.758606 0.758606 0.758606
0.831535 0.831535 0.831535
0.872744 0.872744 0.872744
0.379528 0.379528 0.379528
0.434768 0.434768 0.434768
0.491194 0.491194 0.491194
0.548371 0.548371 0.548371
0.608601 0.608601 0.608601
0.701088 0.701088 0.701088
0.784761 0.784761 0.784761
0.852753 0.852753 0.852753
0.891666 0.891666 0.891666
0.434768 0.434768 0.434768
0.491194 0.491194 0.491194
0.548371 0.548371 0.548371
0.608601 0.608601 0.608601
0.670600 0.670600 0.670600
0.730579 0.730579 0.730579
0.808933 0.808933 0.808933
0.872744 0.872744 0.872744
0.909644 0.909644 0.909644
0.491194 0.491194 0.491194
0.548371 0.548371 0.548371
0.608601 0.608601 0.608601
0.670600 0.670600 0.670600
0.730579 0.730579 0.730579
0.784761 0.784761 0.784761
0.831535 0.831535 0.831535
0.891666 0.891666 0.891666
0.926781 0.926781 0.926781
0.548371 0.548371 0.548371
0.608601 0.608601 0.608601
0.670600 0.670600 0.670600
0.730579 0.730579 0.730579
0.784761 0.784761 0.784761
0.831535 0.831535 0.831535
0.872744 0.872744 0.872744
0.909644 0.909644 0.909644
0.943162 0.943162 0.943162
0.608601 0.608601 0.608601
0.670600 0.670600 0.670600
0.730579 0.730579 0.730579
0.784761 0.784761 0.784761
0.831535 0.831535 0.831535
0.872744 0.872744 0.872744
0.909644 0.909644 0.909644
0.943162 0.943162 0.943162
0.958842 0.958842 0.958842
0.207918 0.207918 0.207918
0.276236 0.276236 0.276236
0.352646 0.352646 0.352646
0.434768 0.434768 0.434768
0.519548 0.519548 0.519548
0.608601 0.608601 0.608601
0.701088 0.701088 0.701088
0.784761 0.784761 0.784761
0.852753 0.852753 0.852753
0.252520 0.252520 0.252520
0.300901 0.300901 0.300901
0.379528 0.379528 0.379528
0.462893 0.462893 0.462893
0.548371 0.548371 0.548371
0.639604 0.639604 0.639604
0.730579 0.730579 0.730579
0.808933 0.808933 0.808933
0.872744 0.872744 0.872744
0.300901 0.300901 0.300901
0.352646 0.352646 0.352646
0.406939 0.406939 0.406939
0.491194 0.491194 0.491194
0.578088 0.578088 0.578088
0.670600 0.670600 0.670600
0.758606 0.758606 0.758606
0.831535 0.831535 0.831535
0.891666 0.891666 0.891666
0.352646 0.352646 0.352646
0.406939 0.406939 0.406939
0.462893 0.462893 0.462893
0.519548 0.519548 0.519548
0.608601 0.608601 0.608601
0.701088 0.701088 0.701088
0.784761 0.784761 0.784761
0.852753 0.852753 0.852753
0.909644 0.909644 0.909644
0.406939 0.406939 0.406939
0.462893 0.462893 0.462893
0.519548 0.519548 0.519548
0.578088 0.578088 0.578088
0.639604 0.639604 0.639604
0.730579 0.730579 0.730579
0.808933 0.808933 0.808933
0.872744 0.872744 0.872744
0.926781 0.926781 0.926781
0.462893 0.462893 0.462893
0.519548 0.519548 0.519548
0.578088 0.578088 0.578088
0.639604 0.639604 0.639604
0.701088 0.701088 0.701088
0.758606 0.758606 0.758606
0.831535 0.831535 0.831535
0.891666 0.891666 0.891666
0.943162 0.943162 0.943162
0.519548 0.519548 0.519548
0.578088 0.578088 0.578088
0.639604 0.639604 0.639604
0.701088 0.701088 0.701088
0.758606 0.758606 0.758606
0.808933 0.808933 0.808933
0.852753 0.852753 0.852753
0.909644 0.909644 0.909644
0.958842 0.958842 0.958842
0.578088 0.578088 0.578088
0.639604 0.639604 0.639604
0.701088 0.701088 0.701088
0.758606 0.758606 0.758606
0.808933 0.808933 0.808933
0.852753 0.852753 0.852753
0.891666 0.891666 0.891666
0.926781 0.926781 0.926781
0.973860 0.973860 0.973860
0.639604 0.639604 0.639604
0.701088 0.701088 0.701088
0.758606 0.758606 0.758606
0.808933 0.808933 0.808933
0.852753 0.852753 0.852753
0.891666 0.891666 0.891666
0.926781 0.926781 0.926781
0.958842 0.958842 0.958842
0.988235 0.988235 0.988235
