ricette/lut/Notturno-urbano-33.cube
# LUT generata da Camera Oscura BN
# Ricetta: Notturno urbano
# Pellicola: notturno
# Nota: grana, vignetta e interventi locali non sono inclusi nella LUT.
TITLE "Notturno urbano"
LUT_3D_SIZE 5
DOMAIN_MIN 0.0 0.0 0.0
DOMAIN_MAX 1.0 1.0 1.0
0.018060 0.020510 0.023940
0.043034 0.045341 0.048571
0.091682 0.093713 0.096557
0.197656 0.199096 0.201111
0.343975 0.344618 0.345517
0.043034 0.045341 0.048571
0.061226 0.063430 0.066515
0.139730 0.141491 0.143957
0.266474 0.267536 0.269023
0.423363 0.423583 0.423890
0.091682 0.093713 0.096557
0.139730 0.141491 0.143957
0.197656 0.199096 0.201111
0.343975 0.344618 0.345517
0.499444 0.499426 0.499375
0.197656 0.199096 0.201111
0.266474 0.267536 0.269023
0.343975 0.344618 0.345517
0.423363 0.423583 0.423890
0.575500 0.575440 0.575276
0.343975 0.344618 0.345517
0.423363 0.423583 0.423890
0.499444 0.499426 0.499375
0.575500 0.575440 0.575276
0.654821 0.654719 0.654436
0.029709 0.032093 0.035429
0.091682 0.093713 0.096557
0.197656 0.199096 0.201111
0.343975 0.344618 0.345517
0.499444 0.499426 0.499375
0.061226 0.063430 0.066515
0.139730 0.141491 0.143957
0.266474 0.267536 0.269023
0.423363 0.423583 0.423890
0.575500 0.575440 0.575276
0.139730 0.141491 0.143957
0.266474 0.267536 0.269023
0.343975 0.344618 0.345517
0.499444 0.499426 0.499375
0.654821 0.654719 0.654436
0.266474 0.267536 0.269023
0.423363 0.423583 0.423890
0.499444 0.499426 0.499375
0.575500 0.575440 0.575276
0.730860 0.730716 0.730320
0.423363 0.423583 0.423890
0.575500 0.575440 0.575276
0.654821 0.654719 0.654436
0.730860 0.730716 0.730320
0.796039 0.795860 0.795365
0.043034 0.045341 0.048571
0.139730 0.141491 0.143957
0.343975 0.344618 0.345517
0.499444 0.499426 0.499375
0.654821 0.654719 0.654436
0.091682 0.093713 0.096557
0.197656 0.199096 0.201111
0.423363 0.423583 0.423890
0.575500 0.575440 0.575276
0.730860 0.730716 0.730320
0.197656 0.199096 0.201111
0.343975 0.344618 0.345517
0.499444 0.499426 0.499375
0.654821 0.654719 0.654436
0.796039 0.795860 0.795365
0.343975 0.344618 0.345517
0.499444 0.499426 0.499375
0.654821 0.654719 0.654436
0.730860 0.730716 0.730320
0.845558 0.845351 0.844781
0.499444 0.499426 0.499375
0.654821 0.654719 0.654436
0.796039 0.795860 0.795365
0.845558 0.845351 0.844781
0.884427 0.884198 0.883570
0.061226 0.063430 0.066515
0.197656 0.199096 0.201111
0.423363 0.423583 0.423890
0.654821 0.654719 0.654436
0.796039 0.795860 0.795365
0.139730 0.141491 0.143957
0.266474 0.267536 0.269023
0.499444 0.499426 0.499375
0.730860 0.730716 0.730320
0.845558 0.845351 0.844781
0.266474 0.267536 0.269023
0.423363 0.423583 0.423890
0.575500 0.575440 0.575276
0.796039 0.795860 0.795365
0.884427 0.884198 0.883570
0.423363 0.423583 0.423890
0.575500 0.575440 0.575276
0.730860 0.730716 0.730320
0.845558 0.845351 0.844781
0.916467 0.916220 0.915543
0.575500 0.575440 0.575276
0.730860 0.730716 0.730320
0.845558 0.845351 0.844781
0.916467 0.916220 0.915543
0.944124 0.943863 0.943143
0.091682 0.093713 0.096557
0.266474 0.267536 0.269023
0.499444 0.499426 0.499375
0.730860 0.730716 0.730320
0.884427 0.884198 0.883570
0.197656 0.199096 0.201111
0.343975 0.344618 0.345517
0.575500 0.575440 0.575276
0.796039 0.795860 0.795365
0.916467 0.916220 0.915543
0.343975 0.344618 0.345517
0.499444 0.499426 0.499375
0.654821 0.654719 0.654436
0.845558 0.845351 0.844781
0.944124 0.943863 0.943143
0.499444 0.499426 0.499375
0.654821 0.654719 0.654436
0.796039 0.795860 0.795365
0.884427 0.884198 0.883570
0.968918 0.968642 0.967885
0.654821 0.654719 0.654436
0.796039 0.795860 0.795365
0.884427 0.884198 0.883570
0.944124 0.943863 0.943143
0.991540 0.991252 0.990460
