ricette/lut/Notturno-urbano-33.cube
# LUT generata da Camera Oscura BN
# Ricetta: Notturno urbano
# Pellicola: notturno
# Nota: grana, vignetta e interventi locali non sono inclusi nella LUT.
TITLE "Notturno urbano"
LUT_3D_SIZE 9
DOMAIN_MIN 0.0 0.0 0.0
DOMAIN_MAX 1.0 1.0 1.0
0.018060 0.020510 0.023940
0.029709 0.032093 0.035429
0.043034 0.045341 0.048571
0.061226 0.063430 0.066515
0.091682 0.093713 0.096557
0.139730 0.141491 0.143957
0.197656 0.199096 0.201111
0.266474 0.267536 0.269023
0.343975 0.344618 0.345517
0.029709 0.032093 0.035429
0.036025 0.038372 0.041658
0.051207 0.053467 0.056632
0.074106 0.076237 0.079220
0.113877 0.115783 0.118452
0.167950 0.169554 0.171800
0.230597 0.231855 0.233617
0.304544 0.305399 0.306596
0.383882 0.384311 0.384912
0.043034 0.045341 0.048571
0.051207 0.053467 0.056632
0.061226 0.063430 0.066515
0.091682 0.093713 0.096557
0.139730 0.141491 0.143957
0.197656 0.199096 0.201111
0.266474 0.267536 0.269023
0.343975 0.344618 0.345517
0.423363 0.423583 0.423890
0.061226 0.063430 0.066515
0.074106 0.076237 0.079220
0.091682 0.093713 0.096557
0.113877 0.115783 0.118452
0.167950 0.169554 0.171800
0.230597 0.231855 0.233617
0.304544 0.305399 0.306596
0.383882 0.384311 0.384912
0.461916 0.461932 0.461955
0.091682 0.093713 0.096557
0.113877 0.115783 0.118452
0.139730 0.141491 0.143957
0.167950 0.169554 0.171800
0.197656 0.199096 0.201111
0.266474 0.267536 0.269023
0.343975 0.344618 0.345517
0.423363 0.423583 0.423890
0.499444 0.499426 0.499375
0.139730 0.141491 0.143957
0.167950 0.169554 0.171800
0.197656 0.199096 0.201111
0.230597 0.231855 0.233617
0.266474 0.267536 0.269023
0.304544 0.305399 0.306596
0.383882 0.384311 0.384912
0.461916 0.461932 0.461955
0.536842 0.536804 0.536697
0.197656 0.199096 0.201111
0.230597 0.231855 0.233617
0.266474 0.267536 0.269023
0.304544 0.305399 0.306596
0.343975 0.344618 0.345517
0.383882 0.384311 0.384912
0.423363 0.423583 0.423890
0.499444 0.499426 0.499375
0.575500 0.575440 0.575276
0.266474 0.267536 0.269023
0.304544 0.305399 0.306596
0.343975 0.344618 0.345517
0.383882 0.384311 0.384912
0.423363 0.423583 0.423890
0.461916 0.461932 0.461955
0.499444 0.499426 0.499375
0.536842 0.536804 0.536697
0.615072 0.614990 0.614768
0.343975 0.344618 0.345517
0.383882 0.384311 0.384912
0.423363 0.423583 0.423890
0.461916 0.461932 0.461955
0.499444 0.499426 0.499375
0.536842 0.536804 0.536697
0.575500 0.575440 0.575276
0.615072 0.614990 0.614768
0.654821 0.654719 0.654436
0.023778 0.026195 0.029579
0.043034 0.045341 0.048571
0.061226 0.063430 0.066515
0.091682 0.093713 0.096557
0.139730 0.141491 0.143957
0.197656 0.199096 0.201111
0.266474 0.267536 0.269023
0.343975 0.344618 0.345517
0.423363 0.423583 0.423890
0.036025 0.038372 0.041658
0.051207 0.053467 0.056632
0.074106 0.076237 0.079220
0.113877 0.115783 0.118452
0.167950 0.169554 0.171800
0.230597 0.231855 0.233617
0.304544 0.305399 0.306596
0.383882 0.384311 0.384912
0.461916 0.461932 0.461955
0.051207 0.053467 0.056632
0.074106 0.076237 0.079220
0.091682 0.093713 0.096557
0.139730 0.141491 0.143957
0.197656 0.199096 0.201111
0.266474 0.267536 0.269023
0.343975 0.344618 0.345517
0.423363 0.423583 0.423890
0.499444 0.499426 0.499375
0.074106 0.076237 0.079220
0.113877 0.115783 0.118452
0.139730 0.141491 0.143957
0.167950 0.169554 0.171800
0.230597 0.231855 0.233617
0.304544 0.305399 0.306596
0.383882 0.384311 0.384912
0.461916 0.461932 0.461955
0.536842 0.536804 0.536697
0.113877 0.115783 0.118452
0.167950 0.169554 0.171800
0.197656 0.199096 0.201111
0.230597 0.231855 0.233617
0.266474 0.267536 0.269023
0.343975 0.344618 0.345517
0.423363 0.423583 0.423890
0.499444 0.499426 0.499375
0.575500 0.575440 0.575276
0.167950 0.169554 0.171800
0.230597 0.231855 0.233617
0.266474 0.267536 0.269023
0.304544 0.305399 0.306596
0.343975 0.344618 0.345517
0.383882 0.384311 0.384912
0.461916 0.461932 0.461955
0.536842 0.536804 0.536697
0.615072 0.614990 0.614768
0.230597 0.231855 0.233617
0.304544 0.305399 0.306596
0.343975 0.344618 0.345517
0.383882 0.384311 0.384912
0.423363 0.423583 0.423890
0.461916 0.461932 0.461955
0.499444 0.499426 0.499375
0.575500 0.575440 0.575276
0.654821 0.654719 0.654436
0.304544 0.305399 0.306596
0.383882 0.384311 0.384912
0.423363 0.423583 0.423890
0.461916 0.461932 0.461955
0.499444 0.499426 0.499375
0.536842 0.536804 0.536697
0.575500 0.575440 0.575276
0.615072 0.614990 0.614768
0.693743 0.693620 0.693279
0.383882 0.384311 0.384912
0.461916 0.461932 0.461955
0.499444 0.499426 0.499375
0.536842 0.536804 0.536697
0.575500 0.575440 0.575276
0.615072 0.614990 0.614768
0.654821 0.654719 0.654436
0.693743 0.693620 0.693279
0.730860 0.730716 0.730320
0.029709 0.032093 0.035429
0.051207 0.053467 0.056632
0.091682 0.093713 0.096557
0.139730 0.141491 0.143957
0.197656 0.199096 0.201111
0.266474 0.267536 0.269023
0.343975 0.344618 0.345517
0.423363 0.423583 0.423890
0.499444 0.499426 0.499375
0.043034 0.045341 0.048571
0.061226 0.063430 0.066515
0.113877 0.115783 0.118452
0.167950 0.169554 0.171800
0.230597 0.231855 0.233617
0.304544 0.305399 0.306596
0.383882 0.384311 0.384912
0.461916 0.461932 0.461955
0.536842 0.536804 0.536697
0.061226 0.063430 0.066515
0.091682 0.093713 0.096557
0.139730 0.141491 0.143957
0.197656 0.199096 0.201111
0.266474 0.267536 0.269023
0.343975 0.344618 0.345517
0.423363 0.423583 0.423890
0.499444 0.499426 0.499375
0.575500 0.575440 0.575276
0.091682 0.093713 0.096557
0.139730 0.141491 0.143957
0.197656 0.199096 0.201111
0.230597 0.231855 0.233617
0.304544 0.305399 0.306596
0.383882 0.384311 0.384912
0.461916 0.461932 0.461955
0.536842 0.536804 0.536697
0.615072 0.614990 0.614768
0.139730 0.141491 0.143957
0.197656 0.199096 0.201111
0.266474 0.267536 0.269023
0.304544 0.305399 0.306596
0.343975 0.344618 0.345517
0.423363 0.423583 0.423890
0.499444 0.499426 0.499375
0.575500 0.575440 0.575276
0.654821 0.654719 0.654436
0.197656 0.199096 0.201111
0.266474 0.267536 0.269023
0.343975 0.344618 0.345517
0.383882 0.384311 0.384912
0.423363 0.423583 0.423890
0.461916 0.461932 0.461955
0.536842 0.536804 0.536697
0.615072 0.614990 0.614768
0.693743 0.693620 0.693279
0.266474 0.267536 0.269023
0.343975 0.344618 0.345517
0.423363 0.423583 0.423890
0.461916 0.461932 0.461955
0.499444 0.499426 0.499375
0.536842 0.536804 0.536697
0.575500 0.575440 0.575276
0.654821 0.654719 0.654436
0.730860 0.730716 0.730320
0.343975 0.344618 0.345517
0.423363 0.423583 0.423890
0.499444 0.499426 0.499375
0.536842 0.536804 0.536697
0.575500 0.575440 0.575276
0.615072 0.614990 0.614768
0.654821 0.654719 0.654436
0.693743 0.693620 0.693279
0.765241 0.765078 0.764630
0.423363 0.423583 0.423890
0.499444 0.499426 0.499375
0.575500 0.575440 0.575276
0.615072 0.614990 0.614768
0.654821 0.654719 0.654436
0.693743 0.693620 0.693279
0.730860 0.730716 0.730320
0.765241 0.765078 0.764630
0.796039 0.795860 0.795365
0.036025 0.038372 0.041658
0.061226 0.063430 0.066515
0.113877 0.115783 0.118452
0.197656 0.199096 0.201111
0.266474 0.267536 0.269023
0.343975 0.344618 0.345517
0.423363 0.423583 0.423890
0.499444 0.499426 0.499375
0.575500 0.575440 0.575276
0.051207 0.053467 0.056632
0.074106 0.076237 0.079220
0.139730 0.141491 0.143957
0.230597 0.231855 0.233617
0.304544 0.305399 0.306596
0.383882 0.384311 0.384912
0.461916 0.461932 0.461955
0.536842 0.536804 0.536697
0.615072 0.614990 0.614768
0.074106 0.076237 0.079220
0.113877 0.115783 0.118452
0.167950 0.169554 0.171800
0.266474 0.267536 0.269023
0.343975 0.344618 0.345517
0.423363 0.423583 0.423890
0.499444 0.499426 0.499375
0.575500 0.575440 0.575276
0.654821 0.654719 0.654436
0.113877 0.115783 0.118452
0.167950 0.169554 0.171800
0.230597 0.231855 0.233617
0.304544 0.305399 0.306596
0.383882 0.384311 0.384912
0.461916 0.461932 0.461955
0.536842 0.536804 0.536697
0.615072 0.614990 0.614768
0.693743 0.693620 0.693279
0.167950 0.169554 0.171800
0.230597 0.231855 0.233617
0.304544 0.305399 0.306596
0.383882 0.384311 0.384912
0.423363 0.423583 0.423890
0.499444 0.499426 0.499375
0.575500 0.575440 0.575276
0.654821 0.654719 0.654436
0.730860 0.730716 0.730320
0.230597 0.231855 0.233617
0.304544 0.305399 0.306596
0.383882 0.384311 0.384912
0.461916 0.461932 0.461955
0.499444 0.499426 0.499375
0.536842 0.536804 0.536697
0.615072 0.614990 0.614768
0.693743 0.693620 0.693279
0.765241 0.765078 0.764630
0.304544 0.305399 0.306596
0.383882 0.384311 0.384912
0.461916 0.461932 0.461955
0.536842 0.536804 0.536697
0.575500 0.575440 0.575276
0.615072 0.614990 0.614768
0.654821 0.654719 0.654436
0.730860 0.730716 0.730320
0.796039 0.795860 0.795365
0.383882 0.384311 0.384912
0.461916 0.461932 0.461955
0.536842 0.536804 0.536697
0.615072 0.614990 0.614768
0.654821 0.654719 0.654436
0.693743 0.693620 0.693279
0.730860 0.730716 0.730320
0.765241 0.765078 0.764630
0.822583 0.822389 0.821854
0.461916 0.461932 0.461955
0.536842 0.536804 0.536697
0.615072 0.614990 0.614768
0.693743 0.693620 0.693279
0.730860 0.730716 0.730320
0.765241 0.765078 0.764630
0.796039 0.795860 0.795365
0.822583 0.822389 0.821854
0.845558 0.845351 0.844781
0.043034 0.045341 0.048571
0.074106 0.076237 0.079220
0.139730 0.141491 0.143957
0.230597 0.231855 0.233617
0.343975 0.344618 0.345517
0.423363 0.423583 0.423890
0.499444 0.499426 0.499375
0.575500 0.575440 0.575276
0.654821 0.654719 0.654436
0.061226 0.063430 0.066515
0.091682 0.093713 0.096557
0.167950 0.169554 0.171800
0.266474 0.267536 0.269023
0.383882 0.384311 0.384912
0.461916 0.461932 0.461955
0.536842 0.536804 0.536697
0.615072 0.614990 0.614768
0.693743 0.693620 0.693279
0.091682 0.093713 0.096557
0.139730 0.141491 0.143957
0.197656 0.199096 0.201111
0.304544 0.305399 0.306596
0.423363 0.423583 0.423890
0.499444 0.499426 0.499375
0.575500 0.575440 0.575276
0.654821 0.654719 0.654436
0.730860 0.730716 0.730320
0.139730 0.141491 0.143957
0.197656 0.199096 0.201111
0.266474 0.267536 0.269023
0.343975 0.344618 0.345517
0.461916 0.461932 0.461955
0.536842 0.536804 0.536697
0.615072 0.614990 0.614768
0.693743 0.693620 0.693279
0.765241 0.765078 0.764630
0.197656 0.199096 0.201111
0.266474 0.267536 0.269023
0.343975 0.344618 0.345517
0.423363 0.423583 0.423890
0.499444 0.499426 0.499375
0.575500 0.575440 0.575276
0.654821 0.654719 0.654436
0.730860 0.730716 0.730320
0.796039 0.795860 0.795365
0.266474 0.267536 0.269023
0.343975 0.344618 0.345517
0.423363 0.423583 0.423890
0.499444 0.499426 0.499375
0.575500 0.575440 0.575276
0.615072 0.614990 0.614768
0.693743 0.693620 0.693279
0.765241 0.765078 0.764630
0.822583 0.822389 0.821854
0.343975 0.344618 0.345517
0.423363 0.423583 0.423890
0.499444 0.499426 0.499375
0.575500 0.575440 0.575276
0.654821 0.654719 0.654436
0.693743 0.693620 0.693279
0.730860 0.730716 0.730320
0.796039 0.795860 0.795365
0.845558 0.845351 0.844781
0.423363 0.423583 0.423890
0.499444 0.499426 0.499375
0.575500 0.575440 0.575276
0.654821 0.654719 0.654436
0.730860 0.730716 0.730320
0.765241 0.765078 0.764630
0.796039 0.795860 0.795365
0.822583 0.822389 0.821854
0.866028 0.865810 0.865209
0.499444 0.499426 0.499375
0.575500 0.575440 0.575276
0.654821 0.654719 0.654436
0.730860 0.730716 0.730320
0.796039 0.795860 0.795365
0.822583 0.822389 0.821854
0.845558 0.845351 0.844781
0.866028 0.865810 0.865209
0.884427 0.884198 0.883570
0.051207 0.053467 0.056632
0.091682 0.093713 0.096557
0.167950 0.169554 0.171800
0.266474 0.267536 0.269023
0.383882 0.384311 0.384912
0.499444 0.499426 0.499375
0.575500 0.575440 0.575276
0.654821 0.654719 0.654436
0.730860 0.730716 0.730320
0.074106 0.076237 0.079220
0.113877 0.115783 0.118452
0.197656 0.199096 0.201111
0.304544 0.305399 0.306596
0.423363 0.423583 0.423890
0.536842 0.536804 0.536697
0.615072 0.614990 0.614768
0.693743 0.693620 0.693279
0.765241 0.765078 0.764630
0.113877 0.115783 0.118452
0.167950 0.169554 0.171800
0.230597 0.231855 0.233617
0.343975 0.344618 0.345517
0.461916 0.461932 0.461955
0.575500 0.575440 0.575276
0.654821 0.654719 0.654436
0.730860 0.730716 0.730320
0.796039 0.795860 0.795365
0.167950 0.169554 0.171800
0.230597 0.231855 0.233617
0.304544 0.305399 0.306596
0.383882 0.384311 0.384912
0.499444 0.499426 0.499375
0.615072 0.614990 0.614768
0.693743 0.693620 0.693279
0.765241 0.765078 0.764630
0.822583 0.822389 0.821854
0.230597 0.231855 0.233617
0.304544 0.305399 0.306596
0.383882 0.384311 0.384912
0.461916 0.461932 0.461955
0.536842 0.536804 0.536697
0.654821 0.654719 0.654436
0.730860 0.730716 0.730320
0.796039 0.795860 0.795365
0.845558 0.845351 0.844781
0.304544 0.305399 0.306596
0.383882 0.384311 0.384912
0.461916 0.461932 0.461955
0.536842 0.536804 0.536697
0.615072 0.614990 0.614768
0.693743 0.693620 0.693279
0.765241 0.765078 0.764630
0.822583 0.822389 0.821854
0.866028 0.865810 0.865209
0.383882 0.384311 0.384912
0.461916 0.461932 0.461955
0.536842 0.536804 0.536697
0.615072 0.614990 0.614768
0.693743 0.693620 0.693279
0.765241 0.765078 0.764630
0.796039 0.795860 0.795365
0.845558 0.845351 0.844781
0.884427 0.884198 0.883570
0.461916 0.461932 0.461955
0.536842 0.536804 0.536697
0.615072 0.614990 0.614768
0.693743 0.693620 0.693279
0.765241 0.765078 0.764630
0.822583 0.822389 0.821854
0.845558 0.845351 0.844781
0.866028 0.865810 0.865209
0.901123 0.900885 0.900232
0.536842 0.536804 0.536697
0.615072 0.614990 0.614768
0.693743 0.693620 0.693279
0.765241 0.765078 0.764630
0.822583 0.822389 0.821854
0.866028 0.865810 0.865209
0.884427 0.884198 0.883570
0.901123 0.900885 0.900232
0.916467 0.916220 0.915543
0.061226 0.063430 0.066515
0.113877 0.115783 0.118452
0.197656 0.199096 0.201111
0.304544 0.305399 0.306596
0.423363 0.423583 0.423890
0.536842 0.536804 0.536697
0.654821 0.654719 0.654436
0.730860 0.730716 0.730320
0.796039 0.795860 0.795365
0.091682 0.093713 0.096557
0.139730 0.141491 0.143957
0.230597 0.231855 0.233617
0.343975 0.344618 0.345517
0.461916 0.461932 0.461955
0.575500 0.575440 0.575276
0.693743 0.693620 0.693279
0.765241 0.765078 0.764630
0.822583 0.822389 0.821854
0.139730 0.141491 0.143957
0.197656 0.199096 0.201111
0.266474 0.267536 0.269023
0.383882 0.384311 0.384912
0.499444 0.499426 0.499375
0.615072 0.614990 0.614768
0.730860 0.730716 0.730320
0.796039 0.795860 0.795365
0.845558 0.845351 0.844781
0.197656 0.199096 0.201111
0.266474 0.267536 0.269023
0.343975 0.344618 0.345517
0.423363 0.423583 0.423890
0.536842 0.536804 0.536697
0.654821 0.654719 0.654436
0.765241 0.765078 0.764630
0.822583 0.822389 0.821854
0.866028 0.865810 0.865209
0.266474 0.267536 0.269023
0.343975 0.344618 0.345517
0.423363 0.423583 0.423890
0.499444 0.499426 0.499375
0.575500 0.575440 0.575276
0.693743 0.693620 0.693279
0.796039 0.795860 0.795365
0.845558 0.845351 0.844781
0.884427 0.884198 0.883570
0.343975 0.344618 0.345517
0.423363 0.423583 0.423890
0.499444 0.499426 0.499375
0.575500 0.575440 0.575276
0.654821 0.654719 0.654436
0.730860 0.730716 0.730320
0.822583 0.822389 0.821854
0.866028 0.865810 0.865209
0.901123 0.900885 0.900232
0.423363 0.423583 0.423890
0.499444 0.499426 0.499375
0.575500 0.575440 0.575276
0.654821 0.654719 0.654436
0.730860 0.730716 0.730320
0.796039 0.795860 0.795365
0.845558 0.845351 0.844781
0.884427 0.884198 0.883570
0.916467 0.916220 0.915543
0.499444 0.499426 0.499375
0.575500 0.575440 0.575276
0.654821 0.654719 0.654436
0.730860 0.730716 0.730320
0.796039 0.795860 0.795365
0.845558 0.845351 0.844781
0.884427 0.884198 0.883570
0.901123 0.900885 0.900232
0.930729 0.930474 0.929775
0.575500 0.575440 0.575276
0.654821 0.654719 0.654436
0.730860 0.730716 0.730320
0.796039 0.795860 0.795365
0.845558 0.845351 0.844781
0.884427 0.884198 0.883570
0.916467 0.916220 0.915543
0.930729 0.930474 0.929775
0.944124 0.943863 0.943143
0.074106 0.076237 0.079220
0.139730 0.141491 0.143957
0.230597 0.231855 0.233617
0.343975 0.344618 0.345517
0.461916 0.461932 0.461955
0.575500 0.575440 0.575276
0.693743 0.693620 0.693279
0.796039 0.795860 0.795365
0.845558 0.845351 0.844781
0.113877 0.115783 0.118452
0.167950 0.169554 0.171800
0.266474 0.267536 0.269023
0.383882 0.384311 0.384912
0.499444 0.499426 0.499375
0.615072 0.614990 0.614768
0.730860 0.730716 0.730320
0.822583 0.822389 0.821854
0.866028 0.865810 0.865209
0.167950 0.169554 0.171800
0.230597 0.231855 0.233617
0.304544 0.305399 0.306596
0.423363 0.423583 0.423890
0.536842 0.536804 0.536697
0.654821 0.654719 0.654436
0.765241 0.765078 0.764630
0.845558 0.845351 0.844781
0.884427 0.884198 0.883570
0.230597 0.231855 0.233617
0.304544 0.305399 0.306596
0.383882 0.384311 0.384912
0.461916 0.461932 0.461955
0.575500 0.575440 0.575276
0.693743 0.693620 0.693279
0.796039 0.795860 0.795365
0.866028 0.865810 0.865209
0.901123 0.900885 0.900232
0.304544 0.305399 0.306596
0.383882 0.384311 0.384912
0.461916 0.461932 0.461955
0.536842 0.536804 0.536697
0.615072 0.614990 0.614768
0.730860 0.730716 0.730320
0.822583 0.822389 0.821854
0.884427 0.884198 0.883570
0.916467 0.916220 0.915543
0.383882 0.384311 0.384912
0.461916 0.461932 0.461955
0.536842 0.536804 0.536697
0.615072 0.614990 0.614768
0.693743 0.693620 0.693279
0.765241 0.765078 0.764630
0.845558 0.845351 0.844781
0.901123 0.900885 0.900232
0.930729 0.930474 0.929775
0.461916 0.461932 0.461955
0.536842 0.536804 0.536697
0.615072 0.614990 0.614768
0.693743 0.693620 0.693279
0.765241 0.765078 0.764630
0.822583 0.822389 0.821854
0.866028 0.865810 0.865209
0.916467 0.916220 0.915543
0.944124 0.943863 0.943143
0.536842 0.536804 0.536697
0.615072 0.614990 0.614768
0.693743 0.693620 0.693279
0.765241 0.765078 0.764630
0.822583 0.822389 0.821854
0.866028 0.865810 0.865209
0.901123 0.900885 0.900232
0.930729 0.930474 0.929775
0.956820 0.956551 0.955812
0.615072 0.614990 0.614768
0.693743 0.693620 0.693279
0.765241 0.765078 0.764630
0.822583 0.822389 0.821854
0.866028 0.865810 0.865209
0.901123 0.900885 0.900232
0.930729 0.930474 0.929775
0.956820 0.956551 0.955812
0.968918 0.968642 0.967885
0.091682 0.093713 0.096557
0.167950 0.169554 0.171800
0.266474 0.267536 0.269023
0.383882 0.384311 0.384912
0.499444 0.499426 0.499375
0.615072 0.614990 0.614768
0.730860 0.730716 0.730320
0.822583 0.822389 0.821854
0.884427 0.884198 0.883570
0.139730 0.141491 0.143957
0.197656 0.199096 0.201111
0.304544 0.305399 0.306596
0.423363 0.423583 0.423890
0.536842 0.536804 0.536697
0.654821 0.654719 0.654436
0.765241 0.765078 0.764630
0.845558 0.845351 0.844781
0.901123 0.900885 0.900232
0.197656 0.199096 0.201111
0.266474 0.267536 0.269023
0.343975 0.344618 0.345517
0.461916 0.461932 0.461955
0.575500 0.575440 0.575276
0.693743 0.693620 0.693279
0.796039 0.795860 0.795365
0.866028 0.865810 0.865209
0.916467 0.916220 0.915543
0.266474 0.267536 0.269023
0.343975 0.344618 0.345517
0.423363 0.423583 0.423890
0.499444 0.499426 0.499375
0.615072 0.614990 0.614768
0.730860 0.730716 0.730320
0.822583 0.822389 0.821854
0.884427 0.884198 0.883570
0.930729 0.930474 0.929775
0.343975 0.344618 0.345517
0.423363 0.423583 0.423890
0.499444 0.499426 0.499375
0.575500 0.575440 0.575276
0.654821 0.654719 0.654436
0.765241 0.765078 0.764630
0.845558 0.845351 0.844781
0.901123 0.900885 0.900232
0.944124 0.943863 0.943143
0.423363 0.423583 0.423890
0.499444 0.499426 0.499375
0.575500 0.575440 0.575276
0.654821 0.654719 0.654436
0.730860 0.730716 0.730320
0.796039 0.795860 0.795365
0.866028 0.865810 0.865209
0.916467 0.916220 0.915543
0.956820 0.956551 0.955812
0.499444 0.499426 0.499375
0.575500 0.575440 0.575276
0.654821 0.654719 0.654436
0.730860 0.730716 0.730320
0.796039 0.795860 0.795365
0.845558 0.845351 0.844781
0.884427 0.884198 0.883570
0.930729 0.930474 0.929775
0.968918 0.968642 0.967885
0.575500 0.575440 0.575276
0.654821 0.654719 0.654436
0.730860 0.730716 0.730320
0.796039 0.795860 0.795365
0.845558 0.845351 0.844781
0.884427 0.884198 0.883570
0.916467 0.916220 0.915543
0.944124 0.943863 0.943143
0.980483 0.980201 0.979426
0.654821 0.654719 0.654436
0.730860 0.730716 0.730320
0.796039 0.795860 0.795365
0.845558 0.845351 0.844781
0.884427 0.884198 0.883570
0.916467 0.916220 0.915543
0.944124 0.943863 0.943143
0.968918 0.968642 0.967885
0.991540 0.991252 0.990460
