ricette/lut/Notte-3200-33.cube
# LUT generata da Camera Oscura BN
# Ricetta: Notte 3200
# Pellicola: delta3200
# Nota: grana, vignetta e interventi locali non sono inclusi nella LUT.
TITLE "Notte 3200"
LUT_3D_SIZE 5
DOMAIN_MIN 0.0 0.0 0.0
DOMAIN_MAX 1.0 1.0 1.0
0.058824 0.058824 0.058824
0.127817 0.127817 0.127817
0.207918 0.207918 0.207918
0.300901 0.300901 0.300901
0.406939 0.406939 0.406939
0.127817 0.127817 0.127817
0.166402 0.166402 0.166402
0.252520 0.252520 0.252520
0.352646 0.352646 0.352646
0.462893 0.462893 0.462893
0.207918 0.207918 0.207918
0.252520 0.252520 0.252520
0.300901 0.300901 0.300901
0.406939 0.406939 0.406939
0.519548 0.519548 0.519548
0.300901 0.300901 0.300901
0.352646 0.352646 0.352646
0.406939 0.406939 0.406939
0.462893 0.462893 0.462893
0.578088 0.578088 0.578088
0.406939 0.406939 0.406939
0.462893 0.462893 0.462893
0.519548 0.519548 0.519548
0.578088 0.578088 0.578088
0.639604 0.639604 0.639604
0.092227 0.092227 0.092227
0.207918 0.207918 0.207918
0.300901 0.300901 0.300901
0.406939 0.406939 0.406939
0.519548 0.519548 0.519548
0.166402 0.166402 0.166402
0.252520 0.252520 0.252520
0.352646 0.352646 0.352646
0.462893 0.462893 0.462893
0.578088 0.578088 0.578088
0.252520 0.252520 0.252520
0.352646 0.352646 0.352646
0.406939 0.406939 0.406939
0.519548 0.519548 0.519548
0.639604 0.639604 0.639604
0.352646 0.352646 0.352646
0.462893 0.462893 0.462893
0.519548 0.519548 0.519548
0.578088 0.578088 0.578088
0.701088 0.701088 0.701088
0.462893 0.462893 0.462893
0.578088 0.578088 0.578088
0.639604 0.639604 0.639604
0.701088 0.701088 0.701088
0.758606 0.758606 0.758606
0.127817 0.127817 0.127817
0.252520 0.252520 0.252520
0.406939 0.406939 0.406939
0.519548 0.519548 0.519548
0.639604 0.639604 0.639604
0.207918 0.207918 0.207918
0.300901 0.300901 0.300901
0.462893 0.462893 0.462893
0.578088 0.578088 0.578088
0.701088 0.701088 0.701088
0.300901 0.300901 0.300901
0.406939 0.406939 0.406939
0.519548 0.519548 0.519548
0.639604 0.639604 0.639604
0.758606 0.758606 0.758606
0.406939 0.406939 0.406939
0.519548 0.519548 0.519548
0.639604 0.639604 0.639604
0.701088 0.701088 0.701088
0.808933 0.808933 0.808933
0.519548 0.519548 0.519548
0.639604 0.639604 0.639604
0.758606 0.758606 0.758606
0.808933 0.808933 0.808933
0.852753 0.852753 0.852753
0.166402 0.166402 0.166402
0.300901 0.300901 0.300901
0.462893 0.462893 0.462893
0.639604 0.639604 0.639604
0.758606 0.758606 0.758606
0.252520 0.252520 0.252520
0.352646 0.352646 0.352646
0.519548 0.519548 0.519548
0.701088 0.701088 0.701088
0.808933 0.808933 0.808933
0.352646 0.352646 0.352646
0.462893 0.462893 0.462893
0.578088 0.578088 0.578088
0.758606 0.758606 0.758606
0.852753 0.852753 0.852753
0.462893 0.462893 0.462893
0.578088 0.578088 0.578088
0.701088 0.701088 0.701088
0.808933 0.808933 0.808933
0.891666 0.891666 0.891666
0.578088 0.578088 0.578088
0.701088 0.701088 0.701088
0.808933 0.808933 0.808933
0.891666 0.891666 0.891666
0.926781 0.926781 0.926781
0.207918 0.207918 0.207918
0.352646 0.352646 0.352646
0.519548 0.519548 0.519548
0.701088 0.701088 0.701088
0.852753 0.852753 0.852753
0.300901 0.300901 0.300901
0.406939 0.406939 0.406939
0.578088 0.578088 0.578088
0.758606 0.758606 0.758606
0.891666 0.891666 0.891666
0.406939 0.406939 0.406939
0.519548 0.519548 0.519548
0.639604 0.639604 0.639604
0.808933 0.808933 0.808933
0.926781 0.926781 0.926781
0.519548 0.519548 0.519548
0.639604 0.639604 0.639604
0.758606 0.758606 0.758606
0.852753 0.852753 0.852753
0.958842 0.958842 0.958842
0.639604 0.639604 0.639604
0.758606 0.758606 0.758606
0.852753 0.852753 0.852753
0.926781 0.926781 0.926781
0.988235 0.988235 0.988235
