ricette/lut/Notturno-urbano-33.cube
# LUT generata da Camera Oscura BN
# Ricetta: Notturno urbano
# Pellicola: notturno
# Nota: grana, vignetta e interventi locali non sono inclusi nella LUT.
TITLE "Notturno urbano"
LUT_3D_SIZE 33
DOMAIN_MIN 0.0 0.0 0.0
DOMAIN_MAX 1.0 1.0 1.0
0.018060 0.020510 0.023940
0.020898 0.023332 0.026739
0.023778 0.026195 0.029579
0.026709 0.029109 0.032470
0.029709 0.032093 0.035429
0.032803 0.035169 0.038480
0.036025 0.038372 0.041658
0.039418 0.041746 0.045005
0.043034 0.045341 0.048571
0.046938 0.049223 0.052422
0.051207 0.053467 0.056632
0.055933 0.058167 0.061294
0.061226 0.063430 0.066515
0.067198 0.069368 0.072406
0.074106 0.076237 0.079220
0.082279 0.084363 0.087281
0.091682 0.093713 0.096557
0.102256 0.104228 0.106988
0.113877 0.115783 0.118452
0.126418 0.128254 0.130825
0.139730 0.141491 0.143957
0.153638 0.155322 0.157679
0.167950 0.169554 0.171800
0.182475 0.183998 0.186131
0.197656 0.199096 0.201111
0.213720 0.215071 0.216963
0.230597 0.231855 0.233617
0.248210 0.249372 0.250998
0.266474 0.267536 0.269023
0.285285 0.286245 0.287589
0.304544 0.305399 0.306596
0.324143 0.324893 0.325942
0.343975 0.344618 0.345517
0.020898 0.023332 0.026739
0.022332 0.024758 0.028153
0.025235 0.027644 0.031017
0.028199 0.030591 0.033939
0.031243 0.033618 0.036942
0.034397 0.036753 0.040052
0.037697 0.040035 0.043308
0.041192 0.043510 0.046755
0.044943 0.047239 0.050454
0.049022 0.051295 0.054478
0.053511 0.055758 0.058905
0.058505 0.060724 0.063831
0.064116 0.066303 0.069365
0.070486 0.072637 0.075648
0.078033 0.080141 0.083093
0.086840 0.088898 0.091780
0.096839 0.098842 0.101645
0.107942 0.109881 0.112597
0.120033 0.121904 0.124525
0.132985 0.134784 0.137303
0.146623 0.148346 0.150758
0.160760 0.162404 0.164706
0.175188 0.176752 0.178942
0.189944 0.191427 0.193502
0.205576 0.206972 0.208926
0.222063 0.223368 0.225195
0.239322 0.240533 0.242227
0.257270 0.258382 0.259940
0.275816 0.276827 0.278242
0.294862 0.295769 0.297040
0.314307 0.315110 0.316233
0.334038 0.334734 0.335708
0.353943 0.354532 0.355357
0.023778 0.026195 0.029579
0.025235 0.027644 0.031017
0.026709 0.029109 0.032470
0.029709 0.032093 0.035429
0.032803 0.035169 0.038480
0.036025 0.038372 0.041658
0.039418 0.041746 0.045005
0.043034 0.045341 0.048571
0.046938 0.049223 0.052422
0.051207 0.053467 0.056632
0.055933 0.058167 0.061294
0.061226 0.063430 0.066515
0.067198 0.069368 0.072406
0.074106 0.076237 0.079220
0.082279 0.084363 0.087281
0.091682 0.093713 0.096557
0.102256 0.104228 0.106988
0.113877 0.115783 0.118452
0.126418 0.128254 0.130825
0.139730 0.141491 0.143957
0.153638 0.155322 0.157679
0.167950 0.169554 0.171800
0.182475 0.183998 0.186131
0.197656 0.199096 0.201111
0.213720 0.215071 0.216963
0.230597 0.231855 0.233617
0.248210 0.249372 0.250998
0.266474 0.267536 0.269023
0.285285 0.286245 0.287589
0.304544 0.305399 0.306596
0.324143 0.324893 0.325942
0.343975 0.344618 0.345517
0.363926 0.364462 0.365212
0.026709 0.029109 0.032470
0.028199 0.030591 0.033939
0.029709 0.032093 0.035429
0.031243 0.033618 0.036942
0.034397 0.036753 0.040052
0.037697 0.040035 0.043308
0.041192 0.043510 0.046755
0.044943 0.047239 0.050454
0.049022 0.051295 0.054478
0.053511 0.055758 0.058905
0.058505 0.060724 0.063831
0.064116 0.066303 0.069365
0.070486 0.072637 0.075648
0.078033 0.080141 0.083093
0.086840 0.088898 0.091780
0.096839 0.098842 0.101645
0.107942 0.109881 0.112597
0.120033 0.121904 0.124525
0.132985 0.134784 0.137303
0.146623 0.148346 0.150758
0.160760 0.162404 0.164706
0.175188 0.176752 0.178942
0.189944 0.191427 0.193502
0.205576 0.206972 0.208926
0.222063 0.223368 0.225195
0.239322 0.240533 0.242227
0.257270 0.258382 0.259940
0.275816 0.276827 0.278242
0.294862 0.295769 0.297040
0.314307 0.315110 0.316233
0.334038 0.334734 0.335708
0.353943 0.354532 0.355357
0.373911 0.374393 0.375069
0.029709 0.032093 0.035429
0.031243 0.033618 0.036942
0.032803 0.035169 0.038480
0.034397 0.036753 0.040052
0.036025 0.038372 0.041658
0.039418 0.041746 0.045005
0.043034 0.045341 0.048571
0.046938 0.049223 0.052422
0.051207 0.053467 0.056632
0.055933 0.058167 0.061294
0.061226 0.063430 0.066515
0.067198 0.069368 0.072406
0.074106 0.076237 0.079220
0.082279 0.084363 0.087281
0.091682 0.093713 0.096557
0.102256 0.104228 0.106988
0.113877 0.115783 0.118452
0.126418 0.128254 0.130825
0.139730 0.141491 0.143957
0.153638 0.155322 0.157679
0.167950 0.169554 0.171800
0.182475 0.183998 0.186131
0.197656 0.199096 0.201111
0.213720 0.215071 0.216963
0.230597 0.231855 0.233617
0.248210 0.249372 0.250998
0.266474 0.267536 0.269023
0.285285 0.286245 0.287589
0.304544 0.305399 0.306596
0.324143 0.324893 0.325942
0.343975 0.344618 0.345517
0.363926 0.364462 0.365212
0.383882 0.384311 0.384912
0.032803 0.035169 0.038480
0.034397 0.036753 0.040052
0.036025 0.038372 0.041658
0.037697 0.040035 0.043308
0.039418 0.041746 0.045005
0.041192 0.043510 0.046755
0.044943 0.047239 0.050454
0.049022 0.051295 0.054478
0.053511 0.055758 0.058905
0.058505 0.060724 0.063831
0.064116 0.066303 0.069365
0.070486 0.072637 0.075648
0.078033 0.080141 0.083093
0.086840 0.088898 0.091780
0.096839 0.098842 0.101645
0.107942 0.109881 0.112597
0.120033 0.121904 0.124525
0.132985 0.134784 0.137303
0.146623 0.148346 0.150758
0.160760 0.162404 0.164706
0.175188 0.176752 0.178942
0.189944 0.191427 0.193502
0.205576 0.206972 0.208926
0.222063 0.223368 0.225195
0.239322 0.240533 0.242227
0.257270 0.258382 0.259940
0.275816 0.276827 0.278242
0.294862 0.295769 0.297040
0.314307 0.315110 0.316233
0.334038 0.334734 0.335708
0.353943 0.354532 0.355357
0.373911 0.374393 0.375069
0.393829 0.394206 0.394732
0.036025 0.038372 0.041658
0.037697 0.040035 0.043308
0.039418 0.041746 0.045005
0.041192 0.043510 0.046755
0.043034 0.045341 0.048571
0.044943 0.047239 0.050454
0.046938 0.049223 0.052422
0.051207 0.053467 0.056632
0.055933 0.058167 0.061294
0.061226 0.063430 0.066515
0.067198 0.069368 0.072406
0.074106 0.076237 0.079220
0.082279 0.084363 0.087281
0.091682 0.093713 0.096557
0.102256 0.104228 0.106988
0.113877 0.115783 0.118452
0.126418 0.128254 0.130825
0.139730 0.141491 0.143957
0.153638 0.155322 0.157679
0.167950 0.169554 0.171800
0.182475 0.183998 0.186131
0.197656 0.199096 0.201111
0.213720 0.215071 0.216963
0.230597 0.231855 0.233617
0.248210 0.249372 0.250998
0.266474 0.267536 0.269023
0.285285 0.286245 0.287589
0.304544 0.305399 0.306596
0.324143 0.324893 0.325942
0.343975 0.344618 0.345517
0.363926 0.364462 0.365212
0.383882 0.384311 0.384912
0.403731 0.404054 0.404507
0.039418 0.041746 0.045005
0.041192 0.043510 0.046755
0.043034 0.045341 0.048571
0.044943 0.047239 0.050454
0.046938 0.049223 0.052422
0.049022 0.051295 0.054478
0.051207 0.053467 0.056632
0.053511 0.055758 0.058905
0.058505 0.060724 0.063831
0.064116 0.066303 0.069365
0.070486 0.072637 0.075648
0.078033 0.080141 0.083093
0.086840 0.088898 0.091780
0.096839 0.098842 0.101645
0.107942 0.109881 0.112597
0.120033 0.121904 0.124525
0.132985 0.134784 0.137303
0.146623 0.148346 0.150758
0.160760 0.162404 0.164706
0.175188 0.176752 0.178942
0.189944 0.191427 0.193502
0.205576 0.206972 0.208926
0.222063 0.223368 0.225195
0.239322 0.240533 0.242227
0.257270 0.258382 0.259940
0.275816 0.276827 0.278242
0.294862 0.295769 0.297040
0.314307 0.315110 0.316233
0.334038 0.334734 0.335708
0.353943 0.354532 0.355357
0.373911 0.374393 0.375069
0.393829 0.394206 0.394732
0.413582 0.413854 0.414233
0.043034 0.045341 0.048571
0.044943 0.047239 0.050454
0.046938 0.049223 0.052422
0.049022 0.051295 0.054478
0.051207 0.053467 0.056632
0.053511 0.055758 0.058905
0.055933 0.058167 0.061294
0.058505 0.060724 0.063831
0.061226 0.063430 0.066515
0.067198 0.069368 0.072406
0.074106 0.076237 0.079220
0.082279 0.084363 0.087281
0.091682 0.093713 0.096557
0.102256 0.104228 0.106988
0.113877 0.115783 0.118452
0.126418 0.128254 0.130825
0.139730 0.141491 0.143957
0.153638 0.155322 0.157679
0.167950 0.169554 0.171800
0.182475 0.183998 0.186131
0.197656 0.199096 0.201111
0.213720 0.215071 0.216963
0.230597 0.231855 0.233617
0.248210 0.249372 0.250998
0.266474 0.267536 0.269023
0.285285 0.286245 0.287589
0.304544 0.305399 0.306596
0.324143 0.324893 0.325942
0.343975 0.344618 0.345517
0.363926 0.364462 0.365212
0.383882 0.384311 0.384912
0.403731 0.404054 0.404507
0.423363 0.423583 0.423890
0.046938 0.049223 0.052422
0.049022 0.051295 0.054478
0.051207 0.053467 0.056632
0.053511 0.055758 0.058905
0.055933 0.058167 0.061294
0.058505 0.060724 0.063831
0.061226 0.063430 0.066515
0.064116 0.066303 0.069365
0.067198 0.069368 0.072406
0.070486 0.072637 0.075648
0.078033 0.080141 0.083093
0.086840 0.088898 0.091780
0.096839 0.098842 0.101645
0.107942 0.109881 0.112597
0.120033 0.121904 0.124525
0.132985 0.134784 0.137303
0.146623 0.148346 0.150758
0.160760 0.162404 0.164706
0.175188 0.176752 0.178942
0.189944 0.191427 0.193502
0.205576 0.206972 0.208926
0.222063 0.223368 0.225195
0.239322 0.240533 0.242227
0.257270 0.258382 0.259940
0.275816 0.276827 0.278242
0.294862 0.295769 0.297040
0.314307 0.315110 0.316233
0.334038 0.334734 0.335708
0.353943 0.354532 0.355357
0.373911 0.374393 0.375069
0.393829 0.394206 0.394732
0.413582 0.413854 0.414233
0.433066 0.433234 0.433470
0.051207 0.053467 0.056632
0.053511 0.055758 0.058905
0.055933 0.058167 0.061294
0.058505 0.060724 0.063831
0.061226 0.063430 0.066515
0.064116 0.066303 0.069365
0.067198 0.069368 0.072406
0.070486 0.072637 0.075648
0.074106 0.076237 0.079220
0.078033 0.080141 0.083093
0.082279 0.084363 0.087281
0.091682 0.093713 0.096557
0.102256 0.104228 0.106988
0.113877 0.115783 0.118452
0.126418 0.128254 0.130825
0.139730 0.141491 0.143957
0.153638 0.155322 0.157679
0.167950 0.169554 0.171800
0.182475 0.183998 0.186131
0.197656 0.199096 0.201111
0.213720 0.215071 0.216963
0.230597 0.231855 0.233617
0.248210 0.249372 0.250998
0.266474 0.267536 0.269023
0.285285 0.286245 0.287589
0.304544 0.305399 0.306596
0.324143 0.324893 0.325942
0.343975 0.344618 0.345517
0.363926 0.364462 0.365212
0.383882 0.384311 0.384912
0.403731 0.404054 0.404507
0.423363 0.423583 0.423890
0.442718 0.442835 0.442999
0.055933 0.058167 0.061294
0.058505 0.060724 0.063831
0.061226 0.063430 0.066515
0.064116 0.066303 0.069365
0.067198 0.069368 0.072406
0.070486 0.072637 0.075648
0.074106 0.076237 0.079220
0.078033 0.080141 0.083093
0.082279 0.084363 0.087281
0.086840 0.088898 0.091780
0.091682 0.093713 0.096557
0.096839 0.098842 0.101645
0.107942 0.109881 0.112597
0.120033 0.121904 0.124525
0.132985 0.134784 0.137303
0.146623 0.148346 0.150758
0.160760 0.162404 0.164706
0.175188 0.176752 0.178942
0.189944 0.191427 0.193502
0.205576 0.206972 0.208926
0.222063 0.223368 0.225195
0.239322 0.240533 0.242227
0.257270 0.258382 0.259940
0.275816 0.276827 0.278242
0.294862 0.295769 0.297040
0.314307 0.315110 0.316233
0.334038 0.334734 0.335708
0.353943 0.354532 0.355357
0.373911 0.374393 0.375069
0.393829 0.394206 0.394732
0.413582 0.413854 0.414233
0.433066 0.433234 0.433470
0.452335 0.452402 0.452495
0.061226 0.063430 0.066515
0.064116 0.066303 0.069365
0.067198 0.069368 0.072406
0.070486 0.072637 0.075648
0.074106 0.076237 0.079220
0.078033 0.080141 0.083093
0.082279 0.084363 0.087281
0.086840 0.088898 0.091780
0.091682 0.093713 0.096557
0.096839 0.098842 0.101645
0.102256 0.104228 0.106988
0.107942 0.109881 0.112597
0.113877 0.115783 0.118452
0.126418 0.128254 0.130825
0.139730 0.141491 0.143957
0.153638 0.155322 0.157679
0.167950 0.169554 0.171800
0.182475 0.183998 0.186131
0.197656 0.199096 0.201111
0.213720 0.215071 0.216963
0.230597 0.231855 0.233617
0.248210 0.249372 0.250998
0.266474 0.267536 0.269023
0.285285 0.286245 0.287589
0.304544 0.305399 0.306596
0.324143 0.324893 0.325942
0.343975 0.344618 0.345517
0.363926 0.364462 0.365212
0.383882 0.384311 0.384912
0.403731 0.404054 0.404507
0.423363 0.423583 0.423890
0.442718 0.442835 0.442999
0.461916 0.461932 0.461955
0.067198 0.069368 0.072406
0.070486 0.072637 0.075648
0.074106 0.076237 0.079220
0.078033 0.080141 0.083093
0.082279 0.084363 0.087281
0.086840 0.088898 0.091780
0.091682 0.093713 0.096557
0.096839 0.098842 0.101645
0.102256 0.104228 0.106988
0.107942 0.109881 0.112597
0.113877 0.115783 0.118452
0.120033 0.121904 0.124525
0.126418 0.128254 0.130825
0.132985 0.134784 0.137303
0.146623 0.148346 0.150758
0.160760 0.162404 0.164706
0.175188 0.176752 0.178942
0.189944 0.191427 0.193502
0.205576 0.206972 0.208926
0.222063 0.223368 0.225195
0.239322 0.240533 0.242227
0.257270 0.258382 0.259940
0.275816 0.276827 0.278242
0.294862 0.295769 0.297040
0.314307 0.315110 0.316233
0.334038 0.334734 0.335708
0.353943 0.354532 0.355357
0.373911 0.374393 0.375069
0.393829 0.394206 0.394732
0.413582 0.413854 0.414233
0.433066 0.433234 0.433470
0.452335 0.452402 0.452495
0.471432 0.471429 0.471419
0.074106 0.076237 0.079220
0.078033 0.080141 0.083093
0.082279 0.084363 0.087281
0.086840 0.088898 0.091780
0.091682 0.093713 0.096557
0.096839 0.098842 0.101645
0.102256 0.104228 0.106988
0.107942 0.109881 0.112597
0.113877 0.115783 0.118452
0.120033 0.121904 0.124525
0.126418 0.128254 0.130825
0.132985 0.134784 0.137303
0.139730 0.141491 0.143957
0.146623 0.148346 0.150758
0.153638 0.155322 0.157679
0.167950 0.169554 0.171800
0.182475 0.183998 0.186131
0.197656 0.199096 0.201111
0.213720 0.215071 0.216963
0.230597 0.231855 0.233617
0.248210 0.249372 0.250998
0.266474 0.267536 0.269023
0.285285 0.286245 0.287589
0.304544 0.305399 0.306596
0.324143 0.324893 0.325942
0.343975 0.344618 0.345517
0.363926 0.364462 0.365212
0.383882 0.384311 0.384912
0.403731 0.404054 0.404507
0.423363 0.423583 0.423890
0.442718 0.442835 0.442999
0.461916 0.461932 0.461955
0.480865 0.480856 0.480833
0.082279 0.084363 0.087281
0.086840 0.088898 0.091780
0.091682 0.093713 0.096557
0.096839 0.098842 0.101645
0.102256 0.104228 0.106988
0.107942 0.109881 0.112597
0.113877 0.115783 0.118452
0.120033 0.121904 0.124525
0.126418 0.128254 0.130825
0.132985 0.134784 0.137303
0.139730 0.141491 0.143957
0.146623 0.148346 0.150758
0.153638 0.155322 0.157679
0.160760 0.162404 0.164706
0.167950 0.169554 0.171800
0.175188 0.176752 0.178942
0.189944 0.191427 0.193502
0.205576 0.206972 0.208926
0.222063 0.223368 0.225195
0.239322 0.240533 0.242227
0.257270 0.258382 0.259940
0.275816 0.276827 0.278242
0.294862 0.295769 0.297040
0.314307 0.315110 0.316233
0.334038 0.334734 0.335708
0.353943 0.354532 0.355357
0.373911 0.374393 0.375069
0.393829 0.394206 0.394732
0.413582 0.413854 0.414233
0.433066 0.433234 0.433470
0.452335 0.452402 0.452495
0.471432 0.471429 0.471419
0.490208 0.490194 0.490157
0.091682 0.093713 0.096557
0.096839 0.098842 0.101645
0.102256 0.104228 0.106988
0.107942 0.109881 0.112597
0.113877 0.115783 0.118452
0.120033 0.121904 0.124525
0.126418 0.128254 0.130825
0.132985 0.134784 0.137303
0.139730 0.141491 0.143957
0.146623 0.148346 0.150758
0.153638 0.155322 0.157679
0.160760 0.162404 0.164706
0.167950 0.169554 0.171800
0.175188 0.176752 0.178942
0.182475 0.183998 0.186131
0.189944 0.191427 0.193502
0.197656 0.199096 0.201111
0.213720 0.215071 0.216963
0.230597 0.231855 0.233617
0.248210 0.249372 0.250998
0.266474 0.267536 0.269023
0.285285 0.286245 0.287589
0.304544 0.305399 0.306596
0.324143 0.324893 0.325942
0.343975 0.344618 0.345517
0.363926 0.364462 0.365212
0.383882 0.384311 0.384912
0.403731 0.404054 0.404507
0.423363 0.423583 0.423890
0.442718 0.442835 0.442999
0.461916 0.461932 0.461955
0.480865 0.480856 0.480833
0.499444 0.499426 0.499375
0.102256 0.104228 0.106988
0.107942 0.109881 0.112597
0.113877 0.115783 0.118452
0.120033 0.121904 0.124525
0.126418 0.128254 0.130825
0.132985 0.134784 0.137303
0.139730 0.141491 0.143957
0.146623 0.148346 0.150758
0.153638 0.155322 0.157679
0.160760 0.162404 0.164706
0.167950 0.169554 0.171800
0.175188 0.176752 0.178942
0.182475 0.183998 0.186131
0.189944 0.191427 0.193502
0.197656 0.199096 0.201111
0.205576 0.206972 0.208926
0.213720 0.215071 0.216963
0.222063 0.223368 0.225195
0.239322 0.240533 0.242227
0.257270 0.258382 0.259940
0.275816 0.276827 0.278242
0.294862 0.295769 0.297040
0.314307 0.315110 0.316233
0.334038 0.334734 0.335708
0.353943 0.354532 0.355357
0.373911 0.374393 0.375069
0.393829 0.394206 0.394732
0.413582 0.413854 0.414233
0.433066 0.433234 0.433470
0.452335 0.452402 0.452495
0.471432 0.471429 0.471419
0.490208 0.490194 0.490157
0.508643 0.508620 0.508555
0.113877 0.115783 0.118452
0.120033 0.121904 0.124525
0.126418 0.128254 0.130825
0.132985 0.134784 0.137303
0.139730 0.141491 0.143957
0.146623 0.148346 0.150758
0.153638 0.155322 0.157679
0.160760 0.162404 0.164706
0.167950 0.169554 0.171800
0.175188 0.176752 0.178942
0.182475 0.183998 0.186131
0.189944 0.191427 0.193502
0.197656 0.199096 0.201111
0.205576 0.206972 0.208926
0.213720 0.215071 0.216963
0.222063 0.223368 0.225195
0.230597 0.231855 0.233617
0.239322 0.240533 0.242227
0.248210 0.249372 0.250998
0.266474 0.267536 0.269023
0.285285 0.286245 0.287589
0.304544 0.305399 0.306596
0.324143 0.324893 0.325942
0.343975 0.344618 0.345517
0.363926 0.364462 0.365212
0.383882 0.384311 0.384912
0.403731 0.404054 0.404507
0.423363 0.423583 0.423890
0.442718 0.442835 0.442999
0.461916 0.461932 0.461955
0.480865 0.480856 0.480833
0.499444 0.499426 0.499375
0.517946 0.517917 0.517839
0.126418 0.128254 0.130825
0.132985 0.134784 0.137303
0.139730 0.141491 0.143957
0.146623 0.148346 0.150758
0.153638 0.155322 0.157679
0.160760 0.162404 0.164706
0.167950 0.169554 0.171800
0.175188 0.176752 0.178942
0.182475 0.183998 0.186131
0.189944 0.191427 0.193502
0.197656 0.199096 0.201111
0.205576 0.206972 0.208926
0.213720 0.215071 0.216963
0.222063 0.223368 0.225195
0.230597 0.231855 0.233617
0.239322 0.240533 0.242227
0.248210 0.249372 0.250998
0.257270 0.258382 0.259940
0.266474 0.267536 0.269023
0.275816 0.276827 0.278242
0.294862 0.295769 0.297040
0.314307 0.315110 0.316233
0.334038 0.334734 0.335708
0.353943 0.354532 0.355357
0.373911 0.374393 0.375069
0.393829 0.394206 0.394732
0.413582 0.413854 0.414233
0.433066 0.433234 0.433470
0.452335 0.452402 0.452495
0.471432 0.471429 0.471419
0.490208 0.490194 0.490157
0.508643 0.508620 0.508555
0.527349 0.527315 0.527223
0.139730 0.141491 0.143957
0.146623 0.148346 0.150758
0.153638 0.155322 0.157679
0.160760 0.162404 0.164706
0.167950 0.169554 0.171800
0.175188 0.176752 0.178942
0.182475 0.183998 0.186131
0.189944 0.191427 0.193502
0.197656 0.199096 0.201111
0.205576 0.206972 0.208926
0.213720 0.215071 0.216963
0.222063 0.223368 0.225195
0.230597 0.231855 0.233617
0.239322 0.240533 0.242227
0.248210 0.249372 0.250998
0.257270 0.258382 0.259940
0.266474 0.267536 0.269023
0.275816 0.276827 0.278242
0.285285 0.286245 0.287589
0.294862 0.295769 0.297040
0.304544 0.305399 0.306596
0.324143 0.324893 0.325942
0.343975 0.344618 0.345517
0.363926 0.364462 0.365212
0.383882 0.384311 0.384912
0.403731 0.404054 0.404507
0.423363 0.423583 0.423890
0.442718 0.442835 0.442999
0.461916 0.461932 0.461955
0.480865 0.480856 0.480833
0.499444 0.499426 0.499375
0.517946 0.517917 0.517839
0.536842 0.536804 0.536697
0.153638 0.155322 0.157679
0.160760 0.162404 0.164706
0.167950 0.169554 0.171800
0.175188 0.176752 0.178942
0.182475 0.183998 0.186131
0.189944 0.191427 0.193502
0.197656 0.199096 0.201111
0.205576 0.206972 0.208926
0.213720 0.215071 0.216963
0.222063 0.223368 0.225195
0.230597 0.231855 0.233617
0.239322 0.240533 0.242227
0.248210 0.249372 0.250998
0.257270 0.258382 0.259940
0.266474 0.267536 0.269023
0.275816 0.276827 0.278242
0.285285 0.286245 0.287589
0.294862 0.295769 0.297040
0.304544 0.305399 0.306596
0.314307 0.315110 0.316233
0.324143 0.324893 0.325942
0.334038 0.334734 0.335708
0.353943 0.354532 0.355357
0.373911 0.374393 0.375069
0.393829 0.394206 0.394732
0.413582 0.413854 0.414233
0.433066 0.433234 0.433470
0.452335 0.452402 0.452495
0.471432 0.471429 0.471419
0.490208 0.490194 0.490157
0.508643 0.508620 0.508555
0.527349 0.527315 0.527223
0.546418 0.546374 0.546254
0.167950 0.169554 0.171800
0.175188 0.176752 0.178942
0.182475 0.183998 0.186131
0.189944 0.191427 0.193502
0.197656 0.199096 0.201111
0.205576 0.206972 0.208926
0.213720 0.215071 0.216963
0.222063 0.223368 0.225195
0.230597 0.231855 0.233617
0.239322 0.240533 0.242227
0.248210 0.249372 0.250998
0.257270 0.258382 0.259940
0.266474 0.267536 0.269023
0.275816 0.276827 0.278242
0.285285 0.286245 0.287589
0.294862 0.295769 0.297040
0.304544 0.305399 0.306596
0.314307 0.315110 0.316233
0.324143 0.324893 0.325942
0.334038 0.334734 0.335708
0.343975 0.344618 0.345517
0.353943 0.354532 0.355357
0.363926 0.364462 0.365212
0.383882 0.384311 0.384912
0.403731 0.404054 0.404507
0.423363 0.423583 0.423890
0.442718 0.442835 0.442999
0.461916 0.461932 0.461955
0.480865 0.480856 0.480833
0.499444 0.499426 0.499375
0.517946 0.517917 0.517839
0.536842 0.536804 0.536697
0.556055 0.556006 0.555871
0.182475 0.183998 0.186131
0.189944 0.191427 0.193502
0.197656 0.199096 0.201111
0.205576 0.206972 0.208926
0.213720 0.215071 0.216963
0.222063 0.223368 0.225195
0.230597 0.231855 0.233617
0.239322 0.240533 0.242227
0.248210 0.249372 0.250998
0.257270 0.258382 0.259940
0.266474 0.267536 0.269023
0.275816 0.276827 0.278242
0.285285 0.286245 0.287589
0.294862 0.295769 0.297040
0.304544 0.305399 0.306596
0.314307 0.315110 0.316233
0.324143 0.324893 0.325942
0.334038 0.334734 0.335708
0.343975 0.344618 0.345517
0.353943 0.354532 0.355357
0.363926 0.364462 0.365212
0.373911 0.374393 0.375069
0.383882 0.384311 0.384912
0.393829 0.394206 0.394732
0.413582 0.413854 0.414233
0.433066 0.433234 0.433470
0.452335 0.452402 0.452495
0.471432 0.471429 0.471419
0.490208 0.490194 0.490157
0.508643 0.508620 0.508555
0.527349 0.527315 0.527223
0.546418 0.546374 0.546254
0.565748 0.565694 0.565545
0.197656 0.199096 0.201111
0.205576 0.206972 0.208926
0.213720 0.215071 0.216963
0.222063 0.223368 0.225195
0.230597 0.231855 0.233617
0.239322 0.240533 0.242227
0.248210 0.249372 0.250998
0.257270 0.258382 0.259940
0.266474 0.267536 0.269023
0.275816 0.276827 0.278242
0.285285 0.286245 0.287589
0.294862 0.295769 0.297040
0.304544 0.305399 0.306596
0.314307 0.315110 0.316233
0.324143 0.324893 0.325942
0.334038 0.334734 0.335708
0.343975 0.344618 0.345517
0.353943 0.354532 0.355357
0.363926 0.364462 0.365212
0.373911 0.374393 0.375069
0.383882 0.384311 0.384912
0.393829 0.394206 0.394732
0.403731 0.404054 0.404507
0.413582 0.413854 0.414233
0.423363 0.423583 0.423890
0.442718 0.442835 0.442999
0.461916 0.461932 0.461955
0.480865 0.480856 0.480833
0.499444 0.499426 0.499375
0.517946 0.517917 0.517839
0.536842 0.536804 0.536697
0.556055 0.556006 0.555871
0.575500 0.575440 0.575276
0.213720 0.215071 0.216963
0.222063 0.223368 0.225195
0.230597 0.231855 0.233617
0.239322 0.240533 0.242227
0.248210 0.249372 0.250998
0.257270 0.258382 0.259940
0.266474 0.267536 0.269023
0.275816 0.276827 0.278242
0.285285 0.286245 0.287589
0.294862 0.295769 0.297040
0.304544 0.305399 0.306596
0.314307 0.315110 0.316233
0.324143 0.324893 0.325942
0.334038 0.334734 0.335708
0.343975 0.344618 0.345517
0.353943 0.354532 0.355357
0.363926 0.364462 0.365212
0.373911 0.374393 0.375069
0.383882 0.384311 0.384912
0.393829 0.394206 0.394732
0.403731 0.404054 0.404507
0.413582 0.413854 0.414233
0.423363 0.423583 0.423890
0.433066 0.433234 0.433470
0.442718 0.442835 0.442999
0.452335 0.452402 0.452495
0.471432 0.471429 0.471419
0.490208 0.490194 0.490157
0.508643 0.508620 0.508555
0.527349 0.527315 0.527223
0.546418 0.546374 0.546254
0.565748 0.565694 0.565545
0.585322 0.585257 0.585078
0.230597 0.231855 0.233617
0.239322 0.240533 0.242227
0.248210 0.249372 0.250998
0.257270 0.258382 0.259940
0.266474 0.267536 0.269023
0.275816 0.276827 0.278242
0.285285 0.286245 0.287589
0.294862 0.295769 0.297040
0.304544 0.305399 0.306596
0.314307 0.315110 0.316233
0.324143 0.324893 0.325942
0.334038 0.334734 0.335708
0.343975 0.344618 0.345517
0.353943 0.354532 0.355357
0.363926 0.364462 0.365212
0.373911 0.374393 0.375069
0.383882 0.384311 0.384912
0.393829 0.394206 0.394732
0.403731 0.404054 0.404507
0.413582 0.413854 0.414233
0.423363 0.423583 0.423890
