ricette/lut/Notte-3200-33.cube
# LUT generata da Camera Oscura BN
# Ricetta: Notte 3200
# Pellicola: delta3200
# Nota: grana, vignetta e interventi locali non sono inclusi nella LUT.
TITLE "Notte 3200"
LUT_3D_SIZE 33
DOMAIN_MIN 0.0 0.0 0.0
DOMAIN_MAX 1.0 1.0 1.0
0.058824 0.058824 0.058824
0.067002 0.067002 0.067002
0.075291 0.075291 0.075291
0.083697 0.083697 0.083697
0.092227 0.092227 0.092227
0.100892 0.100892 0.100892
0.109704 0.109704 0.109704
0.118675 0.118675 0.118675
0.127817 0.127817 0.127817
0.137146 0.137146 0.137146
0.146676 0.146676 0.146676
0.156428 0.156428 0.156428
0.166402 0.166402 0.166402
0.176535 0.176535 0.176535
0.186824 0.186824 0.186824
0.197282 0.197282 0.197282
0.207918 0.207918 0.207918
0.218749 0.218749 0.218749
0.229785 0.229785 0.229785
0.241037 0.241037 0.241037
0.252520 0.252520 0.252520
0.264249 0.264249 0.264249
0.276236 0.276236 0.276236
0.288459 0.288459 0.288459
0.300901 0.300901 0.300901
0.313553 0.313553 0.313553
0.326402 0.326402 0.326402
0.339436 0.339436 0.339436
0.352646 0.352646 0.352646
0.366014 0.366014 0.366014
0.379528 0.379528 0.379528
0.393175 0.393175 0.393175
0.406939 0.406939 0.406939
0.067002 0.067002 0.067002
0.071132 0.071132 0.071132
0.079477 0.079477 0.079477
0.087945 0.087945 0.087945
0.096543 0.096543 0.096543
0.105280 0.105280 0.105280
0.114169 0.114169 0.114169
0.123222 0.123222 0.123222
0.132456 0.132456 0.132456
0.141885 0.141885 0.141885
0.151525 0.151525 0.151525
0.161393 0.161393 0.161393
0.171449 0.171449 0.171449
0.181657 0.181657 0.181657
0.192031 0.192031 0.192031
0.202578 0.202578 0.202578
0.213311 0.213311 0.213311
0.224240 0.224240 0.224240
0.235381 0.235381 0.235381
0.246748 0.246748 0.246748
0.258354 0.258354 0.258354
0.270213 0.270213 0.270213
0.282319 0.282319 0.282319
0.294651 0.294651 0.294651
0.307200 0.307200 0.307200
0.319954 0.319954 0.319954
0.332898 0.332898 0.332898
0.346021 0.346021 0.346021
0.359310 0.359310 0.359310
0.372752 0.372752 0.372752
0.386336 0.386336 0.386336
0.400044 0.400044 0.400044
0.413863 0.413863 0.413863
0.075291 0.075291 0.075291
0.079477 0.079477 0.079477
0.083697 0.083697 0.083697
0.092227 0.092227 0.092227
0.100892 0.100892 0.100892
0.109704 0.109704 0.109704
0.118675 0.118675 0.118675
0.127817 0.127817 0.127817
0.137146 0.137146 0.137146
0.146676 0.146676 0.146676
0.156428 0.156428 0.156428
0.166402 0.166402 0.166402
0.176535 0.176535 0.176535
0.186824 0.186824 0.186824
0.197282 0.197282 0.197282
0.207918 0.207918 0.207918
0.218749 0.218749 0.218749
0.229785 0.229785 0.229785
0.241037 0.241037 0.241037
0.252520 0.252520 0.252520
0.264249 0.264249 0.264249
0.276236 0.276236 0.276236
0.288459 0.288459 0.288459
0.300901 0.300901 0.300901
0.313553 0.313553 0.313553
0.326402 0.326402 0.326402
0.339436 0.339436 0.339436
0.352646 0.352646 0.352646
0.366014 0.366014 0.366014
0.379528 0.379528 0.379528
0.393175 0.393175 0.393175
0.406939 0.406939 0.406939
0.420809 0.420809 0.420809
0.083697 0.083697 0.083697
0.087945 0.087945 0.087945
0.092227 0.092227 0.092227
0.096543 0.096543 0.096543
0.105280 0.105280 0.105280
0.114169 0.114169 0.114169
0.123222 0.123222 0.123222
0.132456 0.132456 0.132456
0.141885 0.141885 0.141885
0.151525 0.151525 0.151525
0.161393 0.161393 0.161393
0.171449 0.171449 0.171449
0.181657 0.181657 0.181657
0.192031 0.192031 0.192031
0.202578 0.202578 0.202578
0.213311 0.213311 0.213311
0.224240 0.224240 0.224240
0.235381 0.235381 0.235381
0.246748 0.246748 0.246748
0.258354 0.258354 0.258354
0.270213 0.270213 0.270213
0.282319 0.282319 0.282319
0.294651 0.294651 0.294651
0.307200 0.307200 0.307200
0.319954 0.319954 0.319954
0.332898 0.332898 0.332898
0.346021 0.346021 0.346021
0.359310 0.359310 0.359310
0.372752 0.372752 0.372752
0.386336 0.386336 0.386336
0.400044 0.400044 0.400044
0.413863 0.413863 0.413863
0.427778 0.427778 0.427778
0.092227 0.092227 0.092227
0.096543 0.096543 0.096543
0.100892 0.100892 0.100892
0.105280 0.105280 0.105280
0.109704 0.109704 0.109704
0.118675 0.118675 0.118675
0.127817 0.127817 0.127817
0.137146 0.137146 0.137146
0.146676 0.146676 0.146676
0.156428 0.156428 0.156428
0.166402 0.166402 0.166402
0.176535 0.176535 0.176535
0.186824 0.186824 0.186824
0.197282 0.197282 0.197282
0.207918 0.207918 0.207918
0.218749 0.218749 0.218749
0.229785 0.229785 0.229785
0.241037 0.241037 0.241037
0.252520 0.252520 0.252520
0.264249 0.264249 0.264249
0.276236 0.276236 0.276236
0.288459 0.288459 0.288459
0.300901 0.300901 0.300901
0.313553 0.313553 0.313553
0.326402 0.326402 0.326402
0.339436 0.339436 0.339436
0.352646 0.352646 0.352646
0.366014 0.366014 0.366014
0.379528 0.379528 0.379528
0.393175 0.393175 0.393175
0.406939 0.406939 0.406939
0.420809 0.420809 0.420809
0.434768 0.434768 0.434768
0.100892 0.100892 0.100892
0.105280 0.105280 0.105280
0.109704 0.109704 0.109704
0.114169 0.114169 0.114169
0.118675 0.118675 0.118675
0.123222 0.123222 0.123222
0.132456 0.132456 0.132456
0.141885 0.141885 0.141885
0.151525 0.151525 0.151525
0.161393 0.161393 0.161393
0.171449 0.171449 0.171449
0.181657 0.181657 0.181657
0.192031 0.192031 0.192031
0.202578 0.202578 0.202578
0.213311 0.213311 0.213311
0.224240 0.224240 0.224240
0.235381 0.235381 0.235381
0.246748 0.246748 0.246748
0.258354 0.258354 0.258354
0.270213 0.270213 0.270213
0.282319 0.282319 0.282319
0.294651 0.294651 0.294651
0.307200 0.307200 0.307200
0.319954 0.319954 0.319954
0.332898 0.332898 0.332898
0.346021 0.346021 0.346021
0.359310 0.359310 0.359310
0.372752 0.372752 0.372752
0.386336 0.386336 0.386336
0.400044 0.400044 0.400044
0.413863 0.413863 0.413863
0.427778 0.427778 0.427778
0.441776 0.441776 0.441776
0.109704 0.109704 0.109704
0.114169 0.114169 0.114169
0.118675 0.118675 0.118675
0.123222 0.123222 0.123222
0.127817 0.127817 0.127817
0.132456 0.132456 0.132456
0.137146 0.137146 0.137146
0.146676 0.146676 0.146676
0.156428 0.156428 0.156428
0.166402 0.166402 0.166402
0.176535 0.176535 0.176535
0.186824 0.186824 0.186824
0.197282 0.197282 0.197282
0.207918 0.207918 0.207918
0.218749 0.218749 0.218749
0.229785 0.229785 0.229785
0.241037 0.241037 0.241037
0.252520 0.252520 0.252520
0.264249 0.264249 0.264249
0.276236 0.276236 0.276236
0.288459 0.288459 0.288459
0.300901 0.300901 0.300901
0.313553 0.313553 0.313553
0.326402 0.326402 0.326402
0.339436 0.339436 0.339436
0.352646 0.352646 0.352646
0.366014 0.366014 0.366014
0.379528 0.379528 0.379528
0.393175 0.393175 0.393175
0.406939 0.406939 0.406939
0.420809 0.420809 0.420809
0.434768 0.434768 0.434768
0.448801 0.448801 0.448801
0.118675 0.118675 0.118675
0.123222 0.123222 0.123222
0.127817 0.127817 0.127817
0.132456 0.132456 0.132456
0.137146 0.137146 0.137146
0.141885 0.141885 0.141885
0.146676 0.146676 0.146676
0.151525 0.151525 0.151525
0.161393 0.161393 0.161393
0.171449 0.171449 0.171449
0.181657 0.181657 0.181657
0.192031 0.192031 0.192031
0.202578 0.202578 0.202578
0.213311 0.213311 0.213311
0.224240 0.224240 0.224240
0.235381 0.235381 0.235381
0.246748 0.246748 0.246748
0.258354 0.258354 0.258354
0.270213 0.270213 0.270213
0.282319 0.282319 0.282319
0.294651 0.294651 0.294651
0.307200 0.307200 0.307200
0.319954 0.319954 0.319954
0.332898 0.332898 0.332898
0.346021 0.346021 0.346021
0.359310 0.359310 0.359310
0.372752 0.372752 0.372752
0.386336 0.386336 0.386336
0.400044 0.400044 0.400044
0.413863 0.413863 0.413863
0.427778 0.427778 0.427778
0.441776 0.441776 0.441776
0.455841 0.455841 0.455841
0.127817 0.127817 0.127817
0.132456 0.132456 0.132456
0.137146 0.137146 0.137146
0.141885 0.141885 0.141885
0.146676 0.146676 0.146676
0.151525 0.151525 0.151525
0.156428 0.156428 0.156428
0.161393 0.161393 0.161393
0.166402 0.166402 0.166402
0.176535 0.176535 0.176535
0.186824 0.186824 0.186824
0.197282 0.197282 0.197282
0.207918 0.207918 0.207918
0.218749 0.218749 0.218749
0.229785 0.229785 0.229785
0.241037 0.241037 0.241037
0.252520 0.252520 0.252520
0.264249 0.264249 0.264249
0.276236 0.276236 0.276236
0.288459 0.288459 0.288459
0.300901 0.300901 0.300901
0.313553 0.313553 0.313553
0.326402 0.326402 0.326402
0.339436 0.339436 0.339436
0.352646 0.352646 0.352646
0.366014 0.366014 0.366014
0.379528 0.379528 0.379528
0.393175 0.393175 0.393175
0.406939 0.406939 0.406939
0.420809 0.420809 0.420809
0.434768 0.434768 0.434768
0.448801 0.448801 0.448801
0.462893 0.462893 0.462893
0.137146 0.137146 0.137146
0.141885 0.141885 0.141885
0.146676 0.146676 0.146676
0.151525 0.151525 0.151525
0.156428 0.156428 0.156428
0.161393 0.161393 0.161393
0.166402 0.166402 0.166402
0.171449 0.171449 0.171449
0.176535 0.176535 0.176535
0.181657 0.181657 0.181657
0.192031 0.192031 0.192031
0.202578 0.202578 0.202578
0.213311 0.213311 0.213311
0.224240 0.224240 0.224240
0.235381 0.235381 0.235381
0.246748 0.246748 0.246748
0.258354 0.258354 0.258354
0.270213 0.270213 0.270213
0.282319 0.282319 0.282319
0.294651 0.294651 0.294651
0.307200 0.307200 0.307200
0.319954 0.319954 0.319954
0.332898 0.332898 0.332898
0.346021 0.346021 0.346021
0.359310 0.359310 0.359310
0.372752 0.372752 0.372752
0.386336 0.386336 0.386336
0.400044 0.400044 0.400044
0.413863 0.413863 0.413863
0.427778 0.427778 0.427778
0.441776 0.441776 0.441776
0.455841 0.455841 0.455841
0.469957 0.469957 0.469957
0.146676 0.146676 0.146676
0.151525 0.151525 0.151525
0.156428 0.156428 0.156428
0.161393 0.161393 0.161393
0.166402 0.166402 0.166402
0.171449 0.171449 0.171449
0.176535 0.176535 0.176535
0.181657 0.181657 0.181657
0.186824 0.186824 0.186824
0.192031 0.192031 0.192031
0.197282 0.197282 0.197282
0.207918 0.207918 0.207918
0.218749 0.218749 0.218749
0.229785 0.229785 0.229785
0.241037 0.241037 0.241037
0.252520 0.252520 0.252520
0.264249 0.264249 0.264249
0.276236 0.276236 0.276236
0.288459 0.288459 0.288459
0.300901 0.300901 0.300901
0.313553 0.313553 0.313553
0.326402 0.326402 0.326402
0.339436 0.339436 0.339436
0.352646 0.352646 0.352646
0.366014 0.366014 0.366014
0.379528 0.379528 0.379528
0.393175 0.393175 0.393175
0.406939 0.406939 0.406939
0.420809 0.420809 0.420809
0.434768 0.434768 0.434768
0.448801 0.448801 0.448801
0.462893 0.462893 0.462893
0.477029 0.477029 0.477029
0.156428 0.156428 0.156428
0.161393 0.161393 0.161393
0.166402 0.166402 0.166402
0.171449 0.171449 0.171449
0.176535 0.176535 0.176535
0.181657 0.181657 0.181657
0.186824 0.186824 0.186824
0.192031 0.192031 0.192031
0.197282 0.197282 0.197282
0.202578 0.202578 0.202578
0.207918 0.207918 0.207918
0.213311 0.213311 0.213311
0.224240 0.224240 0.224240
0.235381 0.235381 0.235381
0.246748 0.246748 0.246748
0.258354 0.258354 0.258354
0.270213 0.270213 0.270213
0.282319 0.282319 0.282319
0.294651 0.294651 0.294651
0.307200 0.307200 0.307200
0.319954 0.319954 0.319954
0.332898 0.332898 0.332898
0.346021 0.346021 0.346021
0.359310 0.359310 0.359310
0.372752 0.372752 0.372752
0.386336 0.386336 0.386336
0.400044 0.400044 0.400044
0.413863 0.413863 0.413863
0.427778 0.427778 0.427778
0.441776 0.441776 0.441776
0.455841 0.455841 0.455841
0.469957 0.469957 0.469957
0.484110 0.484110 0.484110
0.166402 0.166402 0.166402
0.171449 0.171449 0.171449
0.176535 0.176535 0.176535
0.181657 0.181657 0.181657
0.186824 0.186824 0.186824
0.192031 0.192031 0.192031
0.197282 0.197282 0.197282
0.202578 0.202578 0.202578
0.207918 0.207918 0.207918
0.213311 0.213311 0.213311
0.218749 0.218749 0.218749
0.224240 0.224240 0.224240
0.229785 0.229785 0.229785
0.241037 0.241037 0.241037
0.252520 0.252520 0.252520
0.264249 0.264249 0.264249
0.276236 0.276236 0.276236
0.288459 0.288459 0.288459
0.300901 0.300901 0.300901
0.313553 0.313553 0.313553
0.326402 0.326402 0.326402
0.339436 0.339436 0.339436
0.352646 0.352646 0.352646
0.366014 0.366014 0.366014
0.379528 0.379528 0.379528
0.393175 0.393175 0.393175
0.406939 0.406939 0.406939
0.420809 0.420809 0.420809
0.434768 0.434768 0.434768
0.448801 0.448801 0.448801
0.462893 0.462893 0.462893
0.477029 0.477029 0.477029
0.491194 0.491194 0.491194
0.176535 0.176535 0.176535
0.181657 0.181657 0.181657
0.186824 0.186824 0.186824
0.192031 0.192031 0.192031
0.197282 0.197282 0.197282
0.202578 0.202578 0.202578
0.207918 0.207918 0.207918
0.213311 0.213311 0.213311
0.218749 0.218749 0.218749
0.224240 0.224240 0.224240
0.229785 0.229785 0.229785
0.235381 0.235381 0.235381
0.241037 0.241037 0.241037
0.246748 0.246748 0.246748
0.258354 0.258354 0.258354
0.270213 0.270213 0.270213
0.282319 0.282319 0.282319
0.294651 0.294651 0.294651
0.307200 0.307200 0.307200
0.319954 0.319954 0.319954
0.332898 0.332898 0.332898
0.346021 0.346021 0.346021
0.359310 0.359310 0.359310
0.372752 0.372752 0.372752
0.386336 0.386336 0.386336
0.400044 0.400044 0.400044
0.413863 0.413863 0.413863
0.427778 0.427778 0.427778
0.441776 0.441776 0.441776
0.455841 0.455841 0.455841
0.469957 0.469957 0.469957
0.484110 0.484110 0.484110
0.498283 0.498283 0.498283
0.186824 0.186824 0.186824
0.192031 0.192031 0.192031
0.197282 0.197282 0.197282
0.202578 0.202578 0.202578
0.207918 0.207918 0.207918
0.213311 0.213311 0.213311
0.218749 0.218749 0.218749
0.224240 0.224240 0.224240
0.229785 0.229785 0.229785
0.235381 0.235381 0.235381
0.241037 0.241037 0.241037
0.246748 0.246748 0.246748
0.252520 0.252520 0.252520
0.258354 0.258354 0.258354
0.264249 0.264249 0.264249
0.276236 0.276236 0.276236
0.288459 0.288459 0.288459
0.300901 0.300901 0.300901
0.313553 0.313553 0.313553
0.326402 0.326402 0.326402
0.339436 0.339436 0.339436
0.352646 0.352646 0.352646
0.366014 0.366014 0.366014
0.379528 0.379528 0.379528
0.393175 0.393175 0.393175
0.406939 0.406939 0.406939
0.420809 0.420809 0.420809
0.434768 0.434768 0.434768
0.448801 0.448801 0.448801
0.462893 0.462893 0.462893
0.477029 0.477029 0.477029
0.491194 0.491194 0.491194
0.505372 0.505372 0.505372
0.197282 0.197282 0.197282
0.202578 0.202578 0.202578
0.207918 0.207918 0.207918
0.213311 0.213311 0.213311
0.218749 0.218749 0.218749
0.224240 0.224240 0.224240
0.229785 0.229785 0.229785
0.235381 0.235381 0.235381
0.241037 0.241037 0.241037
0.246748 0.246748 0.246748
0.252520 0.252520 0.252520
0.258354 0.258354 0.258354
0.264249 0.264249 0.264249
0.270213 0.270213 0.270213
0.276236 0.276236 0.276236
0.282319 0.282319 0.282319
0.294651 0.294651 0.294651
0.307200 0.307200 0.307200
0.319954 0.319954 0.319954
0.332898 0.332898 0.332898
0.346021 0.346021 0.346021
0.359310 0.359310 0.359310
0.372752 0.372752 0.372752
0.386336 0.386336 0.386336
0.400044 0.400044 0.400044
0.413863 0.413863 0.413863
0.427778 0.427778 0.427778
0.441776 0.441776 0.441776
0.455841 0.455841 0.455841
0.469957 0.469957 0.469957
0.484110 0.484110 0.484110
0.498283 0.498283 0.498283
0.512462 0.512462 0.512462
0.207918 0.207918 0.207918
0.213311 0.213311 0.213311
0.218749 0.218749 0.218749
0.224240 0.224240 0.224240
0.229785 0.229785 0.229785
0.235381 0.235381 0.235381
0.241037 0.241037 0.241037
0.246748 0.246748 0.246748
0.252520 0.252520 0.252520
0.258354 0.258354 0.258354
0.264249 0.264249 0.264249
0.270213 0.270213 0.270213
0.276236 0.276236 0.276236
0.282319 0.282319 0.282319
0.288459 0.288459 0.288459
0.294651 0.294651 0.294651
0.300901 0.300901 0.300901
0.313553 0.313553 0.313553
0.326402 0.326402 0.326402
0.339436 0.339436 0.339436
0.352646 0.352646 0.352646
0.366014 0.366014 0.366014
0.379528 0.379528 0.379528
0.393175 0.393175 0.393175
0.406939 0.406939 0.406939
0.420809 0.420809 0.420809
0.434768 0.434768 0.434768
0.448801 0.448801 0.448801
0.462893 0.462893 0.462893
0.477029 0.477029 0.477029
0.491194 0.491194 0.491194
0.505372 0.505372 0.505372
0.519548 0.519548 0.519548
0.218749 0.218749 0.218749
0.224240 0.224240 0.224240
0.229785 0.229785 0.229785
0.235381 0.235381 0.235381
0.241037 0.241037 0.241037
0.246748 0.246748 0.246748
0.252520 0.252520 0.252520
0.258354 0.258354 0.258354
0.264249 0.264249 0.264249
0.270213 0.270213 0.270213
0.276236 0.276236 0.276236
0.282319 0.282319 0.282319
0.288459 0.288459 0.288459
0.294651 0.294651 0.294651
0.300901 0.300901 0.300901
0.307200 0.307200 0.307200
0.313553 0.313553 0.313553
0.319954 0.319954 0.319954
0.332898 0.332898 0.332898
0.346021 0.346021 0.346021
0.359310 0.359310 0.359310
0.372752 0.372752 0.372752
0.386336 0.386336 0.386336
0.400044 0.400044 0.400044
0.413863 0.413863 0.413863
0.427778 0.427778 0.427778
0.441776 0.441776 0.441776
0.455841 0.455841 0.455841
0.469957 0.469957 0.469957
0.484110 0.484110 0.484110
0.498283 0.498283 0.498283
0.512462 0.512462 0.512462
0.526653 0.526653 0.526653
0.229785 0.229785 0.229785
0.235381 0.235381 0.235381
0.241037 0.241037 0.241037
0.246748 0.246748 0.246748
0.252520 0.252520 0.252520
0.258354 0.258354 0.258354
0.264249 0.264249 0.264249
0.270213 0.270213 0.270213
0.276236 0.276236 0.276236
0.282319 0.282319 0.282319
0.288459 0.288459 0.288459
0.294651 0.294651 0.294651
0.300901 0.300901 0.300901
0.307200 0.307200 0.307200
0.313553 0.313553 0.313553
0.319954 0.319954 0.319954
0.326402 0.326402 0.326402
0.332898 0.332898 0.332898
0.339436 0.339436 0.339436
0.352646 0.352646 0.352646
0.366014 0.366014 0.366014
0.379528 0.379528 0.379528
0.393175 0.393175 0.393175
0.406939 0.406939 0.406939
0.420809 0.420809 0.420809
0.434768 0.434768 0.434768
0.448801 0.448801 0.448801
0.462893 0.462893 0.462893
0.477029 0.477029 0.477029
0.491194 0.491194 0.491194
0.505372 0.505372 0.505372
0.519548 0.519548 0.519548
0.533828 0.533828 0.533828
0.241037 0.241037 0.241037
0.246748 0.246748 0.246748
0.252520 0.252520 0.252520
0.258354 0.258354 0.258354
0.264249 0.264249 0.264249
0.270213 0.270213 0.270213
0.276236 0.276236 0.276236
0.282319 0.282319 0.282319
0.288459 0.288459 0.288459
0.294651 0.294651 0.294651
0.300901 0.300901 0.300901
0.307200 0.307200 0.307200
0.313553 0.313553 0.313553
0.319954 0.319954 0.319954
0.326402 0.326402 0.326402
0.332898 0.332898 0.332898
0.339436 0.339436 0.339436
0.346021 0.346021 0.346021
0.352646 0.352646 0.352646
0.359310 0.359310 0.359310
0.372752 0.372752 0.372752
0.386336 0.386336 0.386336
0.400044 0.400044 0.400044
0.413863 0.413863 0.413863
0.427778 0.427778 0.427778
0.441776 0.441776 0.441776
0.455841 0.455841 0.455841
0.469957 0.469957 0.469957
0.484110 0.484110 0.484110
0.498283 0.498283 0.498283
0.512462 0.512462 0.512462
0.526653 0.526653 0.526653
0.541069 0.541069 0.541069
0.252520 0.252520 0.252520
0.258354 0.258354 0.258354
0.264249 0.264249 0.264249
0.270213 0.270213 0.270213
0.276236 0.276236 0.276236
0.282319 0.282319 0.282319
0.288459 0.288459 0.288459
0.294651 0.294651 0.294651
0.300901 0.300901 0.300901
0.307200 0.307200 0.307200
0.313553 0.313553 0.313553
0.319954 0.319954 0.319954
0.326402 0.326402 0.326402
0.332898 0.332898 0.332898
0.339436 0.339436 0.339436
0.346021 0.346021 0.346021
0.352646 0.352646 0.352646
0.359310 0.359310 0.359310
0.366014 0.366014 0.366014
0.372752 0.372752 0.372752
0.379528 0.379528 0.379528
0.393175 0.393175 0.393175
0.406939 0.406939 0.406939
0.420809 0.420809 0.420809
0.434768 0.434768 0.434768
0.448801 0.448801 0.448801
0.462893 0.462893 0.462893
0.477029 0.477029 0.477029
0.491194 0.491194 0.491194
0.505372 0.505372 0.505372
0.519548 0.519548 0.519548
0.533828 0.533828 0.533828
0.548371 0.548371 0.548371
0.264249 0.264249 0.264249
0.270213 0.270213 0.270213
0.276236 0.276236 0.276236
0.282319 0.282319 0.282319
0.288459 0.288459 0.288459
0.294651 0.294651 0.294651
0.300901 0.300901 0.300901
0.307200 0.307200 0.307200
0.313553 0.313553 0.313553
0.319954 0.319954 0.319954
0.326402 0.326402 0.326402
0.332898 0.332898 0.332898
0.339436 0.339436 0.339436
0.346021 0.346021 0.346021
0.352646 0.352646 0.352646
0.359310 0.359310 0.359310
0.366014 0.366014 0.366014
0.372752 0.372752 0.372752
0.379528 0.379528 0.379528
0.386336 0.386336 0.386336
0.393175 0.393175 0.393175
0.400044 0.400044 0.400044
0.413863 0.413863 0.413863
0.427778 0.427778 0.427778
0.441776 0.441776 0.441776
0.455841 0.455841 0.455841
0.469957 0.469957 0.469957
0.484110 0.484110 0.484110
0.498283 0.498283 0.498283
0.512462 0.512462 0.512462
0.526653 0.526653 0.526653
0.541069 0.541069 0.541069
0.555731 0.555731 0.555731
0.276236 0.276236 0.276236
0.282319 0.282319 0.282319
0.288459 0.288459 0.288459
0.294651 0.294651 0.294651
0.300901 0.300901 0.300901
0.307200 0.307200 0.307200
0.313553 0.313553 0.313553
0.319954 0.319954 0.319954
0.326402 0.326402 0.326402
0.332898 0.332898 0.332898
0.339436 0.339436 0.339436
0.346021 0.346021 0.346021
0.352646 0.352646 0.352646
0.359310 0.359310 0.359310
0.366014 0.366014 0.366014
0.372752 0.372752 0.372752
0.379528 0.379528 0.379528
0.386336 0.386336 0.386336
0.393175 0.393175 0.393175
0.400044 0.400044 0.400044
0.406939 0.406939 0.406939
0.413863 0.413863 0.413863
0.420809 0.420809 0.420809
0.434768 0.434768 0.434768
0.448801 0.448801 0.448801
0.462893 0.462893 0.462893
0.477029 0.477029 0.477029
0.491194 0.491194 0.491194
0.505372 0.505372 0.505372
0.519548 0.519548 0.519548
0.533828 0.533828 0.533828
0.548371 0.548371 0.548371
0.563138 0.563138 0.563138
0.288459 0.288459 0.288459
0.294651 0.294651 0.294651
0.300901 0.300901 0.300901
0.307200 0.307200 0.307200
0.313553 0.313553 0.313553
0.319954 0.319954 0.319954
0.326402 0.326402 0.326402
0.332898 0.332898 0.332898
0.339436 0.339436 0.339436
0.346021 0.346021 0.346021
0.352646 0.352646 0.352646
0.359310 0.359310 0.359310
0.366014 0.366014 0.366014
0.372752 0.372752 0.372752
0.379528 0.379528 0.379528
0.386336 0.386336 0.386336
0.393175 0.393175 0.393175
0.400044 0.400044 0.400044
0.406939 0.406939 0.406939
0.413863 0.413863 0.413863
0.420809 0.420809 0.420809
0.427778 0.427778 0.427778
0.434768 0.434768 0.434768
0.441776 0.441776 0.441776
0.455841 0.455841 0.455841
0.469957 0.469957 0.469957
0.484110 0.484110 0.484110
0.498283 0.498283 0.498283
0.512462 0.512462 0.512462
0.526653 0.526653 0.526653
0.541069 0.541069 0.541069
0.555731 0.555731 0.555731
0.570591 0.570591 0.570591
0.300901 0.300901 0.300901
0.307200 0.307200 0.307200
0.313553 0.313553 0.313553
0.319954 0.319954 0.319954
0.326402 0.326402 0.326402
0.332898 0.332898 0.332898
0.339436 0.339436 0.339436
0.346021 0.346021 0.346021
0.352646 0.352646 0.352646
0.359310 0.359310 0.359310
0.366014 0.366014 0.366014
0.372752 0.372752 0.372752
0.379528 0.379528 0.379528
0.386336 0.386336 0.386336
0.393175 0.393175 0.393175
0.400044 0.400044 0.400044
0.406939 0.406939 0.406939
0.413863 0.413863 0.413863
0.420809 0.420809 0.420809
0.427778 0.427778 0.427778
0.434768 0.434768 0.434768
0.441776 0.441776 0.441776
0.448801 0.448801 0.448801
0.455841 0.455841 0.455841
0.462893 0.462893 0.462893
0.477029 0.477029 0.477029
0.491194 0.491194 0.491194
0.505372 0.505372 0.505372
0.519548 0.519548 0.519548
0.533828 0.533828 0.533828
0.548371 0.548371 0.548371
0.563138 0.563138 0.563138
0.578088 0.578088 0.578088
0.313553 0.313553 0.313553
0.319954 0.319954 0.319954
0.326402 0.326402 0.326402
0.332898 0.332898 0.332898
0.339436 0.339436 0.339436
0.346021 0.346021 0.346021
0.352646 0.352646 0.352646
0.359310 0.359310 0.359310
0.366014 0.366014 0.366014
0.372752 0.372752 0.372752
0.379528 0.379528 0.379528
0.386336 0.386336 0.386336
0.393175 0.393175 0.393175
0.400044 0.400044 0.400044
0.406939 0.406939 0.406939
0.413863 0.413863 0.413863
0.420809 0.420809 0.420809
0.427778 0.427778 0.427778
0.434768 0.434768 0.434768
0.441776 0.441776 0.441776
0.448801 0.448801 0.448801
0.455841 0.455841 0.455841
0.462893 0.462893 0.462893
0.469957 0.469957 0.469957
0.477029 0.477029 0.477029
0.484110 0.484110 0.484110
0.498283 0.498283 0.498283
0.512462 0.512462 0.512462
0.526653 0.526653 0.526653
0.541069 0.541069 0.541069
0.555731 0.555731 0.555731
0.570591 0.570591 0.570591
0.585643 0.585643 0.585643
0.326402 0.326402 0.326402
0.332898 0.332898 0.332898
0.339436 0.339436 0.339436
0.346021 0.346021 0.346021
0.352646 0.352646 0.352646
0.359310 0.359310 0.359310
0.366014 0.366014 0.366014
0.372752 0.372752 0.372752
0.379528 0.379528 0.379528
0.386336 0.386336 0.386336
0.393175 0.393175 0.393175
0.400044 0.400044 0.400044
0.406939 0.406939 0.406939
0.413863 0.413863 0.413863
0.420809 0.420809 0.420809
0.427778 0.427778 0.427778
0.434768 0.434768 0.434768
0.441776 0.441776 0.441776
0.448801 0.448801 0.448801
0.455841 0.455841 0.455841
0.462893 0.462893 0.462893
0.469957 0.469957 0.469957
