ricette/lut/Paesaggio-zonale-33.cube
# LUT generata da Camera Oscura BN
# Ricetta: Paesaggio zonale
# Pellicola: zonale
# Nota: grana, vignetta e interventi locali non sono inclusi nella LUT.
TITLE "Paesaggio zonale"
LUT_3D_SIZE 33
DOMAIN_MIN 0.0 0.0 0.0
DOMAIN_MAX 1.0 1.0 1.0
0.000000 0.000000 0.000000
0.007394 0.007394 0.007394
0.014715 0.014715 0.014715
0.022180 0.022180 0.022180
0.030067 0.030067 0.030067
0.038696 0.038696 0.038696
0.048434 0.048434 0.048434
0.059728 0.059728 0.059728
0.072985 0.072985 0.072985
0.088084 0.088084 0.088084
0.104816 0.104816 0.104816
0.122939 0.122939 0.122939
0.142140 0.142140 0.142140
0.162093 0.162093 0.162093
0.182441 0.182441 0.182441
0.202790 0.202790 0.202790
0.222749 0.222749 0.222749
0.242782 0.242782 0.242782
0.263238 0.263238 0.263238
0.284044 0.284044 0.284044
0.305126 0.305126 0.305126
0.326406 0.326406 0.326406
0.347803 0.347803 0.347803
0.369237 0.369237 0.369237
0.390626 0.390626 0.390626
0.411889 0.411889 0.411889
0.432949 0.432949 0.432949
0.453730 0.453730 0.453730
0.474331 0.474331 0.474331
0.494785 0.494785 0.494785
0.515067 0.515067 0.515067
0.535564 0.535564 0.535564
0.556354 0.556354 0.556354
0.006444 0.006444 0.006444
0.011525 0.011525 0.011525
0.018896 0.018896 0.018896
0.026565 0.026565 0.026565
0.034827 0.034827 0.034827
0.044029 0.044029 0.044029
0.054590 0.054590 0.054590
0.066980 0.066980 0.066980
0.081294 0.081294 0.081294
0.097350 0.097350 0.097350
0.114904 0.114904 0.114904
0.133670 0.133670 0.133670
0.153338 0.153338 0.153338
0.173563 0.173563 0.173563
0.193960 0.193960 0.193960
0.214132 0.214132 0.214132
0.234009 0.234009 0.234009
0.254289 0.254289 0.254289
0.274950 0.274950 0.274950
0.295922 0.295922 0.295922
0.317126 0.317126 0.317126
0.338482 0.338482 0.338482
0.359910 0.359910 0.359910
0.381328 0.381328 0.381328
0.402656 0.402656 0.402656
0.423815 0.423815 0.423815
0.444722 0.444722 0.444722
0.465381 0.465381 0.465381
0.485905 0.485905 0.485905
0.506254 0.506254 0.506254
0.526602 0.526602 0.526602
0.547277 0.547277 0.547277
0.568187 0.568187 0.568187
0.012812 0.012812 0.012812
0.017931 0.017931 0.017931
0.023174 0.023174 0.023174
0.031136 0.031136 0.031136
0.039882 0.039882 0.039882
0.049804 0.049804 0.049804
0.061341 0.061341 0.061341
0.074831 0.074831 0.074831
0.090167 0.090167 0.090167
0.107100 0.107100 0.107100
0.125370 0.125370 0.125370
0.144690 0.144690 0.144690
0.164718 0.164718 0.164718
0.185088 0.185088 0.185088
0.205408 0.205408 0.205408
0.225321 0.225321 0.225321
0.245412 0.245412 0.245412
0.265915 0.265915 0.265915
0.286763 0.286763 0.286763
0.307876 0.307876 0.307876
0.329174 0.329174 0.329174
0.350581 0.350581 0.350581
0.372014 0.372014 0.372014
0.393391 0.393391 0.393391
0.414633 0.414633 0.414633
0.435658 0.435658 0.435658
0.456407 0.456407 0.456407
0.476993 0.476993 0.476993
0.497422 0.497422 0.497422
0.517705 0.517705 0.517705
0.538243 0.538243 0.538243
0.559065 0.559065 0.559065
0.580089 0.580089 0.580089
0.019244 0.019244 0.019244
0.024532 0.024532 0.024532
0.030067 0.030067 0.030067
0.035958 0.035958 0.035958
0.045319 0.045319 0.045319
0.056079 0.056079 0.056079
0.068724 0.068724 0.068724
0.083288 0.083288 0.083288
0.099549 0.099549 0.099549
0.117268 0.117268 0.117268
0.136177 0.136177 0.136177
0.155939 0.155939 0.155939
0.176205 0.176205 0.176205
0.196597 0.196597 0.196597
0.216703 0.216703 0.216703
0.236613 0.236613 0.236613
0.256946 0.256946 0.256946
0.277654 0.277654 0.277654
0.298660 0.298660 0.298660
0.319887 0.319887 0.319887
0.341258 0.341258 0.341258
0.362689 0.362689 0.362689
0.384101 0.384101 0.384101
0.405410 0.405410 0.405410
0.426539 0.426539 0.426539
0.447411 0.447411 0.447411
0.468050 0.468050 0.468050
0.488553 0.488553 0.488553
0.508876 0.508876 0.508876
0.529264 0.529264 0.529264
0.549977 0.549977 0.549977
0.570913 0.570913 0.570913
0.592049 0.592049 0.592049
0.025905 0.025905 0.025905
0.031518 0.031518 0.031518
0.037517 0.037517 0.037517
0.044029 0.044029 0.044029
0.051189 0.051189 0.051189
0.062979 0.062979 0.062979
0.076731 0.076731 0.076731
0.092274 0.092274 0.092274
0.109395 0.109395 0.109395
0.127826 0.127826 0.127826
0.147254 0.147254 0.147254
0.167346 0.167346 0.167346
0.187733 0.187733 0.187733
0.208015 0.208015 0.208015
0.227897 0.227897 0.227897
0.248048 0.248048 0.248048
0.268602 0.268602 0.268602
0.289486 0.289486 0.289486
0.310627 0.310627 0.310627
0.331946 0.331946 0.331946
0.353360 0.353360 0.353360
0.374790 0.374790 0.374790
0.396154 0.396154 0.396154
0.417372 0.417372 0.417372
0.438366 0.438366 0.438366
0.459083 0.459083 0.459083
0.479650 0.479650 0.479650
0.500058 0.500058 0.500058
0.520347 0.520347 0.520347
0.540930 0.540930 0.540930
0.561779 0.561779 0.561779
0.582829 0.582829 0.582829
0.604048 0.604048 0.604048
0.033000 0.033000 0.033000
0.039118 0.039118 0.039118
0.045781 0.045781 0.045781
0.053130 0.053130 0.053130
0.061341 0.061341 0.061341
0.070513 0.070513 0.070513
0.085295 0.085295 0.085295
0.101769 0.101769 0.101769
0.119665 0.119665 0.119665
0.138695 0.138695 0.138695
0.158544 0.158544 0.158544
0.178850 0.178850 0.178850
0.199228 0.199228 0.199228
0.219273 0.219273 0.219273
0.239226 0.239226 0.239226
0.259612 0.259612 0.259612
0.280360 0.280360 0.280360
0.301401 0.301401 0.301401
0.322652 0.322652 0.322652
0.344034 0.344034 0.344034
0.365467 0.365467 0.365467
0.386870 0.386870 0.386870
0.408162 0.408162 0.408162
0.429262 0.429262 0.429262
0.450094 0.450094 0.450094
0.470716 0.470716 0.470716
0.491200 0.491200 0.491200
0.511501 0.511501 0.511501
0.531934 0.531934 0.531934
0.552679 0.552679 0.552679
0.573642 0.573642 0.573642
0.594801 0.594801 0.594801
0.616062 0.616062 0.616062
0.040751 0.040751 0.040751
0.047574 0.047574 0.047574
0.055122 0.055122 0.055122
0.063576 0.063576 0.063576
0.072985 0.072985 0.072985
0.083288 0.083288 0.083288
0.094414 0.094414 0.094414
0.111719 0.111719 0.111719
0.130289 0.130289 0.130289
0.149829 0.149829 0.149829
0.169982 0.169982 0.169982
0.190377 0.190377 0.190377
0.210616 0.210616 0.210616
0.230487 0.230487 0.230487
0.250690 0.250690 0.250690
0.271291 0.271291 0.271291
0.292215 0.292215 0.292215
0.313383 0.313383 0.313383
0.334717 0.334717 0.334717
0.356139 0.356139 0.356139
0.377565 0.377565 0.377565
0.398915 0.398915 0.398915
0.420107 0.420107 0.420107
0.441065 0.441065 0.441065
0.461757 0.461757 0.461757
0.482306 0.482306 0.482306
0.502688 0.502688 0.502688
0.522997 0.522997 0.522997
0.543619 0.543619 0.543619
0.564496 0.564496 0.564496
0.585573 0.585573 0.585573
0.606804 0.606804 0.606804
0.628069 0.628069 0.628069
0.049408 0.049408 0.049408
0.057166 0.057166 0.057166
0.065867 0.065867 0.065867
0.075508 0.075508 0.075508
0.086027 0.086027 0.086027
0.097350 0.097350 0.097350
0.109395 0.109395 0.109395
0.122071 0.122071 0.122071
0.141232 0.141232 0.141232
0.161159 0.161159 0.161159
0.181496 0.181496 0.181496
0.201853 0.201853 0.201853
0.221834 0.221834 0.221834
0.241844 0.241844 0.241844
0.262282 0.262282 0.262282
0.283075 0.283075 0.283075
0.304145 0.304145 0.304145
0.325417 0.325417 0.325417
0.346811 0.346811 0.346811
0.368245 0.368245 0.368245
0.389638 0.389638 0.389638
0.410909 0.410909 0.410909
0.431978 0.431978 0.431978
0.452774 0.452774 0.452774
0.473380 0.473380 0.473380
0.493841 0.493841 0.493841
0.514127 0.514127 0.514127
0.534607 0.534607 0.534607
0.555387 0.555387 0.555387
0.576374 0.576374 0.576374
0.597553 0.597553 0.597553
0.618819 0.618819 0.618819
0.640047 0.640047 0.640047
0.059271 0.059271 0.059271
0.068217 0.068217 0.068217
0.078089 0.078089 0.078089
0.088819 0.088819 0.088819
0.100334 0.100334 0.100334
0.112549 0.112549 0.112549
0.125370 0.125370 0.125370
0.138695 0.138695 0.138695
0.152413 0.152413 0.152413
0.172619 0.172619 0.172619
0.193018 0.193018 0.193018
0.213207 0.213207 0.213207
0.233079 0.233079 0.233079
0.253341 0.253341 0.253341
0.273987 0.273987 0.273987
0.294945 0.294945 0.294945
0.316141 0.316141 0.316141
0.337491 0.337491 0.337491
0.358918 0.358918 0.358918
0.380338 0.380338 0.380338
0.401672 0.401672 0.401672
0.422839 0.422839 0.422839
0.443762 0.443762 0.443762
0.464428 0.464428 0.464428
0.484958 0.484958 0.484958
0.505317 0.505317 0.505317
0.525652 0.525652 0.525652
0.546314 0.546314 0.546314
0.567215 0.567215 0.567215
0.588319 0.588319 0.588319
0.609562 0.609562 0.609562
0.630821 0.630821 0.630821
0.651974 0.651974 0.651974
0.070641 0.070641 0.070641
0.080736 0.080736 0.080736
0.091672 0.091672 0.091672
0.103371 0.103371 0.103371
0.115748 0.115748 0.115748
0.128706 0.128706 0.128706
0.142140 0.142140 0.142140
0.155939 0.155939 0.155939
0.169982 0.169982 0.169982
0.184143 0.184143 0.184143
0.204474 0.204474 0.204474
0.224401 0.224401 0.224401
0.244473 0.244473 0.244473
0.264959 0.264959 0.264959
0.285791 0.285791 0.285791
0.306893 0.306893 0.306893
0.328186 0.328186 0.328186
0.349589 0.349589 0.349589
0.371022 0.371022 0.371022
0.392404 0.392404 0.392404
0.413654 0.413654 0.413654
0.434691 0.434691 0.434691
0.455451 0.455451 0.455451
0.476042 0.476042 0.476042
0.496481 0.496481 0.496481
0.516763 0.516763 0.516763
0.537286 0.537286 0.537286
0.558096 0.558096 0.558096
0.579111 0.579111 0.579111
0.600308 0.600308 0.600308
0.621576 0.621576 0.621576
0.642789 0.642789 0.642789
0.663825 0.663825 0.663825
0.083431 0.083431 0.083431
0.094568 0.094568 0.094568
0.106447 0.106447 0.106447
0.118980 0.118980 0.118980
0.132068 0.132068 0.132068
0.145606 0.145606 0.145606
0.159478 0.159478 0.159478
0.173563 0.173563 0.173563
0.187733 0.187733 0.187733
0.201853 0.201853 0.201853
0.215785 0.215785 0.215785
0.235683 0.235683 0.235683
0.255995 0.255995 0.255995
0.276688 0.276688 0.276688
0.297682 0.297682 0.297682
0.318901 0.318901 0.318901
0.340266 0.340266 0.340266
0.361696 0.361696 0.361696
0.383111 0.383111 0.383111
0.404428 0.404428 0.404428
0.425566 0.425566 0.425566
0.446451 0.446451 0.446451
0.467098 0.467098 0.467098
0.487608 0.487608 0.487608
0.507940 0.507940 0.507940
0.528313 0.528313 0.528313
0.549012 0.549012 0.549012
0.569939 0.569939 0.569939
0.591067 0.591067 0.591067
0.612319 0.612319 0.612319
0.633572 0.633572 0.633572
0.654701 0.654701 0.654701
0.675583 0.675583 0.675583
0.097507 0.097507 0.097507
0.109561 0.109561 0.109561
0.122244 0.122244 0.122244
0.135457 0.135457 0.135457
0.149091 0.149091 0.149091
0.163030 0.163030 0.163030
0.177150 0.177150 0.177150
0.191321 0.191321 0.191321
0.205408 0.205408 0.205408
0.219273 0.219273 0.219273
0.233079 0.233079 0.233079
0.247104 0.247104 0.247104
0.267642 0.267642 0.267642
0.288514 0.288514 0.288514
0.309643 0.309643 0.309643
0.330956 0.330956 0.330956
0.352368 0.352368 0.352368
0.373799 0.373799 0.373799
0.395168 0.395168 0.395168
0.416394 0.416394 0.416394
0.437399 0.437399 0.437399
0.458128 0.458128 0.458128
0.478701 0.478701 0.478701
0.499116 0.499116 0.499116
0.519401 0.519401 0.519401
0.539970 0.539970 0.539970
0.560809 0.560809 0.560809
0.581850 0.581850 0.581850
0.603063 0.603063 0.603063
0.624331 0.624331 0.624331
0.645529 0.645529 0.645529
0.666534 0.666534 0.666534
0.687218 0.687218 0.687218
0.112715 0.112715 0.112715
0.125544 0.125544 0.125544
0.138875 0.138875 0.138875
0.152598 0.152598 0.152598
0.166595 0.166595 0.166595
0.180740 0.180740 0.180740
0.194903 0.194903 0.194903
0.208946 0.208946 0.208946
0.222749 0.222749 0.222749
0.236613 0.236613 0.236613
0.250690 0.250690 0.250690
0.264959 0.264959 0.264959
0.279394 0.279394 0.279394
0.300421 0.300421 0.300421
0.321664 0.321664 0.321664
0.343042 0.343042 0.343042
0.364475 0.364475 0.364475
0.385881 0.385881 0.385881
0.407179 0.407179 0.407179
0.428291 0.428291 0.428291
0.449136 0.449136 0.449136
0.469764 0.469764 0.469764
0.490255 0.490255 0.490255
0.510563 0.510563 0.510563
0.530980 0.530980 0.530980
0.551714 0.551714 0.551714
0.572666 0.572666 0.572666
0.593818 0.593818 0.593818
0.615077 0.615077 0.615077
0.636321 0.636321 0.636321
0.657424 0.657424 0.657424
0.678263 0.678263 0.678263
0.698716 0.698716 0.698716
0.128881 0.128881 0.128881
0.142322 0.142322 0.142322
0.156124 0.156124 0.156124
0.170170 0.170170 0.170170
0.184332 0.184332 0.184332
0.198476 0.198476 0.198476
0.212466 0.212466 0.212466
0.226241 0.226241 0.226241
0.240161 0.240161 0.240161
0.254289 0.254289 0.254289
0.268602 0.268602 0.268602
0.283075 0.283075 0.283075
0.297682 0.297682 0.297682
0.312399 0.312399 0.312399
0.333727 0.333727 0.333727
0.355146 0.355146 0.355146
0.376574 0.376574 0.376574
0.397929 0.397929 0.397929
0.419132 0.419132 0.419132
0.440101 0.440101 0.440101
0.460802 0.460802 0.460802
0.481358 0.481358 0.481358
0.501749 0.501749 0.501749
0.522050 0.522050 0.522050
0.542658 0.542658 0.542658
0.563525 0.563525 0.563525
0.584593 0.584593 0.584593
0.605820 0.605820 0.605820
0.627086 0.627086 0.627086
0.648265 0.648265 0.648265
0.669235 0.669235 0.669235
0.689873 0.689873 0.689873
0.710048 0.710048 0.710048
0.145789 0.145789 0.145789
0.159665 0.159665 0.159665
0.173752 0.173752 0.173752
0.187922 0.187922 0.187922
0.202041 0.202041 0.202041
0.215969 0.215969 0.215969
0.229747 0.229747 0.229747
0.243721 0.243721 0.243721
0.257898 0.257898 0.257898
0.272254 0.272254 0.272254
0.286763 0.286763 0.286763
0.301401 0.301401 0.301401
0.316141 0.316141 0.316141
0.330956 0.330956 0.330956
0.345819 0.345819 0.345819
0.367253 0.367253 0.367253
0.388650 0.388650 0.388650
0.409928 0.409928 0.409928
0.431008 0.431008 0.431008
0.451817 0.451817 0.451817
0.472430 0.472430 0.472430
0.492898 0.492898 0.492898
0.513189 0.513189 0.513189
0.533650 0.533650 0.533650
0.554419 0.554419 0.554419
0.575398 0.575398 0.575398
0.596570 0.596570 0.596570
0.617834 0.617834 0.617834
0.639066 0.639066 0.639066
0.660144 0.660144 0.660144
0.680940 0.680940 0.680940
0.701331 0.701331 0.701331
0.721198 0.721198 0.721198
0.163217 0.163217 0.163217
0.177338 0.177338 0.177338
0.191509 0.191509 0.191509
0.205594 0.205594 0.205594
0.219456 0.219456 0.219456
0.233265 0.233265 0.233265
0.247293 0.247293 0.247293
0.261518 0.261518 0.261518
0.275915 0.275915 0.275915
0.290459 0.290459 0.290459
0.305126 0.305126 0.305126
0.319887 0.319887 0.319887
0.334717 0.334717 0.334717
0.349589 0.349589 0.349589
0.364475 0.364475 0.364475
0.379348 0.379348 0.379348
0.400688 0.400688 0.400688
0.421864 0.421864 0.421864
0.442800 0.442800 0.442800
0.463474 0.463474 0.463474
0.484011 0.484011 0.484011
0.504378 0.504378 0.504378
0.524702 0.524702 0.524702
0.545351 0.545351 0.545351
0.566244 0.566244 0.566244
0.587337 0.587337 0.587337
0.608577 0.608577 0.608577
0.629838 0.629838 0.629838
0.650999 0.650999 0.650999
0.671932 0.671932 0.671932
0.692514 0.692514 0.692514
0.712626 0.712626 0.712626
0.732144 0.732144 0.732144
0.180929 0.180929 0.180929
0.195092 0.195092 0.195092
0.209133 0.209133 0.209133
0.222932 0.222932 0.222932
0.236799 0.236799 0.236799
0.250879 0.250879 0.250879
0.265150 0.265150 0.265150
0.279587 0.279587 0.279587
0.294165 0.294165 0.294165
0.308858 0.308858 0.308858
0.323639 0.323639 0.323639
0.338482 0.338482 0.338482
0.353360 0.353360 0.353360
0.368245 0.368245 0.368245
0.383111 0.383111 0.383111
0.397929 0.397929 0.397929
0.412674 0.412674 0.412674
0.433724 0.433724 0.433724
0.454495 0.454495 0.454495
0.475092 0.475092 0.475092
0.495539 0.495539 0.495539
0.515820 0.515820 0.515820
0.536330 0.536330 0.536330
0.557128 0.557128 0.557128
0.578133 0.578133 0.578133
0.599324 0.599324 0.599324
0.620591 0.620591 0.620591
0.641811 0.641811 0.641811
0.662857 0.662857 0.662857
0.683608 0.683608 0.683608
0.703941 0.703941 0.703941
0.723729 0.723729 0.723729
0.742860 0.742860 0.742860
0.198664 0.198664 0.198664
0.212651 0.212651 0.212651
0.226425 0.226425 0.226425
0.240348 0.240348 0.240348
0.254479 0.254479 0.254479
0.268794 0.268794 0.268794
0.283269 0.283269 0.283269
0.297878 0.297878 0.297878
0.312595 0.312595 0.312595
0.327395 0.327395 0.327395
0.342249 0.342249 0.342249
0.357131 0.357131 0.357131
0.372014 0.372014 0.372014
0.386870 0.386870 0.386870
0.401672 0.401672 0.401672
0.416394 0.416394 0.416394
0.431008 0.431008 0.431008
0.445490 0.445490 0.445490
0.466144 0.466144 0.466144
0.486662 0.486662 0.486662
0.507003 0.507003 0.507003
0.527362 0.527362 0.527362
0.548047 0.548047 0.548047
0.568966 0.568966 0.568966
0.590086 0.590086 0.590086
0.611334 0.611334 0.611334
0.632590 0.632590 0.632590
0.653727 0.653727 0.653727
0.674622 0.674622 0.674622
0.695152 0.695152 0.695152
0.715190 0.715190 0.715190
0.734623 0.734623 0.734623
0.753336 0.753336 0.753336
0.216153 0.216153 0.216153
0.229932 0.229932 0.229932
0.243909 0.243909 0.243909
0.258089 0.258089 0.258089
0.272446 0.272446 0.272446
0.286958 0.286958 0.286958
0.301597 0.301597 0.301597
0.316338 0.316338 0.316338
0.331154 0.331154 0.331154
0.346018 0.346018 0.346018
0.360903 0.360903 0.360903
0.375781 0.375781 0.375781
0.390626 0.390626 0.390626
0.405410 0.405410 0.405410
0.420107 0.420107 0.420107
0.434691 0.434691 0.434691
0.449136 0.449136 0.449136
0.463474 0.463474 0.463474
0.477752 0.477752 0.477752
0.498175 0.498175 0.498175
0.518459 0.518459 0.518459
0.539011 0.539011 0.539011
0.559840 0.559840 0.559840
0.580872 0.580872 0.580872
0.602079 0.602079 0.602079
0.623347 0.623347 0.623347
0.644551 0.644551 0.644551
0.665568 0.665568 0.665568
0.686270 0.686270 0.686270
0.706536 0.706536 0.706536
0.726250 0.726250 0.726250
0.745288 0.745288 0.745288
0.763537 0.763537 0.763537
0.233451 0.233451 0.233451
0.247482 0.247482 0.247482
0.261709 0.261709 0.261709
0.276108 0.276108 0.276108
0.290654 0.290654 0.290654
0.305322 0.305322 0.305322
0.320085 0.320085 0.320085
0.334915 0.334915 0.334915
0.349787 0.349787 0.349787
0.364674 0.364674 0.364674
0.379546 0.379546 0.379546
0.394379 0.394379 0.394379
0.409144 0.409144 0.409144
0.423815 0.423815 0.423815
0.438366 0.438366 0.438366
0.452774 0.452774 0.452774
0.467098 0.467098 0.467098
0.481358 0.481358 0.481358
0.495539 0.495539 0.495539
0.509626 0.509626 0.509626
0.530027 0.530027 0.530027
0.550749 0.550749 0.550749
0.571692 0.571692 0.571692
0.592835 0.592835 0.592835
0.614092 0.614092 0.614092
0.635339 0.635339 0.635339
0.656453 0.656453 0.656453
0.677306 0.677306 0.677306
0.697778 0.697778 0.697778
0.717749 0.717749 0.717749
0.737091 0.737091 0.737091
0.755698 0.755698 0.755698
0.773462 0.773462 0.773462
0.251068 0.251068 0.251068
0.265341 0.265341 0.265341
0.279780 0.279780 0.279780
0.294360 0.294360 0.294360
0.309054 0.309054 0.309054
0.323837 0.323837 0.323837
0.338680 0.338680 0.338680
0.353558 0.353558 0.353558
0.368444 0.368444 0.368444
0.383309 0.383309 0.383309
0.398126 0.398126 0.398126
0.412870 0.412870 0.412870
0.427512 0.427512 0.427512
0.442029 0.442029 0.442029
0.456407 0.456407 0.456407
0.470716 0.470716 0.470716
0.484958 0.484958 0.484958
0.499116 0.499116 0.499116
0.513189 0.513189 0.513189
0.527362 0.527362 0.527362
0.541698 0.541698 0.541698
0.562554 0.562554 0.562554
0.583613 0.583613 0.583613
0.604835 0.604835 0.604835
0.626102 0.626102 0.626102
0.647289 0.647289 0.647289
0.668270 0.668270 0.668270
0.688925 0.688925 0.688925
0.709128 0.709128 0.709128
0.728756 0.728756 0.728756
0.747699 0.747699 0.747699
0.765846 0.765846 0.765846
0.783077 0.783077 0.783077
0.268986 0.268986 0.268986
0.283462 0.283462 0.283462
0.298073 0.298073 0.298073
0.312792 0.312792 0.312792
0.327593 0.327593 0.327593
0.342447 0.342447 0.342447
0.357330 0.357330 0.357330
0.372212 0.372212 0.372212
0.387068 0.387068 0.387068
0.401869 0.401869 0.401869
0.416589 0.416589 0.416589
0.431202 0.431202 0.431202
0.445682 0.445682 0.445682
0.460038 0.460038 0.460038
0.474331 0.474331 0.474331
0.488553 0.488553 0.488553
0.502688 0.502688 0.502688
0.516763 0.516763 0.516763
0.530980 0.530980 0.530980
0.545351 0.545351 0.545351
0.559840 0.559840 0.559840
0.574423 0.574423 0.574423
0.595587 0.595587 0.595587
0.616850 0.616850 0.616850
0.638086 0.638086 0.638086
0.659172 0.659172 0.659172
0.679986 0.679986 0.679986
0.700398 0.700398 0.700398
0.720291 0.720291 0.720291
0.739549 0.739549 0.739549
0.758053 0.758053 0.758053
0.775693 0.775693 0.775693
0.792375 0.792375 0.792375
0.287152 0.287152 0.287152
0.301793 0.301793 0.301793
0.316535 0.316535 0.316535
0.331352 0.331352 0.331352
0.346216 0.346216 0.346216
0.361101 0.361101 0.361101
0.375979 0.375979 0.375979
0.390824 0.390824 0.390824
0.405607 0.405607 0.405607
0.420303 0.420303 0.420303
0.434884 0.434884 0.434884
0.449328 0.449328 0.449328
0.463665 0.463665 0.463665
0.477942 0.477942 0.477942
0.492143 0.492143 0.492143
0.506254 0.506254 0.506254
0.520347 0.520347 0.520347
0.534607 0.534607 0.534607
0.549012 0.549012 0.549012
0.563525 0.563525 0.563525
0.578133 0.578133 0.578133
0.592835 0.592835 0.592835
0.607592 0.607592 0.607592
0.628855 0.628855 0.628855
0.650023 0.650023 0.650023
0.670971 0.670971 0.670971
0.691571 0.691571 0.691571
0.711705 0.711705 0.711705
0.731256 0.731256 0.731256
0.750098 0.750098 0.750098
0.768128 0.768128 0.768128
0.785242 0.785242 0.785242
0.801413 0.801413 0.801413
0.305518 0.305518 0.305518
0.320282 0.320282 0.320282
0.335114 0.335114 0.335114
0.349986 0.349986 0.349986
0.364872 0.364872 0.364872
0.379744 0.379744 0.379744
0.394576 0.394576 0.394576
0.409340 0.409340 0.409340
0.424010 0.424010 0.424010
0.438559 0.438559 0.438559
0.452965 0.452965 0.452965
0.467288 0.467288 0.467288
0.481548 0.481548 0.481548
0.495728 0.495728 0.495728
0.509813 0.509813 0.509813
0.523943 0.523943 0.523943
0.538243 0.538243 0.538243
0.552679 0.552679 0.552679
0.567215 0.567215 0.567215
0.581850 0.581850 0.581850
0.596570 0.596570 0.596570
0.611334 0.611334 0.611334
0.626102 0.626102 0.626102
0.640831 0.640831 0.640831
0.661889 0.661889 0.661889
0.682655 0.682655 0.682655
0.703009 0.703009 0.703009
0.722828 0.722828 0.722828
0.741990 0.741990 0.741990
0.760389 0.760389 0.760389
0.777918 0.777918 0.777918
0.794467 0.794467 0.794467
0.810253 0.810253 0.810253
0.324034 0.324034 0.324034
0.338878 0.338878 0.338878
0.353757 0.353757 0.353757
0.368642 0.368642 0.368642
0.383507 0.383507 0.383507
0.398323 0.398323 0.398323
0.413066 0.413066 0.413066
0.427707 0.427707 0.427707
0.442221 0.442221 0.442221
0.456599 0.456599 0.456599
0.470907 0.470907 0.470907
0.485147 0.485147 0.485147
0.499305 0.499305 0.499305
0.513377 0.513377 0.513377
0.527552 0.527552 0.527552
0.541890 0.541890 0.541890
0.556354 0.556354 0.556354
0.570913 0.570913 0.570913
0.585573 0.585573 0.585573
0.600308 0.600308 0.600308
0.615077 0.615077 0.615077
0.629838 0.629838 0.629838
0.644551 0.644551 0.644551
0.659172 0.659172 0.659172
0.673661 0.673661 0.673661
0.694212 0.694212 0.694212
0.714276 0.714276 0.714276
0.733737 0.733737 0.733737
0.752485 0.752485 0.752485
0.770403 0.770403 0.770403
0.787384 0.787384 0.787384
0.803459 0.803459 0.803459
0.818903 0.818903 0.818903
0.342646 0.342646 0.342646
0.357528 0.357528 0.357528
0.372411 0.372411 0.372411
0.387265 0.387265 0.387265
0.402066 0.402066 0.402066
0.416785 0.416785 0.416785
0.431396 0.431396 0.431396
0.445874 0.445874 0.445874
0.460229 0.460229 0.460229
0.474521 0.474521 0.474521
0.488742 0.488742 0.488742
0.502876 0.502876 0.502876
0.516951 0.516951 0.516951
0.531171 0.531171 0.531171
0.545544 0.545544 0.545544
0.560034 0.560034 0.560034
0.574618 0.574618 0.574618
0.589301 0.589301 0.589301
0.604048 0.604048 0.604048
0.618819 0.618819 0.618819
0.633572 0.633572 0.633572
0.648265 0.648265 0.648265
0.662857 0.662857 0.662857
0.677306 0.677306 0.677306
0.691571 0.691571 0.691571
0.705610 0.705610 0.705610
0.725349 0.725349 0.725349
0.744425 0.744425 0.744425
0.762713 0.762713 0.762713
0.780114 0.780114 0.780114
0.796550 0.796550 0.796550
0.812256 0.812256 0.812256
0.827352 0.827352 0.827352
0.361300 0.361300 0.361300
0.376177 0.376177 0.376177
0.391021 0.391021 0.391021
0.405803 0.405803 0.405803
0.420498 0.420498 0.420498
0.435078 0.435078 0.435078
0.449519 0.449519 0.449519
0.463856 0.463856 0.463856
0.478131 0.478131 0.478131
0.492332 0.492332 0.492332
0.506441 0.506441 0.506441
0.520536 0.520536 0.520536
0.534799 0.534799 0.534799
0.549205 0.549205 0.549205
0.563719 0.563719 0.563719
0.578329 0.578329 0.578329
0.593032 0.593032 0.593032
0.607789 0.607789 0.607789
0.622560 0.622560 0.622560
0.637302 0.637302 0.637302
0.651974 0.651974 0.651974
