ricette/lut/Paesaggio-zonale-33.cube
# LUT generata da Camera Oscura BN
# Ricetta: Paesaggio zonale
# Pellicola: zonale
# Nota: grana, vignetta e interventi locali non sono inclusi nella LUT.
TITLE "Paesaggio zonale"
LUT_3D_SIZE 5
DOMAIN_MIN 0.0 0.0 0.0
DOMAIN_MAX 1.0 1.0 1.0
0.000000 0.000000 0.000000
0.072985 0.072985 0.072985
0.222749 0.222749 0.222749
0.390626 0.390626 0.390626
0.556354 0.556354 0.556354
0.059271 0.059271 0.059271
0.152413 0.152413 0.152413
0.316141 0.316141 0.316141
0.484958 0.484958 0.484958
0.651974 0.651974 0.651974
0.180929 0.180929 0.180929
0.294165 0.294165 0.294165
0.412674 0.412674 0.412674
0.578133 0.578133 0.578133
0.742860 0.742860 0.742860
0.324034 0.324034 0.324034
0.442221 0.442221 0.442221
0.556354 0.556354 0.556354
0.673661 0.673661 0.673661
0.818903 0.818903 0.818903
0.471288 0.471288 0.471288
0.585965 0.585965 0.585965
0.702450 0.702450 0.702450
0.802874 0.802874 0.802874
0.881213 0.881213 0.881213
0.000000 0.000000 0.000000
0.119494 0.119494 0.119494
0.280167 0.280167 0.280167
0.449902 0.449902 0.449902
0.615865 0.615865 0.615865
0.051593 0.051593 0.051593
0.199040 0.199040 0.199040
0.365269 0.365269 0.365269
0.531743 0.531743 0.531743
0.699466 0.699466 0.699466
0.167346 0.167346 0.167346
0.343042 0.343042 0.343042
0.460611 0.460611 0.460611
0.626889 0.626889 0.626889
0.783696 0.783696 0.783696
0.309840 0.309840 0.309840
0.489498 0.489498 0.489498
0.604835 0.604835 0.604835
0.720109 0.720109 0.720109
0.852074 0.852074 0.852074
0.457555 0.457555 0.457555
0.634750 0.634750 0.634750
0.747010 0.747010 0.747010
0.837481 0.837481 0.837481
0.908392 0.908392 0.908392
0.000000 0.000000 0.000000
0.116760 0.116760 0.116760
0.339870 0.339870 0.339870
0.507565 0.507565 0.507565
0.675199 0.675199 0.675199
0.050002 0.050002 0.050002
0.196033 0.196033 0.196033
0.425177 0.425177 0.425177
0.590675 0.590675 0.590675
0.753843 0.753843 0.753843
0.153895 0.153895 0.153895
0.328779 0.328779 0.328779
0.507565 0.507565 0.507565
0.675199 0.675199 0.675199
0.820019 0.820019 0.820019
0.295727 0.295727 0.295727
0.475852 0.475852 0.475852
0.653532 0.653532 0.653532
0.763207 0.763207 0.763207
0.882137 0.882137 0.882137
0.443762 0.443762 0.443762
0.620591 0.620591 0.620591
0.787384 0.787384 0.787384
0.868936 0.868936 0.868936
0.932363 0.932363 0.932363
0.000000 0.000000 0.000000
0.114061 0.114061 0.114061
0.336699 0.336699 0.336699
0.565661 0.565661 0.565661
0.731612 0.731612 0.731612
0.048434 0.048434 0.048434
0.193018 0.193018 0.193018
0.422059 0.422059 0.422059
0.650413 0.650413 0.650413
0.801706 0.801706 0.801706
0.150937 0.150937 0.150937
0.325615 0.325615 0.325615
0.504566 0.504566 0.504566
0.731612 0.731612 0.731612
0.860123 0.860123 0.860123
0.281717 0.281717 0.281717
0.462139 0.462139 0.462139
0.639459 0.639459 0.639459
0.801706 0.801706 0.801706
0.909221 0.909221 0.909221
0.429844 0.429844 0.429844
0.606411 0.606411 0.606411
0.776170 0.776170 0.776170
0.897350 0.897350 0.897350
0.953028 0.953028 0.953028
0.000000 0.000000 0.000000
0.111387 0.111387 0.111387
0.333529 0.333529 0.333529
0.562554 0.562554 0.562554
0.782458 0.782458 0.782458
0.046905 0.046905 0.046905
0.190000 0.190000 0.190000
0.418937 0.418937 0.418937
0.647289 0.647289 0.647289
0.843813 0.843813 0.843813
0.147987 0.147987 0.147987
0.322454 0.322454 0.322454
0.501561 0.501561 0.501561
0.728756 0.728756 0.728756
0.895604 0.895604 0.895604
0.278621 0.278621 0.278621
0.459083 0.459083 0.459083
0.636321 0.636321 0.636321
0.799355 0.799355 0.799355
0.937926 0.937926 0.937926
0.415807 0.415807 0.415807
0.592245 0.592245 0.592245
0.764527 0.764527 0.764527
0.889405 0.889405 0.889405
0.972549 0.972549 0.972549
