ricette/lut/Paesaggio-zonale-33.cube
# LUT generata da Camera Oscura BN
# Ricetta: Paesaggio zonale
# Pellicola: zonale
# Nota: grana, vignetta e interventi locali non sono inclusi nella LUT.
TITLE "Paesaggio zonale"
LUT_3D_SIZE 9
DOMAIN_MIN 0.0 0.0 0.0
DOMAIN_MAX 1.0 1.0 1.0
0.000000 0.000000 0.000000
0.030067 0.030067 0.030067
0.072985 0.072985 0.072985
0.142140 0.142140 0.142140
0.222749 0.222749 0.222749
0.305126 0.305126 0.305126
0.390626 0.390626 0.390626
0.474331 0.474331 0.474331
0.556354 0.556354 0.556354
0.025905 0.025905 0.025905
0.051189 0.051189 0.051189
0.109395 0.109395 0.109395
0.187733 0.187733 0.187733
0.268602 0.268602 0.268602
0.353360 0.353360 0.353360
0.438366 0.438366 0.438366
0.520347 0.520347 0.520347
0.604048 0.604048 0.604048
0.059271 0.059271 0.059271
0.100334 0.100334 0.100334
0.152413 0.152413 0.152413
0.233079 0.233079 0.233079
0.316141 0.316141 0.316141
0.401672 0.401672 0.401672
0.484958 0.484958 0.484958
0.567215 0.567215 0.567215
0.651974 0.651974 0.651974
0.112715 0.112715 0.112715
0.166595 0.166595 0.166595
0.222749 0.222749 0.222749
0.279394 0.279394 0.279394
0.364475 0.364475 0.364475
0.449136 0.449136 0.449136
0.530980 0.530980 0.530980
0.615077 0.615077 0.615077
0.698716 0.698716 0.698716
0.180929 0.180929 0.180929
0.236799 0.236799 0.236799
0.294165 0.294165 0.294165
0.353360 0.353360 0.353360
0.412674 0.412674 0.412674
0.495539 0.495539 0.495539
0.578133 0.578133 0.578133
0.662857 0.662857 0.662857
0.742860 0.742860 0.742860
0.251068 0.251068 0.251068
0.309054 0.309054 0.309054
0.368444 0.368444 0.368444
0.427512 0.427512 0.427512
0.484958 0.484958 0.484958
0.541698 0.541698 0.541698
0.626102 0.626102 0.626102
0.709128 0.709128 0.709128
0.783077 0.783077 0.783077
0.324034 0.324034 0.324034
0.383507 0.383507 0.383507
0.442221 0.442221 0.442221
0.499305 0.499305 0.499305
0.556354 0.556354 0.556354
0.615077 0.615077 0.615077
0.673661 0.673661 0.673661
0.752485 0.752485 0.752485
0.818903 0.818903 0.818903
0.398521 0.398521 0.398521
0.456790 0.456790 0.456790
0.513564 0.513564 0.513564
0.571108 0.571108 0.571108
0.630035 0.630035 0.630035
0.688166 0.688166 0.688166
0.742860 0.742860 0.742860
0.791624 0.791624 0.791624
0.851562 0.851562 0.851562
0.471288 0.471288 0.471288
0.527933 0.527933 0.527933
0.585965 0.585965 0.585965
0.644942 0.644942 0.644942
0.702450 0.702450 0.702450
0.755867 0.755867 0.755867
0.802874 0.802874 0.802874
0.844335 0.844335 0.844335
0.881213 0.881213 0.881213
0.000000 0.000000 0.000000
0.042506 0.042506 0.042506
0.094722 0.094722 0.094722
0.170358 0.170358 0.170358
0.251068 0.251068 0.251068
0.335114 0.335114 0.335114
0.420498 0.420498 0.420498
0.503064 0.503064 0.503064
0.585965 0.585965 0.585965
0.023317 0.023317 0.023317
0.064891 0.064891 0.064891
0.130645 0.130645 0.130645
0.210986 0.210986 0.210986
0.292605 0.292605 0.292605
0.377961 0.377961 0.377961
0.462139 0.462139 0.462139
0.544004 0.544004 0.544004
0.628462 0.628462 0.628462
0.055334 0.055334 0.055334
0.120864 0.120864 0.120864
0.175639 0.175639 0.175639
0.256375 0.256375 0.256375
0.340663 0.340663 0.340663
0.425956 0.425956 0.425956
0.508314 0.508314 0.508314
0.591460 0.591460 0.591460
0.675966 0.675966 0.675966
0.106774 0.106774 0.106774
0.190000 0.190000 0.190000
0.245788 0.245788 0.245788
0.303557 0.303557 0.303557
0.389046 0.389046 0.389046
0.472810 0.472810 0.472810
0.554806 0.554806 0.554806
0.639459 0.639459 0.639459
0.721561 0.721561 0.721561
0.174129 0.174129 0.174129
0.260183 0.260183 0.260183
0.318507 0.318507 0.318507
0.377961 0.377961 0.377961
0.436819 0.436819 0.436819
0.518835 0.518835 0.518835
0.602473 0.602473 0.602473
0.686649 0.686649 0.686649
0.763867 0.763867 0.763867
0.244285 0.244285 0.244285
0.333529 0.333529 0.333529
0.392996 0.392996 0.392996
0.451434 0.451434 0.451434
0.508314 0.508314 0.508314
0.565661 0.565661 0.565661
0.650413 0.650413 0.650413
0.731612 0.731612 0.731612
0.801706 0.801706 0.801706
0.316929 0.316929 0.316929
0.407965 0.407965 0.407965
0.465954 0.465954 0.465954
0.522618 0.522618 0.522618
0.580480 0.580480 0.580480
0.639459 0.639459 0.639459
0.697215 0.697215 0.697215
0.772979 0.772979 0.772979
0.835884 0.835884 0.835884
0.391416 0.391416 0.391416
0.480409 0.480409 0.480409
0.537095 0.537095 0.537095
0.595391 0.595391 0.595391
0.654311 0.654311 0.654311
0.711337 0.711337 0.711337
0.763867 0.763867 0.763867
0.809822 0.809822 0.809822
0.867000 0.867000 0.867000
0.464428 0.464428 0.464428
0.551714 0.551714 0.551714
0.610350 0.610350 0.610350
0.669042 0.669042 0.669042
0.725169 0.725169 0.725169
0.776170 0.776170 0.776170
0.820577 0.820577 0.820577
0.860123 0.860123 0.860123
0.895167 0.895167 0.895167
0.000000 0.000000 0.000000
0.041793 0.041793 0.041793
0.119494 0.119494 0.119494
0.199040 0.199040 0.199040
0.280167 0.280167 0.280167
0.365269 0.365269 0.365269
0.449902 0.449902 0.449902
0.531743 0.531743 0.531743
0.615865 0.615865 0.615865
0.022747 0.022747 0.022747
0.063935 0.063935 0.063935
0.158357 0.158357 0.158357
0.239039 0.239039 0.239039
0.322454 0.322454 0.322454
0.407965 0.407965 0.407965
0.491011 0.491011 0.491011
0.573447 0.573447 0.573447
0.658201 0.658201 0.658201
0.051593 0.051593 0.051593
0.114736 0.114736 0.114736
0.199040 0.199040 0.199040
0.280167 0.280167 0.280167
0.365269 0.365269 0.365269
0.449902 0.449902 0.449902
0.531743 0.531743 0.531743
0.615865 0.615865 0.615865
0.699466 0.699466 0.699466
0.100969 0.100969 0.100969
0.183197 0.183197 0.183197
0.269369 0.269369 0.269369
0.327988 0.327988 0.327988
0.413458 0.413458 0.413458
0.496293 0.496293 0.496293
0.578915 0.578915 0.578915
0.663632 0.663632 0.663632
0.743555 0.743555 0.743555
0.167346 0.167346 0.167346
0.253341 0.253341 0.253341
0.343042 0.343042 0.343042
0.402460 0.402460 0.402460
0.460611 0.460611 0.460611
0.542466 0.542466 0.542466
0.626889 0.626889 0.626889
0.709864 0.709864 0.709864
0.783696 0.783696 0.783696
0.237544 0.237544 0.237544
0.326406 0.326406 0.326406
0.417372 0.417372 0.417372
0.475092 0.475092 0.475092
0.531743 0.531743 0.531743
0.589889 0.589889 0.589889
0.674430 0.674430 0.674430
0.753167 0.753167 0.753167
0.819461 0.819461 0.819461
0.309840 0.309840 0.309840
0.400884 0.400884 0.400884
0.489498 0.489498 0.489498
0.546314 0.546314 0.546314
0.604835 0.604835 0.604835
0.663632 0.663632 0.663632
0.720109 0.720109 0.720109
0.792225 0.792225 0.792225
0.852074 0.852074 0.852074
0.384299 0.384299 0.384299
0.473571 0.473571 0.473571
0.561003 0.561003 0.561003
0.619803 0.619803 0.619803
0.678263 0.678263 0.678263
0.733737 0.733737 0.733737
0.783696 0.783696 0.783696
0.827215 0.827215 0.827215
0.881675 0.881675 0.881675
0.457555 0.457555 0.457555
0.544774 0.544774 0.544774
0.634750 0.634750 0.634750
0.692702 0.692702 0.692702
0.747010 0.747010 0.747010
0.795211 0.795211 0.795211
0.837481 0.837481 0.837481
0.875141 0.875141 0.875141
0.908392 0.908392 0.908392
0.000000 0.000000 0.000000
0.041098 0.041098 0.041098
0.118124 0.118124 0.118124
0.227161 0.227161 0.227161
0.309840 0.309840 0.309840
0.395365 0.395365 0.395365
0.478891 0.478891 0.478891
0.561003 0.561003 0.561003
0.645725 0.645725 0.645725
0.022180 0.022180 0.022180
0.062979 0.062979 0.062979
0.156867 0.156867 0.156867
0.267834 0.267834 0.267834
0.352566 0.352566 0.352566
0.437592 0.437592 0.437592
0.519590 0.519590 0.519590
0.603260 0.603260 0.603260
0.687408 0.687408 0.687408
0.050793 0.050793 0.050793
0.113386 0.113386 0.113386
0.197537 0.197537 0.197537
0.309840 0.309840 0.309840
0.395365 0.395365 0.395365
0.478891 0.478891 0.478891
0.561003 0.561003 0.561003
0.645725 0.645725 0.645725
0.727327 0.727327 0.727327
0.095337 0.095337 0.095337
0.176394 0.176394 0.176394
0.262474 0.262474 0.262474
0.352566 0.352566 0.352566
0.437592 0.437592 0.437592
0.519590 0.519590 0.519590
0.603260 0.603260 0.603260
0.687408 0.687408 0.687408
0.764527 0.764527 0.764527
0.160599 0.160599 0.160599
0.246539 0.246539 0.246539
0.335906 0.335906 0.335906
0.426734 0.426734 0.426734
0.484200 0.484200 0.484200
0.566438 0.566438 0.566438
0.651194 0.651194 0.651194
0.732321 0.732321 0.732321
0.802290 0.802290 0.802290
0.230857 0.230857 0.230857
0.319295 0.319295 0.319295
0.410320 0.410320 0.410320
0.498552 0.498552 0.498552
0.555580 0.555580 0.555580
0.614289 0.614289 0.614289
0.697966 0.697966 0.697966
0.773623 0.773623 0.773623
0.836417 0.836417 0.836417
0.302773 0.302773 0.302773
0.393786 0.393786 0.393786
0.482685 0.482685 0.482685
0.570329 0.570329 0.570329
0.629248 0.629248 0.629248
0.687408 0.687408 0.687408
0.742164 0.742164 0.742164
0.810396 0.810396 0.810396
0.867487 0.867487 0.867487
0.377168 0.377168 0.377168
0.466716 0.466716 0.466716
0.554032 0.554032 0.554032
0.644159 0.644159 0.644159
0.701704 0.701704 0.701704
0.755192 0.755192 0.755192
0.802290 0.802290 0.802290
0.843813 0.843813 0.843813
0.895604 0.895604 0.895604
0.450668 0.450668 0.450668
0.537861 0.537861 0.537861
0.627676 0.627676 0.627676
0.715738 0.715738 0.715738
0.767802 0.767802 0.767802
0.813251 0.813251 0.813251
0.853597 0.853597 0.853597
0.889405 0.889405 0.889405
0.920887 0.920887 0.920887
0.000000 0.000000 0.000000
0.040403 0.040403 0.040403
0.116760 0.116760 0.116760
0.225689 0.225689 0.225689
0.339870 0.339870 0.339870
0.425177 0.425177 0.425177
0.507565 0.507565 0.507565
0.590675 0.590675 0.590675
0.675199 0.675199 0.675199
0.021618 0.021618 0.021618
0.062032 0.062032 0.062032
0.155381 0.155381 0.155381
0.266299 0.266299 0.266299
0.382715 0.382715 0.382715
0.466716 0.466716 0.466716
0.548626 0.548626 0.548626
0.633179 0.633179 0.633179
0.715738 0.715738 0.715738
0.050002 0.050002 0.050002
0.112051 0.112051 0.112051
0.196033 0.196033 0.196033
0.308268 0.308268 0.308268
0.425177 0.425177 0.425177
0.507565 0.507565 0.507565
0.590675 0.590675 0.590675
0.675199 0.675199 0.675199
0.753843 0.753843 0.753843
0.094106 0.094106 0.094106
0.174884 0.174884 0.174884
0.260945 0.260945 0.260945
0.350978 0.350978 0.350978
0.466716 0.466716 0.466716
0.548626 0.548626 0.548626
0.633179 0.633179 0.633179
0.715738 0.715738 0.715738
0.788604 0.788604 0.788604
0.153895 0.153895 0.153895
0.239787 0.239787 0.239787
0.328779 0.328779 0.328779
0.419717 0.419717 0.419717
0.507565 0.507565 0.507565
0.590675 0.590675 0.590675
0.675199 0.675199 0.675199
0.753843 0.753843 0.753843
0.820019 0.820019 0.820019
0.224217 0.224217 0.224217
0.312202 0.312202 0.312202
0.403247 0.403247 0.403247
0.491766 0.491766 0.491766
0.579698 0.579698 0.579698
0.638674 0.638674 0.638674
0.720835 0.720835 0.720835
0.792826 0.792826 0.792826
0.852583 0.852583 0.852583
0.295727 0.295727 0.295727
0.386672 0.386672 0.386672
0.475852 0.475852 0.475852
0.563331 0.563331 0.563331
0.653532 0.653532 0.653532
0.710601 0.710601 0.710601
0.763207 0.763207 0.763207
0.827763 0.827763 0.827763
0.882137 0.882137 0.882137
0.370031 0.370031 0.370031
0.459847 0.459847 0.459847
0.547084 0.547084 0.547084
0.637106 0.637106 0.637106
0.724449 0.724449 0.724449
0.775534 0.775534 0.775534
0.820019 0.820019 0.820019
0.859626 0.859626 0.859626
0.908807 0.908807 0.908807
0.443762 0.443762 0.443762
0.530980 0.530980 0.530980
0.620591 0.620591 0.620591
0.709128 0.709128 0.709128
0.787384 0.787384 0.787384
0.830489 0.830489 0.830489
0.868936 0.868936 0.868936
0.902934 0.902934 0.902934
0.932363 0.932363 0.932363
0.000000 0.000000 0.000000
0.039709 0.039709 0.039709
0.115411 0.115411 0.115411
0.224217 0.224217 0.224217
0.338284 0.338284 0.338284
0.454495 0.454495 0.454495
0.536330 0.536330 0.536330
0.620591 0.620591 0.620591
0.703941 0.703941 0.703941
0.021056 0.021056 0.021056
0.061110 0.061110 0.061110
0.153895 0.153895 0.153895
0.264768 0.264768 0.264768
0.381130 0.381130 0.381130
0.495539 0.495539 0.495539
0.578133 0.578133 0.578133
0.662857 0.662857 0.662857
0.742860 0.742860 0.742860
0.049211 0.049211 0.049211
0.110723 0.110723 0.110723
0.194526 0.194526 0.194526
0.306697 0.306697 0.306697
0.423620 0.423620 0.423620
0.536330 0.536330 0.536330
0.620591 0.620591 0.620591
0.703941 0.703941 0.703941
0.778703 0.778703 0.778703
0.092876 0.092876 0.092876
0.173374 0.173374 0.173374
0.259421 0.259421 0.259421
0.349391 0.349391 0.349391
0.465191 0.465191 0.465191
0.578133 0.578133 0.578133
0.662857 0.662857 0.662857
0.742860 0.742860 0.742860
0.810970 0.810970 0.810970
0.152413 0.152413 0.152413
0.238291 0.238291 0.238291
0.327197 0.327197 0.327197
0.418154 0.418154 0.418154
0.506066 0.506066 0.506066
0.620591 0.620591 0.620591
0.703941 0.703941 0.703941
0.778703 0.778703 0.778703
0.840662 0.840662 0.840662
0.217622 0.217622 0.217622
0.305126 0.305126 0.305126
0.396154 0.396154 0.396154
0.484958 0.484958 0.484958
0.572666 0.572666 0.572666
0.662857 0.662857 0.662857
0.742860 0.742860 0.742860
0.810970 0.810970 0.810970
0.867973 0.867973 0.867973
0.288708 0.288708 0.288708
0.379546 0.379546 0.379546
0.469002 0.469002 0.469002
0.556354 0.556354 0.556354
0.646508 0.646508 0.646508
0.733029 0.733029 0.733029
0.783077 0.783077 0.783077
0.844335 0.844335 0.844335
0.896042 0.896042 0.896042
0.362887 0.362887 0.362887
0.452965 0.452965 0.452965
0.540162 0.540162 0.540162
0.630035 0.630035 0.630035
0.717932 0.717932 0.717932
0.794616 0.794616 0.794616
0.836949 0.836949 0.836949
0.874669 0.874669 0.874669
0.921273 0.921273 0.921273
0.436819 0.436819 0.436819
0.524132 0.524132 0.524132
0.613501 0.613501 0.613501
0.702450 0.702450 0.702450
0.781839 0.781839 0.781839
0.846934 0.846934 0.846934
0.883515 0.883515 0.883515
0.915746 0.915746 0.915746
0.942972 0.942972 0.942972
0.000000 0.000000 0.000000
0.039034 0.039034 0.039034
0.114061 0.114061 0.114061
0.222749 0.222749 0.222749
0.336699 0.336699 0.336699
0.452965 0.452965 0.452965
0.565661 0.565661 0.565661
0.650413 0.650413 0.650413
0.731612 0.731612 0.731612
0.020495 0.020495 0.020495
0.060189 0.060189 0.060189
0.152413 0.152413 0.152413
0.263238 0.263238 0.263238
0.379546 0.379546 0.379546
0.494030 0.494030 0.494030
0.607986 0.607986 0.607986
0.691948 0.691948 0.691948
0.768454 0.768454 0.768454
0.048434 0.048434 0.048434
0.109395 0.109395 0.109395
0.193018 0.193018 0.193018
0.305126 0.305126 0.305126
0.422059 0.422059 0.422059
0.534799 0.534799 0.534799
0.650413 0.650413 0.650413
0.731612 0.731612 0.731612
0.801706 0.801706 0.801706
0.091672 0.091672 0.091672
0.171864 0.171864 0.171864
0.257898 0.257898 0.257898
0.347803 0.347803 0.347803
0.463665 0.463665 0.463665
0.576570 0.576570 0.576570
0.691948 0.691948 0.691948
0.768454 0.768454 0.768454
0.832117 0.832117 0.832117
0.150937 0.150937 0.150937
0.236799 0.236799 0.236799
0.325615 0.325615 0.325615
0.416589 0.416589 0.416589
0.504566 0.504566 0.504566
0.619016 0.619016 0.619016
0.731612 0.731612 0.731612
0.801706 0.801706 0.801706
0.860123 0.860123 0.860123
0.216153 0.216153 0.216153
0.303557 0.303557 0.303557
0.394576 0.394576 0.394576
0.483442 0.483442 0.483442
0.571108 0.571108 0.571108
0.661308 0.661308 0.661308
0.768454 0.768454 0.768454
0.832117 0.832117 0.832117
0.885798 0.885798 0.885798
0.281717 0.281717 0.281717
0.372411 0.372411 0.372411
0.462139 0.462139 0.462139
0.549398 0.549398 0.549398
0.639459 0.639459 0.639459
0.726610 0.726610 0.726610
0.801706 0.801706 0.801706
0.860123 0.860123 0.860123
0.909221 0.909221 0.909221
0.355742 0.355742 0.355742
0.446066 0.446066 0.446066
0.533269 0.533269 0.533269
0.622953 0.622953 0.622953
0.711337 0.711337 0.711337
0.789214 0.789214 0.789214
0.853090 0.853090 0.853090
0.888958 0.888958 0.888958
0.932716 0.932716 0.932716
0.429844 0.429844 0.429844
0.517328 0.517328 0.517328
0.606411 0.606411 0.606411
0.695715 0.695715 0.695715
0.776170 0.776170 0.776170
0.842243 0.842243 0.842243
0.897350 0.897350 0.897350
0.927676 0.927676 0.927676
0.953028 0.953028 0.953028
0.000000 0.000000 0.000000
0.038359 0.038359 0.038359
0.112715 0.112715 0.112715
0.221286 0.221286 0.221286
0.335114 0.335114 0.335114
0.451434 0.451434 0.451434
0.564107 0.564107 0.564107
0.679794 0.679794 0.679794
0.757886 0.757886 0.757886
0.019939 0.019939 0.019939
0.059271 0.059271 0.059271
0.150937 0.150937 0.150937
0.261709 0.261709 0.261709
0.377961 0.377961 0.377961
0.492520 0.492520 0.492520
0.606411 0.606411 0.606411
0.720109 0.720109 0.720109
0.792225 0.792225 0.792225
0.047670 0.047670 0.047670
0.108079 0.108079 0.108079
0.191509 0.191509 0.191509
0.303557 0.303557 0.303557
0.420498 0.420498 0.420498
0.533269 0.533269 0.533269
0.648851 0.648851 0.648851
0.757886 0.757886 0.757886
0.823358 0.823358 0.823358
0.090468 0.090468 0.090468
0.170358 0.170358 0.170358
0.256375 0.256375 0.256375
0.346216 0.346216 0.346216
0.462139 0.462139 0.462139
0.575008 0.575008 0.575008
0.690439 0.690439 0.690439
0.792225 0.792225 0.792225
0.852074 0.852074 0.852074
0.149460 0.149460 0.149460
0.235311 0.235311 0.235311
0.324034 0.324034 0.324034
0.415024 0.415024 0.415024
0.503064 0.503064 0.503064
0.617440 0.617440 0.617440
0.730185 0.730185 0.730185
0.823358 0.823358 0.823358
0.878427 0.878427 0.878427
0.214683 0.214683 0.214683
0.301989 0.301989 0.301989
0.392996 0.392996 0.392996
0.481927 0.481927 0.481927
0.569550 0.569550 0.569550
0.659755 0.659755 0.659755
0.767150 0.767150 0.767150
0.852074 0.852074 0.852074
0.902510 0.902510 0.902510
0.280167 0.280167 0.280167
0.370824 0.370824 0.370824
0.460611 0.460611 0.460611
0.547854 0.547854 0.547854
0.637890 0.637890 0.637890
0.725169 0.725169 0.725169
0.800535 0.800535 0.800535
0.878427 0.878427 0.878427
0.924328 0.924328 0.924328
0.348597 0.348597 0.348597
0.439137 0.439137 0.439137
0.526412 0.526412 0.526412
0.615865 0.615865 0.615865
0.704683 0.704683 0.704683
0.783696 0.783696 0.783696
0.848485 0.848485 0.848485
0.902510 0.902510 0.902510
0.943303 0.943303 0.943303
0.422839 0.422839 0.422839
0.510563 0.510563 0.510563
0.599324 0.599324 0.599324
0.688925 0.688925 0.688925
0.770403 0.770403 0.770403
0.837481 0.837481 0.837481
0.893409 0.893409 0.893409
0.938609 0.938609 0.938609
0.962806 0.962806 0.962806
0.000000 0.000000 0.000000
0.037684 0.037684 0.037684
0.111387 0.111387 0.111387
0.219822 0.219822 0.219822
0.333529 0.333529 0.333529
0.449902 0.449902 0.449902
0.562554 0.562554 0.562554
0.678263 0.678263 0.678263
0.782458 0.782458 0.782458
0.019383 0.019383 0.019383
0.058385 0.058385 0.058385
0.149460 0.149460 0.149460
0.260183 0.260183 0.260183
0.376376 0.376376 0.376376
0.491011 0.491011 0.491011
0.604835 0.604835 0.604835
0.718658 0.718658 0.718658
0.814389 0.814389 0.814389
0.046905 0.046905 0.046905
0.106774 0.106774 0.106774
0.190000 0.190000 0.190000
0.301989 0.301989 0.301989
0.418937 0.418937 0.418937
0.531743 0.531743 0.531743
0.647289 0.647289 0.647289
0.756541 0.756541 0.756541
0.843813 0.843813 0.843813
0.089264 0.089264 0.089264
0.168852 0.168852 0.168852
0.254858 0.254858 0.254858
0.344629 0.344629 0.344629
0.460611 0.460611 0.460611
0.573447 0.573447 0.573447
0.688925 0.688925 0.688925
0.791022 0.791022 0.791022
0.870862 0.870862 0.870862
0.147987 0.147987 0.147987
0.233823 0.233823 0.233823
0.322454 0.322454 0.322454
0.413458 0.413458 0.413458
0.501561 0.501561 0.501561
0.615865 0.615865 0.615865
0.728756 0.728756 0.728756
0.822252 0.822252 0.822252
0.895604 0.895604 0.895604
0.213207 0.213207 0.213207
0.300421 0.300421 0.300421
0.391416 0.391416 0.391416
0.480409 0.480409 0.480409
0.567992 0.567992 0.567992
0.658201 0.658201 0.658201
0.765846 0.765846 0.765846
0.851050 0.851050 0.851050
0.918143 0.918143 0.918143
0.278621 0.278621 0.278621
0.369237 0.369237 0.369237
0.459083 0.459083 0.459083
0.546314 0.546314 0.546314
0.636321 0.636321 0.636321
0.723729 0.723729 0.723729
0.799355 0.799355 0.799355
0.877493 0.877493 0.877493
0.937926 0.937926 0.937926
0.347010 0.347010 0.347010
0.437592 0.437592 0.437592
0.524892 0.524892 0.524892
0.614289 0.614289 0.614289
0.703195 0.703195 0.703195
0.782458 0.782458 0.782458
0.847451 0.847451 0.847451
0.901657 0.901657 0.901657
0.955567 0.955567 0.955567
0.415807 0.415807 0.415807
0.503815 0.503815 0.503815
0.592245 0.592245 0.592245
0.682083 0.682083 0.682083
0.764527 0.764527 0.764527
0.832659 0.832659 0.832659
0.889405 0.889405 0.889405
0.935517 0.935517 0.935517
0.972549 0.972549 0.972549
