ricette/lut/Quotidiana-400-33.cube
# LUT generata da Camera Oscura BN
# Ricetta: Quotidiana 400
# Pellicola: kentmere400
# Nota: grana, vignetta e interventi locali non sono inclusi nella LUT.
TITLE "Quotidiana 400"
LUT_3D_SIZE 9
DOMAIN_MIN 0.0 0.0 0.0
DOMAIN_MAX 1.0 1.0 1.0
0.027451 0.027451 0.027451
0.069798 0.069798 0.069798
0.112609 0.112609 0.112609
0.156167 0.156167 0.156167
0.200787 0.200787 0.200787
0.246808 0.246808 0.246808
0.294399 0.294399 0.294399
0.343178 0.343178 0.343178
0.392684 0.392684 0.392684
0.069798 0.069798 0.069798
0.091129 0.091129 0.091129
0.134275 0.134275 0.134275
0.178324 0.178324 0.178324
0.223602 0.223602 0.223602
0.270426 0.270426 0.270426
0.318668 0.318668 0.318668
0.367870 0.367870 0.367870
0.417561 0.417561 0.417561
0.112609 0.112609 0.112609
0.134275 0.134275 0.134275
0.156167 0.156167 0.156167
0.200787 0.200787 0.200787
0.246808 0.246808 0.246808
0.294399 0.294399 0.294399
0.343178 0.343178 0.343178
0.392684 0.392684 0.392684
0.442443 0.442443 0.442443
0.156167 0.156167 0.156167
0.178324 0.178324 0.178324
0.200787 0.200787 0.200787
0.223602 0.223602 0.223602
0.270426 0.270426 0.270426
0.318668 0.318668 0.318668
0.367870 0.367870 0.367870
0.417561 0.417561 0.417561
0.467318 0.467318 0.467318
0.200787 0.200787 0.200787
0.223602 0.223602 0.223602
0.246808 0.246808 0.246808
0.270426 0.270426 0.270426
0.294399 0.294399 0.294399
0.343178 0.343178 0.343178
0.392684 0.392684 0.392684
0.442443 0.442443 0.442443
0.492188 0.492188 0.492188
0.246808 0.246808 0.246808
0.270426 0.270426 0.270426
0.294399 0.294399 0.294399
0.318668 0.318668 0.318668
0.343178 0.343178 0.343178
0.367870 0.367870 0.367870
0.417561 0.417561 0.417561
0.467318 0.467318 0.467318
0.517218 0.517218 0.517218
0.294399 0.294399 0.294399
0.318668 0.318668 0.318668
0.343178 0.343178 0.343178
0.367870 0.367870 0.367870
0.392684 0.392684 0.392684
0.417561 0.417561 0.417561
0.442443 0.442443 0.442443
0.492188 0.492188 0.492188
0.542598 0.542598 0.542598
0.343178 0.343178 0.343178
0.367870 0.367870 0.367870
0.392684 0.392684 0.392684
0.417561 0.417561 0.417561
0.442443 0.442443 0.442443
0.467318 0.467318 0.467318
0.492188 0.492188 0.492188
0.517218 0.517218 0.517218
0.568272 0.568272 0.568272
0.392684 0.392684 0.392684
0.417561 0.417561 0.417561
0.442443 0.442443 0.442443
0.467318 0.467318 0.467318
0.492188 0.492188 0.492188
0.517218 0.517218 0.517218
0.542598 0.542598 0.542598
0.568272 0.568272 0.568272
0.594165 0.594165 0.594165
0.048583 0.048583 0.048583
0.112609 0.112609 0.112609
0.156167 0.156167 0.156167
0.200787 0.200787 0.200787
0.246808 0.246808 0.246808
0.294399 0.294399 0.294399
0.343178 0.343178 0.343178
0.392684 0.392684 0.392684
0.442443 0.442443 0.442443
0.091129 0.091129 0.091129
0.134275 0.134275 0.134275
0.178324 0.178324 0.178324
0.223602 0.223602 0.223602
0.270426 0.270426 0.270426
0.318668 0.318668 0.318668
0.367870 0.367870 0.367870
0.417561 0.417561 0.417561
0.467318 0.467318 0.467318
0.134275 0.134275 0.134275
0.178324 0.178324 0.178324
0.200787 0.200787 0.200787
0.246808 0.246808 0.246808
0.294399 0.294399 0.294399
0.343178 0.343178 0.343178
0.392684 0.392684 0.392684
0.442443 0.442443 0.442443
0.492188 0.492188 0.492188
0.178324 0.178324 0.178324
0.223602 0.223602 0.223602
0.246808 0.246808 0.246808
0.270426 0.270426 0.270426
0.318668 0.318668 0.318668
0.367870 0.367870 0.367870
0.417561 0.417561 0.417561
0.467318 0.467318 0.467318
0.517218 0.517218 0.517218
0.223602 0.223602 0.223602
0.270426 0.270426 0.270426
0.294399 0.294399 0.294399
0.318668 0.318668 0.318668
0.343178 0.343178 0.343178
0.392684 0.392684 0.392684
0.442443 0.442443 0.442443
0.492188 0.492188 0.492188
0.542598 0.542598 0.542598
0.270426 0.270426 0.270426
0.318668 0.318668 0.318668
0.343178 0.343178 0.343178
0.367870 0.367870 0.367870
0.392684 0.392684 0.392684
0.417561 0.417561 0.417561
0.467318 0.467318 0.467318
0.517218 0.517218 0.517218
0.568272 0.568272 0.568272
0.318668 0.318668 0.318668
0.367870 0.367870 0.367870
0.392684 0.392684 0.392684
0.417561 0.417561 0.417561
0.442443 0.442443 0.442443
0.467318 0.467318 0.467318
0.492188 0.492188 0.492188
0.542598 0.542598 0.542598
0.594165 0.594165 0.594165
0.367870 0.367870 0.367870
0.417561 0.417561 0.417561
0.442443 0.442443 0.442443
0.467318 0.467318 0.467318
0.492188 0.492188 0.492188
0.517218 0.517218 0.517218
0.542598 0.542598 0.542598
0.568272 0.568272 0.568272
0.620137 0.620137 0.620137
0.417561 0.417561 0.417561
0.467318 0.467318 0.467318
0.492188 0.492188 0.492188
0.517218 0.517218 0.517218
0.542598 0.542598 0.542598
0.568272 0.568272 0.568272
0.594165 0.594165 0.594165
0.620137 0.620137 0.620137
0.646044 0.646044 0.646044
0.069798 0.069798 0.069798
0.134275 0.134275 0.134275
0.200787 0.200787 0.200787
0.246808 0.246808 0.246808
0.294399 0.294399 0.294399
0.343178 0.343178 0.343178
0.392684 0.392684 0.392684
0.442443 0.442443 0.442443
0.492188 0.492188 0.492188
0.112609 0.112609 0.112609
0.156167 0.156167 0.156167
0.223602 0.223602 0.223602
0.270426 0.270426 0.270426
0.318668 0.318668 0.318668
0.367870 0.367870 0.367870
0.417561 0.417561 0.417561
0.467318 0.467318 0.467318
0.517218 0.517218 0.517218
0.156167 0.156167 0.156167
0.200787 0.200787 0.200787
0.246808 0.246808 0.246808
0.294399 0.294399 0.294399
0.343178 0.343178 0.343178
0.392684 0.392684 0.392684
0.442443 0.442443 0.442443
0.492188 0.492188 0.492188
0.542598 0.542598 0.542598
0.200787 0.200787 0.200787
0.246808 0.246808 0.246808
0.294399 0.294399 0.294399
0.318668 0.318668 0.318668
0.367870 0.367870 0.367870
0.417561 0.417561 0.417561
0.467318 0.467318 0.467318
0.517218 0.517218 0.517218
0.568272 0.568272 0.568272
0.246808 0.246808 0.246808
0.294399 0.294399 0.294399
0.343178 0.343178 0.343178
0.367870 0.367870 0.367870
0.392684 0.392684 0.392684
0.442443 0.442443 0.442443
0.492188 0.492188 0.492188
0.542598 0.542598 0.542598
0.594165 0.594165 0.594165
0.294399 0.294399 0.294399
0.343178 0.343178 0.343178
0.392684 0.392684 0.392684
0.417561 0.417561 0.417561
0.442443 0.442443 0.442443
0.467318 0.467318 0.467318
0.517218 0.517218 0.517218
0.568272 0.568272 0.568272
0.620137 0.620137 0.620137
0.343178 0.343178 0.343178
0.392684 0.392684 0.392684
0.442443 0.442443 0.442443
0.467318 0.467318 0.467318
0.492188 0.492188 0.492188
0.517218 0.517218 0.517218
0.542598 0.542598 0.542598
0.594165 0.594165 0.594165
0.646044 0.646044 0.646044
0.392684 0.392684 0.392684
0.442443 0.442443 0.442443
0.492188 0.492188 0.492188
0.517218 0.517218 0.517218
0.542598 0.542598 0.542598
0.568272 0.568272 0.568272
0.594165 0.594165 0.594165
0.620137 0.620137 0.620137
0.671742 0.671742 0.671742
0.442443 0.442443 0.442443
0.492188 0.492188 0.492188
0.542598 0.542598 0.542598
0.568272 0.568272 0.568272
0.594165 0.594165 0.594165
0.620137 0.620137 0.620137
0.646044 0.646044 0.646044
0.671742 0.671742 0.671742
0.697087 0.697087 0.697087
0.091129 0.091129 0.091129
0.156167 0.156167 0.156167
0.223602 0.223602 0.223602
0.294399 0.294399 0.294399
0.343178 0.343178 0.343178
0.392684 0.392684 0.392684
0.442443 0.442443 0.442443
0.492188 0.492188 0.492188
0.542598 0.542598 0.542598
0.134275 0.134275 0.134275
0.178324 0.178324 0.178324
0.246808 0.246808 0.246808
0.318668 0.318668 0.318668
0.367870 0.367870 0.367870
0.417561 0.417561 0.417561
0.467318 0.467318 0.467318
0.517218 0.517218 0.517218
0.568272 0.568272 0.568272
0.178324 0.178324 0.178324
0.223602 0.223602 0.223602
0.270426 0.270426 0.270426
0.343178 0.343178 0.343178
0.392684 0.392684 0.392684
0.442443 0.442443 0.442443
0.492188 0.492188 0.492188
0.542598 0.542598 0.542598
0.594165 0.594165 0.594165
0.223602 0.223602 0.223602
0.270426 0.270426 0.270426
0.318668 0.318668 0.318668
0.367870 0.367870 0.367870
0.417561 0.417561 0.417561
0.467318 0.467318 0.467318
0.517218 0.517218 0.517218
0.568272 0.568272 0.568272
0.620137 0.620137 0.620137
0.270426 0.270426 0.270426
0.318668 0.318668 0.318668
0.367870 0.367870 0.367870
0.417561 0.417561 0.417561
0.442443 0.442443 0.442443
0.492188 0.492188 0.492188
0.542598 0.542598 0.542598
0.594165 0.594165 0.594165
0.646044 0.646044 0.646044
0.318668 0.318668 0.318668
0.367870 0.367870 0.367870
0.417561 0.417561 0.417561
0.467318 0.467318 0.467318
0.492188 0.492188 0.492188
0.517218 0.517218 0.517218
0.568272 0.568272 0.568272
0.620137 0.620137 0.620137
0.671742 0.671742 0.671742
0.367870 0.367870 0.367870
0.417561 0.417561 0.417561
0.467318 0.467318 0.467318
0.517218 0.517218 0.517218
0.542598 0.542598 0.542598
0.568272 0.568272 0.568272
0.594165 0.594165 0.594165
0.646044 0.646044 0.646044
0.697087 0.697087 0.697087
0.417561 0.417561 0.417561
0.467318 0.467318 0.467318
0.517218 0.517218 0.517218
0.568272 0.568272 0.568272
0.594165 0.594165 0.594165
0.620137 0.620137 0.620137
0.646044 0.646044 0.646044
0.671742 0.671742 0.671742
0.721941 0.721941 0.721941
0.467318 0.467318 0.467318
0.517218 0.517218 0.517218
0.568272 0.568272 0.568272
0.620137 0.620137 0.620137
0.646044 0.646044 0.646044
0.671742 0.671742 0.671742
0.697087 0.697087 0.697087
0.721941 0.721941 0.721941
0.746160 0.746160 0.746160
0.112609 0.112609 0.112609
0.178324 0.178324 0.178324
0.246808 0.246808 0.246808
0.318668 0.318668 0.318668
0.392684 0.392684 0.392684
0.442443 0.442443 0.442443
0.492188 0.492188 0.492188
0.542598 0.542598 0.542598
0.594165 0.594165 0.594165
0.156167 0.156167 0.156167
0.200787 0.200787 0.200787
0.270426 0.270426 0.270426
0.343178 0.343178 0.343178
0.417561 0.417561 0.417561
0.467318 0.467318 0.467318
0.517218 0.517218 0.517218
0.568272 0.568272 0.568272
0.620137 0.620137 0.620137
0.200787 0.200787 0.200787
0.246808 0.246808 0.246808
0.294399 0.294399 0.294399
0.367870 0.367870 0.367870
0.442443 0.442443 0.442443
0.492188 0.492188 0.492188
0.542598 0.542598 0.542598
0.594165 0.594165 0.594165
0.646044 0.646044 0.646044
0.246808 0.246808 0.246808
0.294399 0.294399 0.294399
0.343178 0.343178 0.343178
0.392684 0.392684 0.392684
0.467318 0.467318 0.467318
0.517218 0.517218 0.517218
0.568272 0.568272 0.568272
0.620137 0.620137 0.620137
0.671742 0.671742 0.671742
0.294399 0.294399 0.294399
0.343178 0.343178 0.343178
0.392684 0.392684 0.392684
0.442443 0.442443 0.442443
0.492188 0.492188 0.492188
0.542598 0.542598 0.542598
0.594165 0.594165 0.594165
0.646044 0.646044 0.646044
0.697087 0.697087 0.697087
0.343178 0.343178 0.343178
0.392684 0.392684 0.392684
0.442443 0.442443 0.442443
0.492188 0.492188 0.492188
0.542598 0.542598 0.542598
0.568272 0.568272 0.568272
0.620137 0.620137 0.620137
0.671742 0.671742 0.671742
0.721941 0.721941 0.721941
0.392684 0.392684 0.392684
0.442443 0.442443 0.442443
0.492188 0.492188 0.492188
0.542598 0.542598 0.542598
0.594165 0.594165 0.594165
0.620137 0.620137 0.620137
0.646044 0.646044 0.646044
0.697087 0.697087 0.697087
0.746160 0.746160 0.746160
0.442443 0.442443 0.442443
0.492188 0.492188 0.492188
0.542598 0.542598 0.542598
0.594165 0.594165 0.594165
0.646044 0.646044 0.646044
0.671742 0.671742 0.671742
0.697087 0.697087 0.697087
0.721941 0.721941 0.721941
0.769728 0.769728 0.769728
0.492188 0.492188 0.492188
0.542598 0.542598 0.542598
0.594165 0.594165 0.594165
0.646044 0.646044 0.646044
0.697087 0.697087 0.697087
0.721941 0.721941 0.721941
0.746160 0.746160 0.746160
0.769728 0.769728 0.769728
0.792748 0.792748 0.792748
0.134275 0.134275 0.134275
0.200787 0.200787 0.200787
0.270426 0.270426 0.270426
0.343178 0.343178 0.343178
0.417561 0.417561 0.417561
0.492188 0.492188 0.492188
0.542598 0.542598 0.542598
0.594165 0.594165 0.594165
0.646044 0.646044 0.646044
0.178324 0.178324 0.178324
0.223602 0.223602 0.223602
0.294399 0.294399 0.294399
0.367870 0.367870 0.367870
0.442443 0.442443 0.442443
0.517218 0.517218 0.517218
0.568272 0.568272 0.568272
0.620137 0.620137 0.620137
0.671742 0.671742 0.671742
0.223602 0.223602 0.223602
0.270426 0.270426 0.270426
0.318668 0.318668 0.318668
0.392684 0.392684 0.392684
0.467318 0.467318 0.467318
0.542598 0.542598 0.542598
0.594165 0.594165 0.594165
0.646044 0.646044 0.646044
0.697087 0.697087 0.697087
0.270426 0.270426 0.270426
0.318668 0.318668 0.318668
0.367870 0.367870 0.367870
0.417561 0.417561 0.417561
0.492188 0.492188 0.492188
0.568272 0.568272 0.568272
0.620137 0.620137 0.620137
0.671742 0.671742 0.671742
0.721941 0.721941 0.721941
0.318668 0.318668 0.318668
0.367870 0.367870 0.367870
0.417561 0.417561 0.417561
0.467318 0.467318 0.467318
0.517218 0.517218 0.517218
0.594165 0.594165 0.594165
0.646044 0.646044 0.646044
0.697087 0.697087 0.697087
0.746160 0.746160 0.746160
0.367870 0.367870 0.367870
0.417561 0.417561 0.417561
0.467318 0.467318 0.467318
0.517218 0.517218 0.517218
0.568272 0.568272 0.568272
0.620137 0.620137 0.620137
0.671742 0.671742 0.671742
0.721941 0.721941 0.721941
0.769728 0.769728 0.769728
0.417561 0.417561 0.417561
0.467318 0.467318 0.467318
0.517218 0.517218 0.517218
0.568272 0.568272 0.568272
0.620137 0.620137 0.620137
0.671742 0.671742 0.671742
0.697087 0.697087 0.697087
0.746160 0.746160 0.746160
0.792748 0.792748 0.792748
0.467318 0.467318 0.467318
0.517218 0.517218 0.517218
0.568272 0.568272 0.568272
0.620137 0.620137 0.620137
0.671742 0.671742 0.671742
0.721941 0.721941 0.721941
0.746160 0.746160 0.746160
0.769728 0.769728 0.769728
0.815283 0.815283 0.815283
0.517218 0.517218 0.517218
0.568272 0.568272 0.568272
0.620137 0.620137 0.620137
0.671742 0.671742 0.671742
0.721941 0.721941 0.721941
0.769728 0.769728 0.769728
0.792748 0.792748 0.792748
0.815283 0.815283 0.815283
0.837401 0.837401 0.837401
0.156167 0.156167 0.156167
0.223602 0.223602 0.223602
0.294399 0.294399 0.294399
0.367870 0.367870 0.367870
0.442443 0.442443 0.442443
0.517218 0.517218 0.517218
0.594165 0.594165 0.594165
0.646044 0.646044 0.646044
0.697087 0.697087 0.697087
0.200787 0.200787 0.200787
0.246808 0.246808 0.246808
0.318668 0.318668 0.318668
0.392684 0.392684 0.392684
0.467318 0.467318 0.467318
0.542598 0.542598 0.542598
0.620137 0.620137 0.620137
0.671742 0.671742 0.671742
0.721941 0.721941 0.721941
0.246808 0.246808 0.246808
0.294399 0.294399 0.294399
0.343178 0.343178 0.343178
0.417561 0.417561 0.417561
0.492188 0.492188 0.492188
0.568272 0.568272 0.568272
0.646044 0.646044 0.646044
0.697087 0.697087 0.697087
0.746160 0.746160 0.746160
0.294399 0.294399 0.294399
0.343178 0.343178 0.343178
0.392684 0.392684 0.392684
0.442443 0.442443 0.442443
0.517218 0.517218 0.517218
0.594165 0.594165 0.594165
0.671742 0.671742 0.671742
0.721941 0.721941 0.721941
0.769728 0.769728 0.769728
0.343178 0.343178 0.343178
0.392684 0.392684 0.392684
0.442443 0.442443 0.442443
0.492188 0.492188 0.492188
0.542598 0.542598 0.542598
0.620137 0.620137 0.620137
0.697087 0.697087 0.697087
0.746160 0.746160 0.746160
0.792748 0.792748 0.792748
0.392684 0.392684 0.392684
0.442443 0.442443 0.442443
0.492188 0.492188 0.492188
0.542598 0.542598 0.542598
0.594165 0.594165 0.594165
0.646044 0.646044 0.646044
0.721941 0.721941 0.721941
0.769728 0.769728 0.769728
0.815283 0.815283 0.815283
0.442443 0.442443 0.442443
0.492188 0.492188 0.492188
0.542598 0.542598 0.542598
0.594165 0.594165 0.594165
0.646044 0.646044 0.646044
0.697087 0.697087 0.697087
0.746160 0.746160 0.746160
0.792748 0.792748 0.792748
0.837401 0.837401 0.837401
0.492188 0.492188 0.492188
0.542598 0.542598 0.542598
0.594165 0.594165 0.594165
0.646044 0.646044 0.646044
0.697087 0.697087 0.697087
0.746160 0.746160 0.746160
0.792748 0.792748 0.792748
0.815283 0.815283 0.815283
0.859165 0.859165 0.859165
0.542598 0.542598 0.542598
0.594165 0.594165 0.594165
0.646044 0.646044 0.646044
0.697087 0.697087 0.697087
0.746160 0.746160 0.746160
0.792748 0.792748 0.792748
0.837401 0.837401 0.837401
0.859165 0.859165 0.859165
0.880635 0.880635 0.880635
0.178324 0.178324 0.178324
0.246808 0.246808 0.246808
0.318668 0.318668 0.318668
0.392684 0.392684 0.392684
0.467318 0.467318 0.467318
0.542598 0.542598 0.542598
0.620137 0.620137 0.620137
0.697087 0.697087 0.697087
0.746160 0.746160 0.746160
0.223602 0.223602 0.223602
0.270426 0.270426 0.270426
0.343178 0.343178 0.343178
0.417561 0.417561 0.417561
0.492188 0.492188 0.492188
0.568272 0.568272 0.568272
0.646044 0.646044 0.646044
0.721941 0.721941 0.721941
0.769728 0.769728 0.769728
0.270426 0.270426 0.270426
0.318668 0.318668 0.318668
0.367870 0.367870 0.367870
0.442443 0.442443 0.442443
0.517218 0.517218 0.517218
0.594165 0.594165 0.594165
0.671742 0.671742 0.671742
0.746160 0.746160 0.746160
0.792748 0.792748 0.792748
0.318668 0.318668 0.318668
0.367870 0.367870 0.367870
0.417561 0.417561 0.417561
0.467318 0.467318 0.467318
0.542598 0.542598 0.542598
0.620137 0.620137 0.620137
0.697087 0.697087 0.697087
0.769728 0.769728 0.769728
0.815283 0.815283 0.815283
0.367870 0.367870 0.367870
0.417561 0.417561 0.417561
0.467318 0.467318 0.467318
0.517218 0.517218 0.517218
0.568272 0.568272 0.568272
0.646044 0.646044 0.646044
0.721941 0.721941 0.721941
0.792748 0.792748 0.792748
0.837401 0.837401 0.837401
0.417561 0.417561 0.417561
0.467318 0.467318 0.467318
0.517218 0.517218 0.517218
0.568272 0.568272 0.568272
0.620137 0.620137 0.620137
0.671742 0.671742 0.671742
0.746160 0.746160 0.746160
0.815283 0.815283 0.815283
0.859165 0.859165 0.859165
0.467318 0.467318 0.467318
0.517218 0.517218 0.517218
0.568272 0.568272 0.568272
0.620137 0.620137 0.620137
0.671742 0.671742 0.671742
0.721941 0.721941 0.721941
0.769728 0.769728 0.769728
0.837401 0.837401 0.837401
0.880635 0.880635 0.880635
0.517218 0.517218 0.517218
0.568272 0.568272 0.568272
0.620137 0.620137 0.620137
0.671742 0.671742 0.671742
0.721941 0.721941 0.721941
0.769728 0.769728 0.769728
0.815283 0.815283 0.815283
0.859165 0.859165 0.859165
0.901873 0.901873 0.901873
0.568272 0.568272 0.568272
0.620137 0.620137 0.620137
0.671742 0.671742 0.671742
0.721941 0.721941 0.721941
0.769728 0.769728 0.769728
0.815283 0.815283 0.815283
0.859165 0.859165 0.859165
0.901873 0.901873 0.901873
0.922930 0.922930 0.922930
0.200787 0.200787 0.200787
0.270426 0.270426 0.270426
0.343178 0.343178 0.343178
0.417561 0.417561 0.417561
0.492188 0.492188 0.492188
0.568272 0.568272 0.568272
0.646044 0.646044 0.646044
0.721941 0.721941 0.721941
0.792748 0.792748 0.792748
0.246808 0.246808 0.246808
0.294399 0.294399 0.294399
0.367870 0.367870 0.367870
0.442443 0.442443 0.442443
0.517218 0.517218 0.517218
0.594165 0.594165 0.594165
0.671742 0.671742 0.671742
0.746160 0.746160 0.746160
0.815283 0.815283 0.815283
0.294399 0.294399 0.294399
0.343178 0.343178 0.343178
0.392684 0.392684 0.392684
0.467318 0.467318 0.467318
0.542598 0.542598 0.542598
0.620137 0.620137 0.620137
0.697087 0.697087 0.697087
0.769728 0.769728 0.769728
0.837401 0.837401 0.837401
0.343178 0.343178 0.343178
0.392684 0.392684 0.392684
0.442443 0.442443 0.442443
0.492188 0.492188 0.492188
0.568272 0.568272 0.568272
0.646044 0.646044 0.646044
0.721941 0.721941 0.721941
0.792748 0.792748 0.792748
0.859165 0.859165 0.859165
0.392684 0.392684 0.392684
0.442443 0.442443 0.442443
0.492188 0.492188 0.492188
0.542598 0.542598 0.542598
0.594165 0.594165 0.594165
0.671742 0.671742 0.671742
0.746160 0.746160 0.746160
0.815283 0.815283 0.815283
0.880635 0.880635 0.880635
0.442443 0.442443 0.442443
0.492188 0.492188 0.492188
0.542598 0.542598 0.542598
0.594165 0.594165 0.594165
0.646044 0.646044 0.646044
0.697087 0.697087 0.697087
0.769728 0.769728 0.769728
0.837401 0.837401 0.837401
0.901873 0.901873 0.901873
0.492188 0.492188 0.492188
0.542598 0.542598 0.542598
0.594165 0.594165 0.594165
0.646044 0.646044 0.646044
0.697087 0.697087 0.697087
0.746160 0.746160 0.746160
0.792748 0.792748 0.792748
0.859165 0.859165 0.859165
0.922930 0.922930 0.922930
0.542598 0.542598 0.542598
0.594165 0.594165 0.594165
0.646044 0.646044 0.646044
0.697087 0.697087 0.697087
0.746160 0.746160 0.746160
0.792748 0.792748 0.792748
0.837401 0.837401 0.837401
0.880635 0.880635 0.880635
0.943859 0.943859 0.943859
0.594165 0.594165 0.594165
0.646044 0.646044 0.646044
0.697087 0.697087 0.697087
0.746160 0.746160 0.746160
0.792748 0.792748 0.792748
0.837401 0.837401 0.837401
0.880635 0.880635 0.880635
0.922930 0.922930 0.922930
0.964706 0.964706 0.964706
