ricette/lut/Quotidiana-400-33.cube
# LUT generata da Camera Oscura BN
# Ricetta: Quotidiana 400
# Pellicola: kentmere400
# Nota: grana, vignetta e interventi locali non sono inclusi nella LUT.
TITLE "Quotidiana 400"
LUT_3D_SIZE 33
DOMAIN_MIN 0.0 0.0 0.0
DOMAIN_MAX 1.0 1.0 1.0
0.027451 0.027451 0.027451
0.038009 0.038009 0.038009
0.048583 0.048583 0.048583
0.059179 0.059179 0.059179
0.069798 0.069798 0.069798
0.080447 0.080447 0.080447
0.091129 0.091129 0.091129
0.101848 0.101848 0.101848
0.112609 0.112609 0.112609
0.123417 0.123417 0.123417
0.134275 0.134275 0.134275
0.145190 0.145190 0.145190
0.156167 0.156167 0.156167
0.167210 0.167210 0.167210
0.178324 0.178324 0.178324
0.189515 0.189515 0.189515
0.200787 0.200787 0.200787
0.212148 0.212148 0.212148
0.223602 0.223602 0.223602
0.235153 0.235153 0.235153
0.246808 0.246808 0.246808
0.258569 0.258569 0.258569
0.270426 0.270426 0.270426
0.282372 0.282372 0.282372
0.294399 0.294399 0.294399
0.306500 0.306500 0.306500
0.318668 0.318668 0.318668
0.330897 0.330897 0.330897
0.343178 0.343178 0.343178
0.355505 0.355505 0.355505
0.367870 0.367870 0.367870
0.380265 0.380265 0.380265
0.392684 0.392684 0.392684
0.038009 0.038009 0.038009
0.043293 0.043293 0.043293
0.053878 0.053878 0.053878
0.064485 0.064485 0.064485
0.075119 0.075119 0.075119
0.085784 0.085784 0.085784
0.096484 0.096484 0.096484
0.107223 0.107223 0.107223
0.118006 0.118006 0.118006
0.128839 0.128839 0.128839
0.139726 0.139726 0.139726
0.150671 0.150671 0.150671
0.161679 0.161679 0.161679
0.172757 0.172757 0.172757
0.183909 0.183909 0.183909
0.195141 0.195141 0.195141
0.206457 0.206457 0.206457
0.217863 0.217863 0.217863
0.229364 0.229364 0.229364
0.240967 0.240967 0.240967
0.252676 0.252676 0.252676
0.264487 0.264487 0.264487
0.276389 0.276389 0.276389
0.288375 0.288375 0.288375
0.300440 0.300440 0.300440
0.312576 0.312576 0.312576
0.324776 0.324776 0.324776
0.337032 0.337032 0.337032
0.349336 0.349336 0.349336
0.361683 0.361683 0.361683
0.374064 0.374064 0.374064
0.386472 0.386472 0.386472
0.398899 0.398899 0.398899
0.048583 0.048583 0.048583
0.053878 0.053878 0.053878
0.059179 0.059179 0.059179
0.069798 0.069798 0.069798
0.080447 0.080447 0.080447
0.091129 0.091129 0.091129
0.101848 0.101848 0.101848
0.112609 0.112609 0.112609
0.123417 0.123417 0.123417
0.134275 0.134275 0.134275
0.145190 0.145190 0.145190
0.156167 0.156167 0.156167
0.167210 0.167210 0.167210
0.178324 0.178324 0.178324
0.189515 0.189515 0.189515
0.200787 0.200787 0.200787
0.212148 0.212148 0.212148
0.223602 0.223602 0.223602
0.235153 0.235153 0.235153
0.246808 0.246808 0.246808
0.258569 0.258569 0.258569
0.270426 0.270426 0.270426
0.282372 0.282372 0.282372
0.294399 0.294399 0.294399
0.306500 0.306500 0.306500
0.318668 0.318668 0.318668
0.330897 0.330897 0.330897
0.343178 0.343178 0.343178
0.355505 0.355505 0.355505
0.367870 0.367870 0.367870
0.380265 0.380265 0.380265
0.392684 0.392684 0.392684
0.405118 0.405118 0.405118
0.059179 0.059179 0.059179
0.064485 0.064485 0.064485
0.069798 0.069798 0.069798
0.075119 0.075119 0.075119
0.085784 0.085784 0.085784
0.096484 0.096484 0.096484
0.107223 0.107223 0.107223
0.118006 0.118006 0.118006
0.128839 0.128839 0.128839
0.139726 0.139726 0.139726
0.150671 0.150671 0.150671
0.161679 0.161679 0.161679
0.172757 0.172757 0.172757
0.183909 0.183909 0.183909
0.195141 0.195141 0.195141
0.206457 0.206457 0.206457
0.217863 0.217863 0.217863
0.229364 0.229364 0.229364
0.240967 0.240967 0.240967
0.252676 0.252676 0.252676
0.264487 0.264487 0.264487
0.276389 0.276389 0.276389
0.288375 0.288375 0.288375
0.300440 0.300440 0.300440
0.312576 0.312576 0.312576
0.324776 0.324776 0.324776
0.337032 0.337032 0.337032
0.349336 0.349336 0.349336
0.361683 0.361683 0.361683
0.374064 0.374064 0.374064
0.386472 0.386472 0.386472
0.398899 0.398899 0.398899
0.411339 0.411339 0.411339
0.069798 0.069798 0.069798
0.075119 0.075119 0.075119
0.080447 0.080447 0.080447
0.085784 0.085784 0.085784
0.091129 0.091129 0.091129
0.101848 0.101848 0.101848
0.112609 0.112609 0.112609
0.123417 0.123417 0.123417
0.134275 0.134275 0.134275
0.145190 0.145190 0.145190
0.156167 0.156167 0.156167
0.167210 0.167210 0.167210
0.178324 0.178324 0.178324
0.189515 0.189515 0.189515
0.200787 0.200787 0.200787
0.212148 0.212148 0.212148
0.223602 0.223602 0.223602
0.235153 0.235153 0.235153
0.246808 0.246808 0.246808
0.258569 0.258569 0.258569
0.270426 0.270426 0.270426
0.282372 0.282372 0.282372
0.294399 0.294399 0.294399
0.306500 0.306500 0.306500
0.318668 0.318668 0.318668
0.330897 0.330897 0.330897
0.343178 0.343178 0.343178
0.355505 0.355505 0.355505
0.367870 0.367870 0.367870
0.380265 0.380265 0.380265
0.392684 0.392684 0.392684
0.405118 0.405118 0.405118
0.417561 0.417561 0.417561
0.080447 0.080447 0.080447
0.085784 0.085784 0.085784
0.091129 0.091129 0.091129
0.096484 0.096484 0.096484
0.101848 0.101848 0.101848
0.107223 0.107223 0.107223
0.118006 0.118006 0.118006
0.128839 0.128839 0.128839
0.139726 0.139726 0.139726
0.150671 0.150671 0.150671
0.161679 0.161679 0.161679
0.172757 0.172757 0.172757
0.183909 0.183909 0.183909
0.195141 0.195141 0.195141
0.206457 0.206457 0.206457
0.217863 0.217863 0.217863
0.229364 0.229364 0.229364
0.240967 0.240967 0.240967
0.252676 0.252676 0.252676
0.264487 0.264487 0.264487
0.276389 0.276389 0.276389
0.288375 0.288375 0.288375
0.300440 0.300440 0.300440
0.312576 0.312576 0.312576
0.324776 0.324776 0.324776
0.337032 0.337032 0.337032
0.349336 0.349336 0.349336
0.361683 0.361683 0.361683
0.374064 0.374064 0.374064
0.386472 0.386472 0.386472
0.398899 0.398899 0.398899
0.411339 0.411339 0.411339
0.423784 0.423784 0.423784
0.091129 0.091129 0.091129
0.096484 0.096484 0.096484
0.101848 0.101848 0.101848
0.107223 0.107223 0.107223
0.112609 0.112609 0.112609
0.118006 0.118006 0.118006
0.123417 0.123417 0.123417
0.134275 0.134275 0.134275
0.145190 0.145190 0.145190
0.156167 0.156167 0.156167
0.167210 0.167210 0.167210
0.178324 0.178324 0.178324
0.189515 0.189515 0.189515
0.200787 0.200787 0.200787
0.212148 0.212148 0.212148
0.223602 0.223602 0.223602
0.235153 0.235153 0.235153
0.246808 0.246808 0.246808
0.258569 0.258569 0.258569
0.270426 0.270426 0.270426
0.282372 0.282372 0.282372
0.294399 0.294399 0.294399
0.306500 0.306500 0.306500
0.318668 0.318668 0.318668
0.330897 0.330897 0.330897
0.343178 0.343178 0.343178
0.355505 0.355505 0.355505
0.367870 0.367870 0.367870
0.380265 0.380265 0.380265
0.392684 0.392684 0.392684
0.405118 0.405118 0.405118
0.417561 0.417561 0.417561
0.430005 0.430005 0.430005
0.101848 0.101848 0.101848
0.107223 0.107223 0.107223
0.112609 0.112609 0.112609
0.118006 0.118006 0.118006
0.123417 0.123417 0.123417
0.128839 0.128839 0.128839
0.134275 0.134275 0.134275
0.139726 0.139726 0.139726
0.150671 0.150671 0.150671
0.161679 0.161679 0.161679
0.172757 0.172757 0.172757
0.183909 0.183909 0.183909
0.195141 0.195141 0.195141
0.206457 0.206457 0.206457
0.217863 0.217863 0.217863
0.229364 0.229364 0.229364
0.240967 0.240967 0.240967
0.252676 0.252676 0.252676
0.264487 0.264487 0.264487
0.276389 0.276389 0.276389
0.288375 0.288375 0.288375
0.300440 0.300440 0.300440
0.312576 0.312576 0.312576
0.324776 0.324776 0.324776
0.337032 0.337032 0.337032
0.349336 0.349336 0.349336
0.361683 0.361683 0.361683
0.374064 0.374064 0.374064
0.386472 0.386472 0.386472
0.398899 0.398899 0.398899
0.411339 0.411339 0.411339
0.423784 0.423784 0.423784
0.436226 0.436226 0.436226
0.112609 0.112609 0.112609
0.118006 0.118006 0.118006
0.123417 0.123417 0.123417
0.128839 0.128839 0.128839
0.134275 0.134275 0.134275
0.139726 0.139726 0.139726
0.145190 0.145190 0.145190
0.150671 0.150671 0.150671
0.156167 0.156167 0.156167
0.167210 0.167210 0.167210
0.178324 0.178324 0.178324
0.189515 0.189515 0.189515
0.200787 0.200787 0.200787
0.212148 0.212148 0.212148
0.223602 0.223602 0.223602
0.235153 0.235153 0.235153
0.246808 0.246808 0.246808
0.258569 0.258569 0.258569
0.270426 0.270426 0.270426
0.282372 0.282372 0.282372
0.294399 0.294399 0.294399
0.306500 0.306500 0.306500
0.318668 0.318668 0.318668
0.330897 0.330897 0.330897
0.343178 0.343178 0.343178
0.355505 0.355505 0.355505
0.367870 0.367870 0.367870
0.380265 0.380265 0.380265
0.392684 0.392684 0.392684
0.405118 0.405118 0.405118
0.417561 0.417561 0.417561
0.430005 0.430005 0.430005
0.442443 0.442443 0.442443
0.123417 0.123417 0.123417
0.128839 0.128839 0.128839
0.134275 0.134275 0.134275
0.139726 0.139726 0.139726
0.145190 0.145190 0.145190
0.150671 0.150671 0.150671
0.156167 0.156167 0.156167
0.161679 0.161679 0.161679
0.167210 0.167210 0.167210
0.172757 0.172757 0.172757
0.183909 0.183909 0.183909
0.195141 0.195141 0.195141
0.206457 0.206457 0.206457
0.217863 0.217863 0.217863
0.229364 0.229364 0.229364
0.240967 0.240967 0.240967
0.252676 0.252676 0.252676
0.264487 0.264487 0.264487
0.276389 0.276389 0.276389
0.288375 0.288375 0.288375
0.300440 0.300440 0.300440
0.312576 0.312576 0.312576
0.324776 0.324776 0.324776
0.337032 0.337032 0.337032
0.349336 0.349336 0.349336
0.361683 0.361683 0.361683
0.374064 0.374064 0.374064
0.386472 0.386472 0.386472
0.398899 0.398899 0.398899
0.411339 0.411339 0.411339
0.423784 0.423784 0.423784
0.436226 0.436226 0.436226
0.448660 0.448660 0.448660
0.134275 0.134275 0.134275
0.139726 0.139726 0.139726
0.145190 0.145190 0.145190
0.150671 0.150671 0.150671
0.156167 0.156167 0.156167
0.161679 0.161679 0.161679
0.167210 0.167210 0.167210
0.172757 0.172757 0.172757
0.178324 0.178324 0.178324
0.183909 0.183909 0.183909
0.189515 0.189515 0.189515
0.200787 0.200787 0.200787
0.212148 0.212148 0.212148
0.223602 0.223602 0.223602
0.235153 0.235153 0.235153
0.246808 0.246808 0.246808
0.258569 0.258569 0.258569
0.270426 0.270426 0.270426
0.282372 0.282372 0.282372
0.294399 0.294399 0.294399
0.306500 0.306500 0.306500
0.318668 0.318668 0.318668
0.330897 0.330897 0.330897
0.343178 0.343178 0.343178
0.355505 0.355505 0.355505
0.367870 0.367870 0.367870
0.380265 0.380265 0.380265
0.392684 0.392684 0.392684
0.405118 0.405118 0.405118
0.417561 0.417561 0.417561
0.430005 0.430005 0.430005
0.442443 0.442443 0.442443
0.454879 0.454879 0.454879
0.145190 0.145190 0.145190
0.150671 0.150671 0.150671
0.156167 0.156167 0.156167
0.161679 0.161679 0.161679
0.167210 0.167210 0.167210
0.172757 0.172757 0.172757
0.178324 0.178324 0.178324
0.183909 0.183909 0.183909
0.189515 0.189515 0.189515
0.195141 0.195141 0.195141
0.200787 0.200787 0.200787
0.206457 0.206457 0.206457
0.217863 0.217863 0.217863
0.229364 0.229364 0.229364
0.240967 0.240967 0.240967
0.252676 0.252676 0.252676
0.264487 0.264487 0.264487
0.276389 0.276389 0.276389
0.288375 0.288375 0.288375
0.300440 0.300440 0.300440
0.312576 0.312576 0.312576
0.324776 0.324776 0.324776
0.337032 0.337032 0.337032
0.349336 0.349336 0.349336
0.361683 0.361683 0.361683
0.374064 0.374064 0.374064
0.386472 0.386472 0.386472
0.398899 0.398899 0.398899
0.411339 0.411339 0.411339
0.423784 0.423784 0.423784
0.436226 0.436226 0.436226
0.448660 0.448660 0.448660
0.461098 0.461098 0.461098
0.156167 0.156167 0.156167
0.161679 0.161679 0.161679
0.167210 0.167210 0.167210
0.172757 0.172757 0.172757
0.178324 0.178324 0.178324
0.183909 0.183909 0.183909
0.189515 0.189515 0.189515
0.195141 0.195141 0.195141
0.200787 0.200787 0.200787
0.206457 0.206457 0.206457
0.212148 0.212148 0.212148
0.217863 0.217863 0.217863
0.223602 0.223602 0.223602
0.235153 0.235153 0.235153
0.246808 0.246808 0.246808
0.258569 0.258569 0.258569
0.270426 0.270426 0.270426
0.282372 0.282372 0.282372
0.294399 0.294399 0.294399
0.306500 0.306500 0.306500
0.318668 0.318668 0.318668
0.330897 0.330897 0.330897
0.343178 0.343178 0.343178
0.355505 0.355505 0.355505
0.367870 0.367870 0.367870
0.380265 0.380265 0.380265
0.392684 0.392684 0.392684
0.405118 0.405118 0.405118
0.417561 0.417561 0.417561
0.430005 0.430005 0.430005
0.442443 0.442443 0.442443
0.454879 0.454879 0.454879
0.467318 0.467318 0.467318
0.167210 0.167210 0.167210
0.172757 0.172757 0.172757
0.178324 0.178324 0.178324
0.183909 0.183909 0.183909
0.189515 0.189515 0.189515
0.195141 0.195141 0.195141
0.200787 0.200787 0.200787
0.206457 0.206457 0.206457
0.212148 0.212148 0.212148
0.217863 0.217863 0.217863
0.223602 0.223602 0.223602
0.229364 0.229364 0.229364
0.235153 0.235153 0.235153
0.240967 0.240967 0.240967
0.252676 0.252676 0.252676
0.264487 0.264487 0.264487
0.276389 0.276389 0.276389
0.288375 0.288375 0.288375
0.300440 0.300440 0.300440
0.312576 0.312576 0.312576
0.324776 0.324776 0.324776
0.337032 0.337032 0.337032
0.349336 0.349336 0.349336
0.361683 0.361683 0.361683
0.374064 0.374064 0.374064
0.386472 0.386472 0.386472
0.398899 0.398899 0.398899
0.411339 0.411339 0.411339
0.423784 0.423784 0.423784
0.436226 0.436226 0.436226
0.448660 0.448660 0.448660
0.461098 0.461098 0.461098
0.473538 0.473538 0.473538
0.178324 0.178324 0.178324
0.183909 0.183909 0.183909
0.189515 0.189515 0.189515
0.195141 0.195141 0.195141
0.200787 0.200787 0.200787
0.206457 0.206457 0.206457
0.212148 0.212148 0.212148
0.217863 0.217863 0.217863
0.223602 0.223602 0.223602
0.229364 0.229364 0.229364
0.235153 0.235153 0.235153
0.240967 0.240967 0.240967
0.246808 0.246808 0.246808
0.252676 0.252676 0.252676
0.258569 0.258569 0.258569
0.270426 0.270426 0.270426
0.282372 0.282372 0.282372
0.294399 0.294399 0.294399
0.306500 0.306500 0.306500
0.318668 0.318668 0.318668
0.330897 0.330897 0.330897
0.343178 0.343178 0.343178
0.355505 0.355505 0.355505
0.367870 0.367870 0.367870
0.380265 0.380265 0.380265
0.392684 0.392684 0.392684
0.405118 0.405118 0.405118
0.417561 0.417561 0.417561
0.430005 0.430005 0.430005
0.442443 0.442443 0.442443
0.454879 0.454879 0.454879
0.467318 0.467318 0.467318
0.479756 0.479756 0.479756
0.189515 0.189515 0.189515
0.195141 0.195141 0.195141
0.200787 0.200787 0.200787
0.206457 0.206457 0.206457
0.212148 0.212148 0.212148
0.217863 0.217863 0.217863
0.223602 0.223602 0.223602
0.229364 0.229364 0.229364
0.235153 0.235153 0.235153
0.240967 0.240967 0.240967
0.246808 0.246808 0.246808
0.252676 0.252676 0.252676
0.258569 0.258569 0.258569
0.264487 0.264487 0.264487
0.270426 0.270426 0.270426
0.276389 0.276389 0.276389
0.288375 0.288375 0.288375
0.300440 0.300440 0.300440
0.312576 0.312576 0.312576
0.324776 0.324776 0.324776
0.337032 0.337032 0.337032
0.349336 0.349336 0.349336
0.361683 0.361683 0.361683
0.374064 0.374064 0.374064
0.386472 0.386472 0.386472
0.398899 0.398899 0.398899
0.411339 0.411339 0.411339
0.423784 0.423784 0.423784
0.436226 0.436226 0.436226
0.448660 0.448660 0.448660
0.461098 0.461098 0.461098
0.473538 0.473538 0.473538
0.485973 0.485973 0.485973
0.200787 0.200787 0.200787
0.206457 0.206457 0.206457
0.212148 0.212148 0.212148
0.217863 0.217863 0.217863
0.223602 0.223602 0.223602
0.229364 0.229364 0.229364
0.235153 0.235153 0.235153
0.240967 0.240967 0.240967
0.246808 0.246808 0.246808
0.252676 0.252676 0.252676
0.258569 0.258569 0.258569
0.264487 0.264487 0.264487
0.270426 0.270426 0.270426
0.276389 0.276389 0.276389
0.282372 0.282372 0.282372
0.288375 0.288375 0.288375
0.294399 0.294399 0.294399
0.306500 0.306500 0.306500
0.318668 0.318668 0.318668
0.330897 0.330897 0.330897
0.343178 0.343178 0.343178
0.355505 0.355505 0.355505
0.367870 0.367870 0.367870
0.380265 0.380265 0.380265
0.392684 0.392684 0.392684
0.405118 0.405118 0.405118
0.417561 0.417561 0.417561
0.430005 0.430005 0.430005
0.442443 0.442443 0.442443
0.454879 0.454879 0.454879
0.467318 0.467318 0.467318
0.479756 0.479756 0.479756
0.492188 0.492188 0.492188
0.212148 0.212148 0.212148
0.217863 0.217863 0.217863
0.223602 0.223602 0.223602
0.229364 0.229364 0.229364
0.235153 0.235153 0.235153
0.240967 0.240967 0.240967
0.246808 0.246808 0.246808
0.252676 0.252676 0.252676
0.258569 0.258569 0.258569
0.264487 0.264487 0.264487
0.270426 0.270426 0.270426
0.276389 0.276389 0.276389
0.282372 0.282372 0.282372
0.288375 0.288375 0.288375
0.294399 0.294399 0.294399
0.300440 0.300440 0.300440
0.306500 0.306500 0.306500
0.312576 0.312576 0.312576
0.324776 0.324776 0.324776
0.337032 0.337032 0.337032
0.349336 0.349336 0.349336
0.361683 0.361683 0.361683
0.374064 0.374064 0.374064
0.386472 0.386472 0.386472
0.398899 0.398899 0.398899
0.411339 0.411339 0.411339
0.423784 0.423784 0.423784
0.436226 0.436226 0.436226
0.448660 0.448660 0.448660
0.461098 0.461098 0.461098
0.473538 0.473538 0.473538
0.485973 0.485973 0.485973
0.498407 0.498407 0.498407
0.223602 0.223602 0.223602
0.229364 0.229364 0.229364
0.235153 0.235153 0.235153
0.240967 0.240967 0.240967
0.246808 0.246808 0.246808
0.252676 0.252676 0.252676
0.258569 0.258569 0.258569
0.264487 0.264487 0.264487
0.270426 0.270426 0.270426
0.276389 0.276389 0.276389
0.282372 0.282372 0.282372
0.288375 0.288375 0.288375
0.294399 0.294399 0.294399
0.300440 0.300440 0.300440
0.306500 0.306500 0.306500
0.312576 0.312576 0.312576
0.318668 0.318668 0.318668
0.324776 0.324776 0.324776
0.330897 0.330897 0.330897
0.343178 0.343178 0.343178
0.355505 0.355505 0.355505
0.367870 0.367870 0.367870
0.380265 0.380265 0.380265
0.392684 0.392684 0.392684
0.405118 0.405118 0.405118
0.417561 0.417561 0.417561
0.430005 0.430005 0.430005
0.442443 0.442443 0.442443
0.454879 0.454879 0.454879
0.467318 0.467318 0.467318
0.479756 0.479756 0.479756
0.492188 0.492188 0.492188
0.504653 0.504653 0.504653
0.235153 0.235153 0.235153
0.240967 0.240967 0.240967
0.246808 0.246808 0.246808
0.252676 0.252676 0.252676
0.258569 0.258569 0.258569
0.264487 0.264487 0.264487
0.270426 0.270426 0.270426
0.276389 0.276389 0.276389
0.282372 0.282372 0.282372
0.288375 0.288375 0.288375
0.294399 0.294399 0.294399
0.300440 0.300440 0.300440
0.306500 0.306500 0.306500
0.312576 0.312576 0.312576
0.318668 0.318668 0.318668
0.324776 0.324776 0.324776
0.330897 0.330897 0.330897
0.337032 0.337032 0.337032
0.343178 0.343178 0.343178
0.349336 0.349336 0.349336
0.361683 0.361683 0.361683
0.374064 0.374064 0.374064
0.386472 0.386472 0.386472
0.398899 0.398899 0.398899
0.411339 0.411339 0.411339
0.423784 0.423784 0.423784
0.436226 0.436226 0.436226
0.448660 0.448660 0.448660
0.461098 0.461098 0.461098
0.473538 0.473538 0.473538
0.485973 0.485973 0.485973
0.498407 0.498407 0.498407
0.510924 0.510924 0.510924
0.246808 0.246808 0.246808
0.252676 0.252676 0.252676
0.258569 0.258569 0.258569
0.264487 0.264487 0.264487
0.270426 0.270426 0.270426
0.276389 0.276389 0.276389
0.282372 0.282372 0.282372
0.288375 0.288375 0.288375
0.294399 0.294399 0.294399
0.300440 0.300440 0.300440
0.306500 0.306500 0.306500
0.312576 0.312576 0.312576
0.318668 0.318668 0.318668
0.324776 0.324776 0.324776
0.330897 0.330897 0.330897
0.337032 0.337032 0.337032
0.343178 0.343178 0.343178
0.349336 0.349336 0.349336
0.355505 0.355505 0.355505
0.361683 0.361683 0.361683
0.367870 0.367870 0.367870
0.380265 0.380265 0.380265
0.392684 0.392684 0.392684
0.405118 0.405118 0.405118
0.417561 0.417561 0.417561
0.430005 0.430005 0.430005
0.442443 0.442443 0.442443
0.454879 0.454879 0.454879
0.467318 0.467318 0.467318
0.479756 0.479756 0.479756
0.492188 0.492188 0.492188
0.504653 0.504653 0.504653
0.517218 0.517218 0.517218
0.258569 0.258569 0.258569
0.264487 0.264487 0.264487
0.270426 0.270426 0.270426
0.276389 0.276389 0.276389
0.282372 0.282372 0.282372
0.288375 0.288375 0.288375
0.294399 0.294399 0.294399
0.300440 0.300440 0.300440
0.306500 0.306500 0.306500
0.312576 0.312576 0.312576
0.318668 0.318668 0.318668
0.324776 0.324776 0.324776
0.330897 0.330897 0.330897
0.337032 0.337032 0.337032
0.343178 0.343178 0.343178
0.349336 0.349336 0.349336
0.355505 0.355505 0.355505
0.361683 0.361683 0.361683
0.367870 0.367870 0.367870
0.374064 0.374064 0.374064
0.380265 0.380265 0.380265
0.386472 0.386472 0.386472
0.398899 0.398899 0.398899
0.411339 0.411339 0.411339
0.423784 0.423784 0.423784
0.436226 0.436226 0.436226
0.448660 0.448660 0.448660
0.461098 0.461098 0.461098
0.473538 0.473538 0.473538
0.485973 0.485973 0.485973
0.498407 0.498407 0.498407
0.510924 0.510924 0.510924
0.523535 0.523535 0.523535
0.270426 0.270426 0.270426
0.276389 0.276389 0.276389
0.282372 0.282372 0.282372
0.288375 0.288375 0.288375
0.294399 0.294399 0.294399
0.300440 0.300440 0.300440
0.306500 0.306500 0.306500
0.312576 0.312576 0.312576
0.318668 0.318668 0.318668
0.324776 0.324776 0.324776
0.330897 0.330897 0.330897
0.337032 0.337032 0.337032
0.343178 0.343178 0.343178
0.349336 0.349336 0.349336
0.355505 0.355505 0.355505
0.361683 0.361683 0.361683
0.367870 0.367870 0.367870
0.374064 0.374064 0.374064
0.380265 0.380265 0.380265
0.386472 0.386472 0.386472
0.392684 0.392684 0.392684
0.398899 0.398899 0.398899
0.405118 0.405118 0.405118
0.417561 0.417561 0.417561
0.430005 0.430005 0.430005
0.442443 0.442443 0.442443
0.454879 0.454879 0.454879
0.467318 0.467318 0.467318
0.479756 0.479756 0.479756
0.492188 0.492188 0.492188
0.504653 0.504653 0.504653
0.517218 0.517218 0.517218
0.529871 0.529871 0.529871
0.282372 0.282372 0.282372
0.288375 0.288375 0.288375
0.294399 0.294399 0.294399
0.300440 0.300440 0.300440
0.306500 0.306500 0.306500
0.312576 0.312576 0.312576
0.318668 0.318668 0.318668
0.324776 0.324776 0.324776
0.330897 0.330897 0.330897
0.337032 0.337032 0.337032
0.343178 0.343178 0.343178
0.349336 0.349336 0.349336
0.355505 0.355505 0.355505
0.361683 0.361683 0.361683
0.367870 0.367870 0.367870
0.374064 0.374064 0.374064
0.380265 0.380265 0.380265
0.386472 0.386472 0.386472
0.392684 0.392684 0.392684
0.398899 0.398899 0.398899
0.405118 0.405118 0.405118
0.411339 0.411339 0.411339
0.417561 0.417561 0.417561
0.423784 0.423784 0.423784
0.436226 0.436226 0.436226
0.448660 0.448660 0.448660
0.461098 0.461098 0.461098
0.473538 0.473538 0.473538
0.485973 0.485973 0.485973
0.498407 0.498407 0.498407
0.510924 0.510924 0.510924
0.523535 0.523535 0.523535
0.536226 0.536226 0.536226
0.294399 0.294399 0.294399
0.300440 0.300440 0.300440
0.306500 0.306500 0.306500
0.312576 0.312576 0.312576
0.318668 0.318668 0.318668
0.324776 0.324776 0.324776
0.330897 0.330897 0.330897
0.337032 0.337032 0.337032
0.343178 0.343178 0.343178
0.349336 0.349336 0.349336
0.355505 0.355505 0.355505
0.361683 0.361683 0.361683
0.367870 0.367870 0.367870
0.374064 0.374064 0.374064
0.380265 0.380265 0.380265
0.386472 0.386472 0.386472
0.392684 0.392684 0.392684
0.398899 0.398899 0.398899
0.405118 0.405118 0.405118
0.411339 0.411339 0.411339
0.417561 0.417561 0.417561
0.423784 0.423784 0.423784
0.430005 0.430005 0.430005
0.436226 0.436226 0.436226
0.442443 0.442443 0.442443
0.454879 0.454879 0.454879
0.467318 0.467318 0.467318
0.479756 0.479756 0.479756
0.492188 0.492188 0.492188
0.504653 0.504653 0.504653
0.517218 0.517218 0.517218
0.529871 0.529871 0.529871
0.542598 0.542598 0.542598
0.306500 0.306500 0.306500
0.312576 0.312576 0.312576
0.318668 0.318668 0.318668
0.324776 0.324776 0.324776
0.330897 0.330897 0.330897
0.337032 0.337032 0.337032
0.343178 0.343178 0.343178
0.349336 0.349336 0.349336
0.355505 0.355505 0.355505
0.361683 0.361683 0.361683
0.367870 0.367870 0.367870
0.374064 0.374064 0.374064
0.380265 0.380265 0.380265
0.386472 0.386472 0.386472
0.392684 0.392684 0.392684
0.398899 0.398899 0.398899
0.405118 0.405118 0.405118
0.411339 0.411339 0.411339
0.417561 0.417561 0.417561
0.423784 0.423784 0.423784
0.430005 0.430005 0.430005
0.436226 0.436226 0.436226
0.442443 0.442443 0.442443
0.448660 0.448660 0.448660
0.454879 0.454879 0.454879
0.461098 0.461098 0.461098
0.473538 0.473538 0.473538
0.485973 0.485973 0.485973
0.498407 0.498407 0.498407
0.510924 0.510924 0.510924
0.523535 0.523535 0.523535
0.536226 0.536226 0.536226
0.548988 0.548988 0.548988
0.318668 0.318668 0.318668
0.324776 0.324776 0.324776
0.330897 0.330897 0.330897
0.337032 0.337032 0.337032
0.343178 0.343178 0.343178
0.349336 0.349336 0.349336
0.355505 0.355505 0.355505
0.361683 0.361683 0.361683
0.367870 0.367870 0.367870
0.374064 0.374064 0.374064
0.380265 0.380265 0.380265
0.386472 0.386472 0.386472
0.392684 0.392684 0.392684
0.398899 0.398899 0.398899
0.405118 0.405118 0.405118
0.411339 0.411339 0.411339
0.417561 0.417561 0.417561
0.423784 0.423784 0.423784
0.430005 0.430005 0.430005
0.436226 0.436226 0.436226
0.442443 0.442443 0.442443
