ricette/lut/Quotidiana-400-33.cube
# LUT generata da Camera Oscura BN
# Ricetta: Quotidiana 400
# Pellicola: kentmere400
# Nota: grana, vignetta e interventi locali non sono inclusi nella LUT.
TITLE "Quotidiana 400"
LUT_3D_SIZE 5
DOMAIN_MIN 0.0 0.0 0.0
DOMAIN_MAX 1.0 1.0 1.0
0.027451 0.027451 0.027451
0.112609 0.112609 0.112609
0.200787 0.200787 0.200787
0.294399 0.294399 0.294399
0.392684 0.392684 0.392684
0.112609 0.112609 0.112609
0.156167 0.156167 0.156167
0.246808 0.246808 0.246808
0.343178 0.343178 0.343178
0.442443 0.442443 0.442443
0.200787 0.200787 0.200787
0.246808 0.246808 0.246808
0.294399 0.294399 0.294399
0.392684 0.392684 0.392684
0.492188 0.492188 0.492188
0.294399 0.294399 0.294399
0.343178 0.343178 0.343178
0.392684 0.392684 0.392684
0.442443 0.442443 0.442443
0.542598 0.542598 0.542598
0.392684 0.392684 0.392684
0.442443 0.442443 0.442443
0.492188 0.492188 0.492188
0.542598 0.542598 0.542598
0.594165 0.594165 0.594165
0.069798 0.069798 0.069798
0.200787 0.200787 0.200787
0.294399 0.294399 0.294399
0.392684 0.392684 0.392684
0.492188 0.492188 0.492188
0.156167 0.156167 0.156167
0.246808 0.246808 0.246808
0.343178 0.343178 0.343178
0.442443 0.442443 0.442443
0.542598 0.542598 0.542598
0.246808 0.246808 0.246808
0.343178 0.343178 0.343178
0.392684 0.392684 0.392684
0.492188 0.492188 0.492188
0.594165 0.594165 0.594165
0.343178 0.343178 0.343178
0.442443 0.442443 0.442443
0.492188 0.492188 0.492188
0.542598 0.542598 0.542598
0.646044 0.646044 0.646044
0.442443 0.442443 0.442443
0.542598 0.542598 0.542598
0.594165 0.594165 0.594165
0.646044 0.646044 0.646044
0.697087 0.697087 0.697087
0.112609 0.112609 0.112609
0.246808 0.246808 0.246808
0.392684 0.392684 0.392684
0.492188 0.492188 0.492188
0.594165 0.594165 0.594165
0.200787 0.200787 0.200787
0.294399 0.294399 0.294399
0.442443 0.442443 0.442443
0.542598 0.542598 0.542598
0.646044 0.646044 0.646044
0.294399 0.294399 0.294399
0.392684 0.392684 0.392684
0.492188 0.492188 0.492188
0.594165 0.594165 0.594165
0.697087 0.697087 0.697087
0.392684 0.392684 0.392684
0.492188 0.492188 0.492188
0.594165 0.594165 0.594165
0.646044 0.646044 0.646044
0.746160 0.746160 0.746160
0.492188 0.492188 0.492188
0.594165 0.594165 0.594165
0.697087 0.697087 0.697087
0.746160 0.746160 0.746160
0.792748 0.792748 0.792748
0.156167 0.156167 0.156167
0.294399 0.294399 0.294399
0.442443 0.442443 0.442443
0.594165 0.594165 0.594165
0.697087 0.697087 0.697087
0.246808 0.246808 0.246808
0.343178 0.343178 0.343178
0.492188 0.492188 0.492188
0.646044 0.646044 0.646044
0.746160 0.746160 0.746160
0.343178 0.343178 0.343178
0.442443 0.442443 0.442443
0.542598 0.542598 0.542598
0.697087 0.697087 0.697087
0.792748 0.792748 0.792748
0.442443 0.442443 0.442443
0.542598 0.542598 0.542598
0.646044 0.646044 0.646044
0.746160 0.746160 0.746160
0.837401 0.837401 0.837401
0.542598 0.542598 0.542598
0.646044 0.646044 0.646044
0.746160 0.746160 0.746160
0.837401 0.837401 0.837401
0.880635 0.880635 0.880635
0.200787 0.200787 0.200787
0.343178 0.343178 0.343178
0.492188 0.492188 0.492188
0.646044 0.646044 0.646044
0.792748 0.792748 0.792748
0.294399 0.294399 0.294399
0.392684 0.392684 0.392684
0.542598 0.542598 0.542598
0.697087 0.697087 0.697087
0.837401 0.837401 0.837401
0.392684 0.392684 0.392684
0.492188 0.492188 0.492188
0.594165 0.594165 0.594165
0.746160 0.746160 0.746160
0.880635 0.880635 0.880635
0.492188 0.492188 0.492188
0.594165 0.594165 0.594165
0.697087 0.697087 0.697087
0.792748 0.792748 0.792748
0.922930 0.922930 0.922930
0.594165 0.594165 0.594165
0.697087 0.697087 0.697087
0.792748 0.792748 0.792748
0.880635 0.880635 0.880635
0.964706 0.964706 0.964706
