ricette/lut/Reportage-ad-alta-grana-33.cube
# LUT generata da Camera Oscura BN
# Ricetta: Reportage ad alta grana
# Pellicola: reportage
# Nota: grana, vignetta e interventi locali non sono inclusi nella LUT.
TITLE "Reportage ad alta grana"
LUT_3D_SIZE 9
DOMAIN_MIN 0.0 0.0 0.0
DOMAIN_MAX 1.0 1.0 1.0
0.000000 0.000000 0.000000
0.024681 0.024681 0.024681
0.055865 0.055865 0.055865
0.103359 0.103359 0.103359
0.174760 0.174760 0.174760
0.261583 0.261583 0.261583
0.362803 0.362803 0.362803
0.466335 0.466335 0.466335
0.564510 0.564510 0.564510
0.019671 0.019671 0.019671
0.038813 0.038813 0.038813
0.076244 0.076244 0.076244
0.135996 0.135996 0.135996
0.215426 0.215426 0.215426
0.310255 0.310255 0.310255
0.414371 0.414371 0.414371
0.515005 0.515005 0.515005
0.614333 0.614333 0.614333
0.042853 0.042853 0.042853
0.067845 0.067845 0.067845
0.102446 0.102446 0.102446
0.173543 0.173543 0.173543
0.260138 0.260138 0.260138
0.361217 0.361217 0.361217
0.464811 0.464811 0.464811
0.563000 0.563000 0.563000
0.664892 0.664892 0.664892
0.073469 0.073469 0.073469
0.110374 0.110374 0.110374
0.158635 0.158635 0.158635
0.214125 0.214125 0.214125
0.308714 0.308714 0.308714
0.412794 0.412794 0.412794
0.513537 0.513537 0.513537
0.612782 0.612782 0.612782
0.714218 0.714218 0.714218
0.118714 0.118714 0.118714
0.168718 0.168718 0.168718
0.225333 0.225333 0.225333
0.289663 0.289663 0.289663
0.359631 0.359631 0.359631
0.463287 0.463287 0.463287
0.561490 0.561490 0.561490
0.663346 0.663346 0.663346
0.760272 0.760272 0.760272
0.179026 0.179026 0.179026
0.236871 0.236871 0.236871
0.302576 0.302576 0.302576
0.373127 0.373127 0.373127
0.444096 0.444096 0.444096
0.512065 0.512065 0.512065
0.611230 0.611230 0.611230
0.712740 0.712740 0.712740
0.801187 0.801187 0.801187
0.248720 0.248720 0.248720
0.315662 0.315662 0.315662
0.386639 0.386639 0.386639
0.457179 0.457179 0.457179
0.524486 0.524486 0.524486
0.591929 0.591929 0.591929
0.661795 0.661795 0.661795
0.758920 0.758920 0.758920
0.835417 0.835417 0.835417
0.328892 0.328892 0.328892
0.400134 0.400134 0.400134
0.470136 0.470136 0.470136
0.536897 0.536897 0.536897
0.605033 0.605033 0.605033
0.674924 0.674924 0.674924
0.741664 0.741664 0.741664
0.800018 0.800018 0.800018
0.863965 0.863965 0.863965
0.413583 0.413583 0.413583
0.483002 0.483002 0.483002
0.549491 0.549491 0.549491
0.618220 0.618220 0.618220
0.687940 0.687940 0.687940
0.753475 0.753475 0.753475
0.809729 0.809729 0.809729
0.853497 0.853497 0.853497
0.888618 0.888618 0.888618
0.005092 0.005092 0.005092
0.039282 0.039282 0.039282
0.076956 0.076956 0.076956
0.137082 0.137082 0.137082
0.216727 0.216727 0.216727
0.311797 0.311797 0.311797
0.415948 0.415948 0.415948
0.516468 0.516468 0.516468
0.615887 0.615887 0.615887
0.020856 0.020856 0.020856
0.052026 0.052026 0.052026
0.097112 0.097112 0.097112
0.166329 0.166329 0.166329
0.251555 0.251555 0.251555
0.351711 0.351711 0.351711
0.455651 0.455651 0.455651
0.553977 0.553977 0.553977
0.655589 0.655589 0.655589
0.044317 0.044317 0.044317
0.086717 0.086717 0.086717
0.128488 0.128488 0.128488
0.206423 0.206423 0.206423
0.299523 0.299523 0.299523
0.403303 0.403303 0.403303
0.504684 0.504684 0.504684
0.603485 0.603485 0.603485
0.705304 0.705304 0.705304
0.075548 0.075548 0.075548
0.137633 0.137633 0.137633
0.190752 0.190752 0.190752
0.250133 0.250133 0.250133
0.350129 0.350129 0.350129
0.454115 0.454115 0.454115
0.552482 0.552482 0.552482
0.654035 0.654035 0.654035
0.752104 0.752104 0.752104
0.121751 0.121751 0.121751
0.201378 0.201378 0.201378
0.262308 0.262308 0.262308
0.330456 0.330456 0.330456
0.401719 0.401719 0.401719
0.503203 0.503203 0.503203
0.601939 0.601939 0.601939
0.703804 0.703804 0.703804
0.794089 0.794089 0.794089
0.182705 0.182705 0.182705
0.274743 0.274743 0.274743
0.343813 0.343813 0.343813
0.415159 0.415159 0.415159
0.484510 0.484510 0.484510
0.550987 0.550987 0.550987
0.652481 0.652481 0.652481
0.750733 0.750733 0.750733
0.829641 0.829641 0.829641
0.252976 0.252976 0.252976
0.357253 0.357253 0.357253
0.428519 0.428519 0.428519
0.497253 0.497253 0.497253
0.563755 0.563755 0.563755
0.633012 0.633012 0.633012
0.702303 0.702303 0.702303
0.792888 0.792888 0.792888
0.859019 0.859019 0.859019
0.333590 0.333590 0.333590
0.441770 0.441770 0.441770
0.509858 0.509858 0.509858
0.576646 0.576646 0.576646
0.646257 0.646257 0.646257
0.714957 0.714957 0.714957
0.777352 0.777352 0.777352
0.828650 0.828650 0.828650
0.884315 0.884315 0.884315
0.418313 0.418313 0.418313
0.522306 0.522306 0.522306
0.589628 0.589628 0.589628
0.659469 0.659469 0.659469
0.727385 0.727385 0.727385
0.788014 0.788014 0.788014
0.836836 0.836836 0.836836
0.875008 0.875008 0.875008
0.906440 0.906440 0.906440
0.010350 0.010350 0.010350
0.046310 0.046310 0.046310
0.104273 0.104273 0.104273
0.175976 0.175976 0.175976
0.263034 0.263034 0.263034
0.364391 0.364391 0.364391
0.467857 0.467857 0.467857
0.566020 0.566020 0.566020
0.667985 0.667985 0.667985
0.026742 0.026742 0.026742
0.060170 0.060170 0.060170
0.129552 0.129552 0.129552
0.207691 0.207691 0.207691
0.301047 0.301047 0.301047
0.404887 0.404887 0.404887
0.506164 0.506164 0.506164
0.605033 0.605033 0.605033
0.706794 0.706794 0.706794
0.045810 0.045810 0.045810
0.089120 0.089120 0.089120
0.158052 0.158052 0.158052
0.241716 0.241716 0.241716
0.340663 0.340663 0.340663
0.444869 0.444869 0.444869
0.543543 0.543543 0.543543
0.644700 0.644700 0.644700
0.743772 0.743772 0.743772
0.077672 0.077672 0.077672
0.140938 0.140938 0.140938
0.224664 0.224664 0.224664
0.288912 0.288912 0.288912
0.392199 0.392199 0.392199
0.494263 0.494263 0.494263
0.592698 0.592698 0.592698
0.694770 0.694770 0.694770
0.786789 0.786789 0.786789
0.124832 0.124832 0.124832
0.205160 0.205160 0.205160
0.301810 0.301810 0.301810
0.372333 0.372333 0.372333
0.443323 0.443323 0.443323
0.542063 0.542063 0.542063
0.643142 0.643142 0.643142
0.742367 0.742367 0.742367
0.823621 0.823621 0.823621
0.186409 0.186409 0.186409
0.279186 0.279186 0.279186
0.385844 0.385844 0.385844
0.456415 0.456415 0.456415
0.523759 0.523759 0.523759
0.591161 0.591161 0.591161
0.693258 0.693258 0.693258
0.785543 0.785543 0.785543
0.853928 0.853928 0.853928
0.257264 0.257264 0.257264
0.362010 0.362010 0.362010
0.469376 0.469376 0.469376
0.536164 0.536164 0.536164
0.604259 0.604259 0.604259
0.674154 0.674154 0.674154
0.740961 0.740961 0.740961
0.822602 0.822602 0.822602
0.879911 0.879911 0.879911
0.338300 0.338300 0.338300
0.446414 0.446414 0.446414
0.548745 0.548745 0.548745
0.617442 0.617442 0.617442
0.687178 0.687178 0.687178
0.752790 0.752790 0.752790
0.809166 0.809166 0.809166
0.853066 0.853066 0.853066
0.902559 0.902559 0.902559
0.423030 0.423030 0.423030
0.526667 0.526667 0.526667
0.630675 0.630675 0.630675
0.700053 0.700053 0.700053
0.764287 0.764287 0.764287
0.818422 0.818422 0.818422
0.860265 0.860265 0.860265
0.894191 0.894191 0.894191
0.922663 0.922663 0.922663
0.015793 0.015793 0.015793
0.053925 0.053925 0.053925
0.118213 0.118213 0.118213
0.218037 0.218037 0.218037
0.313339 0.313339 0.313339
0.417524 0.417524 0.417524
0.517931 0.517931 0.517931
0.617442 0.617442 0.617442
0.718638 0.718638 0.718638
0.032938 0.032938 0.032938
0.069139 0.069139 0.069139
0.145410 0.145410 0.145410
0.252976 0.252976 0.252976
0.353294 0.353294 0.353294
0.457179 0.457179 0.457179
0.555475 0.555475 0.555475
0.657143 0.657143 0.657143
0.754846 0.754846 0.754846
0.053380 0.053380 0.053380
0.101534 0.101534 0.101534
0.175368 0.175368 0.175368
0.290419 0.290419 0.290419
0.393787 0.393787 0.393787
0.495759 0.495759 0.495759
0.594235 0.594235 0.594235
0.696281 0.696281 0.696281
0.788014 0.788014 0.788014
0.079843 0.079843 0.079843
0.144290 0.144290 0.144290
0.228689 0.228689 0.228689
0.329674 0.329674 0.329674
0.433990 0.433990 0.433990
0.533230 0.533230 0.533230
0.633792 0.633792 0.633792
0.733863 0.733863 0.733863
0.817352 0.817352 0.817352
0.127966 0.127966 0.127966
0.208972 0.208972 0.208972
0.306408 0.306408 0.306408
0.414371 0.414371 0.414371
0.483756 0.483756 0.483756
0.581982 0.581982 0.581982
0.684123 0.684123 0.684123
0.777987 0.777987 0.777987
0.848701 0.848701 0.848701
0.190130 0.190130 0.190130
0.283657 0.283657 0.283657
0.390611 0.390611 0.390611
0.496506 0.496506 0.496506
0.563000 0.563000 0.563000
0.632233 0.632233 0.632233
0.732426 0.732426 0.732426
0.816278 0.816278 0.816278
0.875389 0.875389 0.875389
0.261583 0.261583 0.261583
0.366773 0.366773 0.366773
0.473932 0.473932 0.473932
0.575885 0.575885 0.575885
0.645479 0.645479 0.645479
0.714218 0.714218 0.714218
0.776715 0.776715 0.776715
0.847812 0.847812 0.847812
0.898589 0.898589 0.898589
0.343025 0.343025 0.343025
0.451041 0.451041 0.451041
0.553229 0.553229 0.553229
0.658694 0.658694 0.658694
0.726659 0.726659 0.726659
0.787402 0.787402 0.787402
0.836363 0.836363 0.836363
0.874628 0.874628 0.874628
0.919114 0.919114 0.919114
0.427736 0.427736 0.427736
0.531034 0.531034 0.531034
0.635350 0.635350 0.635350
0.738842 0.738842 0.738842
0.797663 0.797663 0.797663
0.844223 0.844223 0.844223
0.881021 0.881021 0.881021
0.911490 0.911490 0.911490
0.937618 0.937618 0.937618
0.021452 0.021452 0.021452
0.062253 0.062253 0.062253
0.133288 0.133288 0.133288
0.237558 0.237558 0.237558
0.365979 0.365979 0.365979
0.469376 0.469376 0.469376
0.567534 0.567534 0.567534
0.669531 0.669531 0.669531
0.765620 0.765620 0.765620
0.039516 0.039516 0.039516
0.079105 0.079105 0.079105
0.162170 0.162170 0.162170
0.274004 0.274004 0.274004
0.406471 0.406471 0.406471
0.507644 0.507644 0.507644
0.606580 0.606580 0.606580
0.708284 0.708284 0.708284
0.797663 0.797663 0.797663
0.061650 0.061650 0.061650
0.115230 0.115230 0.115230
0.193241 0.193241 0.193241
0.312568 0.312568 0.312568
0.446414 0.446414 0.446414
0.545029 0.545029 0.545029
0.646257 0.646257 0.646257
0.745178 0.745178 0.745178
0.825658 0.825658 0.825658
0.091162 0.091162 0.091162
0.160990 0.160990 0.160990
0.248720 0.248720 0.248720
0.352503 0.352503 0.352503
0.485265 0.485265 0.485265
0.583508 0.583508 0.583508
0.685651 0.685651 0.685651
0.779257 0.779257 0.779257
0.849579 0.849579 0.849579
0.131149 0.131149 0.131149
0.212824 0.212824 0.212824
0.311026 0.311026 0.311026
0.419100 0.419100 0.419100
0.523032 0.523032 0.523032
0.622887 0.622887 0.622887
0.723757 0.723757 0.723757
0.809729 0.809729 0.809729
0.870752 0.870752 0.870752
0.193866 0.193866 0.193866
0.288161 0.288161 0.288161
0.395374 0.395374 0.395374
0.500973 0.500973 0.500973
0.603485 0.603485 0.603485
0.673383 0.673383 0.673383
0.768917 0.768917 0.768917
0.842402 0.842402 0.842402
0.894532 0.894532 0.894532
0.265936 0.265936 0.265936
0.371538 0.371538 0.371538
0.478474 0.478474 0.478474
0.580456 0.580456 0.580456
0.686414 0.686414 0.686414
0.752104 0.752104 0.752104
0.808602 0.808602 0.808602
0.869965 0.869965 0.869965
0.915492 0.915492 0.915492
0.347760 0.347760 0.347760
0.455651 0.455651 0.455651
0.557729 0.557729 0.557729
0.663346 0.663346 0.663346
0.763621 0.763621 0.763621
0.817888 0.817888 0.817888
0.859850 0.859850 0.859850
0.893846 0.893846 0.893846
0.934328 0.934328 0.934328
0.432430 0.432430 0.432430
0.535430 0.535430 0.535430
0.640026 0.640026 0.640026
0.743070 0.743070 0.743070
0.826669 0.826669 0.826669
0.866789 0.866789 0.866789
0.899593 0.899593 0.899593
0.927298 0.927298 0.927298
0.951564 0.951564 0.951564
0.027369 0.027369 0.027369
0.071445 0.071445 0.071445
0.149381 0.149381 0.149381
0.257983 0.257983 0.257983
0.389022 0.389022 0.389022
0.519394 0.519394 0.519394
0.618997 0.618997 0.618997
0.720103 0.720103 0.720103
0.806912 0.806912 0.806912
0.046564 0.046564 0.046564
0.090345 0.090345 0.090345
0.179639 0.179639 0.179639
0.295715 0.295715 0.295715
0.429303 0.429303 0.429303
0.556978 0.556978 0.556978
0.658694 0.658694 0.658694
0.756215 0.756215 0.756215
0.833515 0.833515 0.833515
0.070777 0.070777 0.070777
0.130084 0.130084 0.130084
0.211536 0.211536 0.211536
0.335160 0.335160 0.335160
0.468617 0.468617 0.468617
0.595771 0.595771 0.595771
0.697791 0.697791 0.697791
0.789239 0.789239 0.789239
0.856490 0.856490 0.856490
0.103816 0.103816 0.103816
0.178412 0.178412 0.178412
0.269593 0.269593 0.269593
0.375511 0.375511 0.375511
0.506904 0.506904 0.506904
0.635350 0.635350 0.635350
0.735288 0.735288 0.735288
0.818422 0.818422 0.818422
0.876911 0.876911 0.876911
0.147110 0.147110 0.147110
0.232079 0.232079 0.232079
0.333590 0.333590 0.333590
0.441770 0.441770 0.441770
0.544286 0.544286 0.544286
0.674924 0.674924 0.674924
0.770230 0.770230 0.770230
0.843312 0.843312 0.843312
0.895212 0.895212 0.895212
0.197614 0.197614 0.197614
0.292689 0.292689 0.292689
0.400134 0.400134 0.400134
0.505424 0.505424 0.505424
0.608128 0.608128 0.608128
0.713479 0.713479 0.713479
0.801763 0.801763 0.801763
0.865186 0.865186 0.865186
0.911802 0.911802 0.911802
0.270326 0.270326 0.270326
0.376306 0.376306 0.376306
0.483002 0.483002 0.483002
0.585036 0.585036 0.585036
0.690979 0.690979 0.690979
0.786789 0.786789 0.786789
0.835890 0.835890 0.835890
0.889673 0.889673 0.889673
0.930986 0.930986 0.930986
0.352503 0.352503 0.352503
0.460236 0.460236 0.460236
0.562245 0.562245 0.562245
0.667985 0.667985 0.667985
0.767604 0.767604 0.767604
0.843768 0.843768 0.843768
0.880653 0.880653 0.880653
0.911178 0.911178 0.911178
0.948482 0.948482 0.948482
0.437110 0.437110 0.437110
0.539848 0.539848 0.539848
0.644700 0.644700 0.644700
0.747262 0.747262 0.747262
0.829641 0.829641 0.829641
0.886836 0.886836 0.886836
0.916404 0.916404 0.916404
0.941924 0.941924 0.941924
0.964682 0.964682 0.964682
0.033599 0.033599 0.033599
0.081696 0.081696 0.081696
0.166329 0.166329 0.166329
0.279186 0.279186 0.279186
0.412004 0.412004 0.412004
0.540586 0.540586 0.540586
0.671072 0.671072 0.671072
0.766948 0.766948 0.766948
0.841029 0.841029 0.841029
0.054197 0.054197 0.054197
0.102903 0.102903 0.102903
0.197614 0.197614 0.197614
0.317987 0.317987 0.317987
0.451810 0.451810 0.451810
0.578929 0.578929 0.578929
0.709773 0.709773 0.709773
0.798841 0.798841 0.798841
0.863149 0.863149 0.863149
0.080955 0.080955 0.080955
0.145974 0.145974 0.145974
0.230723 0.230723 0.230723
0.358046 0.358046 0.358046
0.490522 0.490522 0.490522
0.618220 0.618220 0.618220
0.746568 0.746568 0.746568
0.826669 0.826669 0.826669
0.882862 0.882862 0.882862
0.117711 0.117711 0.117711
0.196364 0.196364 0.196364
0.291176 0.291176 0.291176
0.398548 0.398548 0.398548
0.528123 0.528123 0.528123
0.657919 0.657919 0.657919
0.780528 0.780528 0.780528
0.850456 0.850456 0.850456
0.900584 0.900584 0.900584
0.163942 0.163942 0.163942
0.252266 0.252266 0.252266
0.356460 0.356460 0.356460
0.464049 0.464049 0.464049
0.566020 0.566020 0.566020
0.697036 0.697036 0.697036
0.810830 0.810830 0.810830
0.871536 0.871536 0.871536
0.916708 0.916708 0.916708
0.216077 0.216077 0.216077
0.314887 0.314887 0.314887
0.423030 0.423030 0.423030
0.526667 0.526667 0.526667
0.630675 0.630675 0.630675
0.734577 0.734577 0.734577
0.836836 0.836836 0.836836
0.890374 0.890374 0.890374
0.931546 0.931546 0.931546
0.274743 0.274743 0.274743
0.381075 0.381075 0.381075
0.487518 0.487518 0.487518
0.589628 0.589628 0.589628
0.695525 0.695525 0.695525
0.790465 0.790465 0.790465
0.859434 0.859434 0.859434
0.907400 0.907400 0.907400
0.945361 0.945361 0.945361
0.357253 0.357253 0.357253
0.464811 0.464811 0.464811
0.566776 0.566776 0.566776
0.672613 0.672613 0.672613
0.771543 0.771543 0.771543
0.846471 0.846471 0.846471
0.899259 0.899259 0.899259
0.927011 0.927011 0.927011
0.961777 0.961777 0.961777
0.441770 0.441770 0.441770
0.544286 0.544286 0.544286
0.649370 0.649370 0.649370
0.751419 0.751419 0.751419
0.832551 0.832551 0.832551
0.888971 0.888971 0.888971
0.931825 0.931825 0.931825
0.955605 0.955605 0.955605
0.977096 0.977096 0.977096
0.040219 0.040219 0.040219
0.093258 0.093258 0.093258
0.183939 0.183939 0.183939
0.301047 0.301047 0.301047
0.434770 0.434770 0.434770
0.562245 0.562245 0.562245
0.693258 0.693258 0.693258
0.808039 0.808039 0.808039
0.869571 0.869571 0.869571
0.062554 0.062554 0.062554
0.116708 0.116708 0.116708
0.216077 0.216077 0.216077
0.340663 0.340663 0.340663
0.473932 0.473932 0.473932
0.601168 0.601168 0.601168
0.730989 0.730989 0.730989
0.834471 0.834471 0.834471
0.888618 0.888618 0.888618
0.092416 0.092416 0.092416
0.162760 0.162760 0.162760
0.250844 0.250844 0.250844
0.381075 0.381075 0.381075
0.512065 0.512065 0.512065
0.640805 0.640805 0.640805
0.766287 0.766287 0.766287
0.857335 0.857335 0.857335
0.905798 0.905798 0.905798
0.132746 0.132746 0.132746
0.214776 0.214776 0.214776
0.313339 0.313339 0.313339
0.421458 0.421458 0.421458
0.549491 0.549491 0.549491
0.680298 0.680298 0.680298
0.798252 0.798252 0.798252
0.877666 0.877666 0.877666
0.921489 0.921489 0.921489
0.181478 0.181478 0.181478
0.273265 0.273265 0.273265
0.379486 0.379486 0.379486
0.486016 0.486016 0.486016
0.588097 0.588097 0.588097
0.718638 0.718638 0.718638
0.826168 0.826168 0.826168
0.895893 0.895893 0.895893
0.935979 0.935979 0.935979
0.235498 0.235498 0.235498
0.337515 0.337515 0.337515
0.445642 0.445642 0.445642
0.548002 0.548002 0.548002
0.653258 0.653258 0.653258
0.754846 0.754846 0.754846
0.850017 0.850017 0.850017
0.912423 0.912423 0.912423
0.949516 0.949516 0.949516
0.296477 0.296477 0.296477
0.404095 0.404095 0.404095
0.509122 0.509122 0.509122
0.612006 0.612006 0.612006
0.717173 0.717173 0.717173
0.807476 0.807476 0.807476
0.871146 0.871146 0.871146
0.927584 0.927584 0.927584
0.962263 0.962263 0.962263
0.362010 0.362010 0.362010
0.469376 0.469376 0.469376
0.571324 0.571324 0.571324
0.677229 0.677229 0.677229
0.775423 0.775423 0.775423
0.849140 0.849140 0.849140
0.901244 0.901244 0.901244
0.941659 0.941659 0.941659
0.974344 0.974344 0.974344
0.446414 0.446414 0.446414
0.548745 0.548745 0.548745
0.654035 0.654035 0.654035
0.755532 0.755532 0.755532
0.835417 0.835417 0.835417
0.891076 0.891076 0.891076
0.933498 0.933498 0.933498
0.968501 0.968501 0.968501
0.988865 0.988865 0.988865
0.047327 0.047327 0.047327
0.106123 0.106123 0.106123
0.202006 0.202006 0.202006
0.323429 0.323429 0.323429
0.457179 0.457179 0.457179
0.584271 0.584271 0.584271
0.714957 0.714957 0.714957
0.823621 0.823621 0.823621
0.894191 0.894191 0.894191
0.071782 0.071782 0.071782
0.131681 0.131681 0.131681
0.235498 0.235498 0.235498
0.363597 0.363597 0.363597
0.495759 0.495759 0.495759
0.623665 0.623665 0.623665
0.751419 0.751419 0.751419
0.847812 0.847812 0.847812
0.910865 0.910865 0.910865
0.105186 0.105186 0.105186
0.180252 0.180252 0.180252
0.271790 0.271790 0.271790
0.404095 0.404095 0.404095
0.533230 0.533230 0.533230
0.663346 0.663346 0.663346
0.784919 0.784919 0.784919
0.869177 0.869177 0.869177
0.926152 0.926152 0.926152
0.148813 0.148813 0.148813
0.234125 0.234125 0.234125
0.335945 0.335945 0.335945
0.444096 0.444096 0.444096
0.571324 0.571324 0.571324
0.702303 0.702303 0.702303
0.814667 0.814667 0.814667
0.888261 0.888261 0.888261
0.940319 0.940319 0.940319
0.199496 0.199496 0.199496
0.294958 0.294958 0.294958
0.402511 0.402511 0.402511
0.507644 0.507644 0.507644
0.610454 0.610454 0.610454
0.739553 0.739553 0.739553
0.840101 0.840101 0.840101
0.905477 0.905477 0.905477
0.953594 0.953594 0.953594
0.255827 0.255827 0.255827
0.360424 0.360424 0.360424
0.467857 0.467857 0.467857
0.569808 0.569808 0.569808
0.675694 0.675694 0.675694
0.774131 0.774131 0.774131
0.862333 0.862333 0.862333
0.921192 0.921192 0.921192
0.966121 0.966121 0.966121
0.318762 0.318762 0.318762
0.426953 0.426953 0.426953
0.530306 0.530306 0.530306
0.634571 0.634571 0.634571
0.738132 0.738132 0.738132
0.823112 0.823112 0.823112
0.882126 0.882126 0.882126
0.935705 0.935705 0.935705
0.978008 0.978008 0.978008
0.385049 0.385049 0.385049
0.491273 0.491273 0.491273
0.593466 0.593466 0.593466
0.699301 0.699301 0.699301
0.793488 0.793488 0.793488
0.861511 0.861511 0.861511
0.910553 0.910553 0.910553
0.949257 0.949257 0.949257
0.989296 0.989296 0.989296
0.451041 0.451041 0.451041
0.553229 0.553229 0.553229
0.658694 0.658694 0.658694
0.759596 0.759596 0.759596
0.838245 0.838245 0.838245
0.893155 0.893155 0.893155
0.935157 0.935157 0.935157
0.969916 0.969916 0.969916
1.000000 1.000000 1.000000
