ricette/lut/Reportage-ad-alta-grana-33.cube
# LUT generata da Camera Oscura BN
# Ricetta: Reportage ad alta grana
# Pellicola: reportage
# Nota: grana, vignetta e interventi locali non sono inclusi nella LUT.
TITLE "Reportage ad alta grana"
LUT_3D_SIZE 5
DOMAIN_MIN 0.0 0.0 0.0
DOMAIN_MAX 1.0 1.0 1.0
0.000000 0.000000 0.000000
0.055865 0.055865 0.055865
0.174760 0.174760 0.174760
0.362803 0.362803 0.362803
0.564510 0.564510 0.564510
0.042853 0.042853 0.042853
0.102446 0.102446 0.102446
0.260138 0.260138 0.260138
0.464811 0.464811 0.464811
0.664892 0.664892 0.664892
0.118714 0.118714 0.118714
0.225333 0.225333 0.225333
0.359631 0.359631 0.359631
0.561490 0.561490 0.561490
0.760272 0.760272 0.760272
0.248720 0.248720 0.248720
0.386639 0.386639 0.386639
0.524486 0.524486 0.524486
0.661795 0.661795 0.661795
0.835417 0.835417 0.835417
0.413583 0.413583 0.413583
0.549491 0.549491 0.549491
0.687940 0.687940 0.687940
0.809729 0.809729 0.809729
0.888618 0.888618 0.888618
0.010350 0.010350 0.010350
0.104273 0.104273 0.104273
0.263034 0.263034 0.263034
0.467857 0.467857 0.467857
0.667985 0.667985 0.667985
0.045810 0.045810 0.045810
0.158052 0.158052 0.158052
0.340663 0.340663 0.340663
0.543543 0.543543 0.543543
0.743772 0.743772 0.743772
0.124832 0.124832 0.124832
0.301810 0.301810 0.301810
0.443323 0.443323 0.443323
0.643142 0.643142 0.643142
0.823621 0.823621 0.823621
0.257264 0.257264 0.257264
0.469376 0.469376 0.469376
0.604259 0.604259 0.604259
0.740961 0.740961 0.740961
0.879911 0.879911 0.879911
0.423030 0.423030 0.423030
0.630675 0.630675 0.630675
0.764287 0.764287 0.764287
0.860265 0.860265 0.860265
0.922663 0.922663 0.922663
0.021452 0.021452 0.021452
0.133288 0.133288 0.133288
0.365979 0.365979 0.365979
0.567534 0.567534 0.567534
0.765620 0.765620 0.765620
0.061650 0.061650 0.061650
0.193241 0.193241 0.193241
0.446414 0.446414 0.446414
0.646257 0.646257 0.646257
0.825658 0.825658 0.825658
0.131149 0.131149 0.131149
0.311026 0.311026 0.311026
0.523032 0.523032 0.523032
0.723757 0.723757 0.723757
0.870752 0.870752 0.870752
0.265936 0.265936 0.265936
0.478474 0.478474 0.478474
0.686414 0.686414 0.686414
0.808602 0.808602 0.808602
0.915492 0.915492 0.915492
0.432430 0.432430 0.432430
0.640026 0.640026 0.640026
0.826669 0.826669 0.826669
0.899593 0.899593 0.899593
0.951564 0.951564 0.951564
0.033599 0.033599 0.033599
0.166329 0.166329 0.166329
0.412004 0.412004 0.412004
0.671072 0.671072 0.671072
0.841029 0.841029 0.841029
0.080955 0.080955 0.080955
0.230723 0.230723 0.230723
0.490522 0.490522 0.490522
0.746568 0.746568 0.746568
0.882862 0.882862 0.882862
0.163942 0.163942 0.163942
0.356460 0.356460 0.356460
0.566020 0.566020 0.566020
0.810830 0.810830 0.810830
0.916708 0.916708 0.916708
0.274743 0.274743 0.274743
0.487518 0.487518 0.487518
0.695525 0.695525 0.695525
0.859434 0.859434 0.859434
0.945361 0.945361 0.945361
0.441770 0.441770 0.441770
0.649370 0.649370 0.649370
0.832551 0.832551 0.832551
0.931825 0.931825 0.931825
0.977096 0.977096 0.977096
0.047327 0.047327 0.047327
0.202006 0.202006 0.202006
0.457179 0.457179 0.457179
0.714957 0.714957 0.714957
0.894191 0.894191 0.894191
0.105186 0.105186 0.105186
0.271790 0.271790 0.271790
0.533230 0.533230 0.533230
0.784919 0.784919 0.784919
0.926152 0.926152 0.926152
0.199496 0.199496 0.199496
0.402511 0.402511 0.402511
0.610454 0.610454 0.610454
0.840101 0.840101 0.840101
0.953594 0.953594 0.953594
0.318762 0.318762 0.318762
0.530306 0.530306 0.530306
0.738132 0.738132 0.738132
0.882126 0.882126 0.882126
0.978008 0.978008 0.978008
0.451041 0.451041 0.451041
0.658694 0.658694 0.658694
0.838245 0.838245 0.838245
0.935157 0.935157 0.935157
1.000000 1.000000 1.000000
