ricette/lut/Reportage-ad-alta-grana-33.cube
# LUT generata da Camera Oscura BN
# Ricetta: Reportage ad alta grana
# Pellicola: reportage
# Nota: grana, vignetta e interventi locali non sono inclusi nella LUT.
TITLE "Reportage ad alta grana"
LUT_3D_SIZE 33
DOMAIN_MIN 0.0 0.0 0.0
DOMAIN_MAX 1.0 1.0 1.0
0.000000 0.000000 0.000000
0.005806 0.005806 0.005806
0.011832 0.011832 0.011832
0.018107 0.018107 0.018107
0.024681 0.024681 0.024681
0.031626 0.031626 0.031626
0.039048 0.039048 0.039048
0.047072 0.047072 0.047072
0.055865 0.055865 0.055865
0.065625 0.065625 0.065625
0.076597 0.076597 0.076597
0.089120 0.089120 0.089120
0.103359 0.103359 0.103359
0.119216 0.119216 0.119216
0.136538 0.136538 0.136538
0.155136 0.155136 0.155136
0.174760 0.174760 0.174760
0.195115 0.195115 0.195115
0.216077 0.216077 0.216077
0.238245 0.238245 0.238245
0.261583 0.261583 0.261583
0.285908 0.285908 0.285908
0.311026 0.311026 0.311026
0.336730 0.336730 0.336730
0.362803 0.362803 0.362803
0.389022 0.389022 0.389022
0.415159 0.415159 0.415159
0.440994 0.440994 0.440994
0.466335 0.466335 0.466335
0.491273 0.491273 0.491273
0.515737 0.515737 0.515737
0.539848 0.539848 0.539848
0.564510 0.564510 0.564510
0.004691 0.004691 0.004691
0.008745 0.008745 0.008745
0.014888 0.014888 0.014888
0.021303 0.021303 0.021303
0.028049 0.028049 0.028049
0.035214 0.035214 0.035214
0.042914 0.042914 0.042914
0.051295 0.051295 0.051295
0.060537 0.060537 0.060537
0.070859 0.070859 0.070859
0.082545 0.082545 0.082545
0.095922 0.095922 0.095922
0.110974 0.110974 0.110974
0.127574 0.127574 0.127574
0.145549 0.145549 0.145549
0.164688 0.164688 0.164688
0.184711 0.184711 0.184711
0.205318 0.205318 0.205318
0.226838 0.226838 0.226838
0.249600 0.249600 0.249600
0.273449 0.273449 0.273449
0.298191 0.298191 0.298191
0.323624 0.323624 0.323624
0.349537 0.349537 0.349537
0.375710 0.375710 0.375710
0.401917 0.401917 0.401917
0.427932 0.427932 0.427932
0.453539 0.453539 0.453539
0.478663 0.478663 0.478663
0.503389 0.503389 0.503389
0.527577 0.527577 0.527577
0.551921 0.551921 0.551921
0.576836 0.576836 0.576836
0.009522 0.009522 0.009522
0.013705 0.013705 0.013705
0.018010 0.018010 0.018010
0.024579 0.024579 0.024579
0.031517 0.031517 0.031517
0.038930 0.038930 0.038930
0.046945 0.046945 0.046945
0.055725 0.055725 0.055725
0.065470 0.065470 0.065470
0.076418 0.076418 0.076418
0.088916 0.088916 0.088916
0.103131 0.103131 0.103131
0.118965 0.118965 0.118965
0.136267 0.136267 0.136267
0.154844 0.154844 0.154844
0.174456 0.174456 0.174456
0.194803 0.194803 0.194803
0.215751 0.215751 0.215751
0.237901 0.237901 0.237901
0.261220 0.261220 0.261220
0.285533 0.285533 0.285533
0.310641 0.310641 0.310641
0.336338 0.336338 0.336338
0.362407 0.362407 0.362407
0.388625 0.388625 0.388625
0.414765 0.414765 0.414765
0.440606 0.440606 0.440606
0.465954 0.465954 0.465954
0.490898 0.490898 0.490898
0.515371 0.515371 0.515371
0.539478 0.539478 0.539478
0.564133 0.564133 0.564133
0.589245 0.589245 0.589245
0.014508 0.014508 0.014508
0.018837 0.018837 0.018837
0.023307 0.023307 0.023307
0.027944 0.027944 0.027944
0.035101 0.035101 0.035101
0.042792 0.042792 0.042792
0.051162 0.051162 0.051162
0.060390 0.060390 0.060390
0.070695 0.070695 0.070695
0.082353 0.082353 0.082353
0.095705 0.095705 0.095705
0.110734 0.110734 0.110734
0.127313 0.127313 0.127313
0.145270 0.145270 0.145270
0.164390 0.164390 0.164390
0.184402 0.184402 0.184402
0.205002 0.205002 0.205002
0.226504 0.226504 0.226504
0.249247 0.249247 0.249247
0.273080 0.273080 0.273080
0.297810 0.297810 0.297810
0.323234 0.323234 0.323234
0.349142 0.349142 0.349142
0.375313 0.375313 0.375313
0.401521 0.401521 0.401521
0.427541 0.427541 0.427541
0.453154 0.453154 0.453154
0.478285 0.478285 0.478285
0.503018 0.503018 0.503018
0.527213 0.527213 0.527213
0.551547 0.551547 0.551547
0.576455 0.576455 0.576455
0.601747 0.601747 0.601747
0.019671 0.019671 0.019671
0.024172 0.024172 0.024172
0.028842 0.028842 0.028842
0.033710 0.033710 0.033710
0.038813 0.038813 0.038813
0.046818 0.046818 0.046818
0.055586 0.055586 0.055586
0.065315 0.065315 0.065315
0.076244 0.076244 0.076244
0.088711 0.088711 0.088711
0.102903 0.102903 0.102903
0.118714 0.118714 0.118714
0.135996 0.135996 0.135996
0.154553 0.154553 0.154553
0.174151 0.174151 0.174151
0.194490 0.194490 0.194490
0.215426 0.215426 0.215426
0.237558 0.237558 0.237558
0.260857 0.260857 0.260857
0.285158 0.285158 0.285158
0.310255 0.310255 0.310255
0.335945 0.335945 0.335945
0.362010 0.362010 0.362010
0.388228 0.388228 0.388228
0.414371 0.414371 0.414371
0.440217 0.440217 0.440217
0.465573 0.465573 0.465573
0.490522 0.490522 0.490522
0.515005 0.515005 0.515005
0.539109 0.539109 0.539109
0.563755 0.563755 0.563755
0.588862 0.588862 0.588862
0.614333 0.614333 0.614333
0.025038 0.025038 0.025038
0.029743 0.029743 0.029743
0.034655 0.034655 0.034655
0.039809 0.039809 0.039809
0.045250 0.045250 0.045250
0.051029 0.051029 0.051029
0.060243 0.060243 0.060243
0.070531 0.070531 0.070531
0.082161 0.082161 0.082161
0.095489 0.095489 0.095489
0.110494 0.110494 0.110494
0.127052 0.127052 0.127052
0.144990 0.144990 0.144990
0.164091 0.164091 0.164091
0.184094 0.184094 0.184094
0.204686 0.204686 0.204686
0.226169 0.226169 0.226169
0.248896 0.248896 0.248896
0.272711 0.272711 0.272711
0.297429 0.297429 0.297429
0.322845 0.322845 0.322845
0.348747 0.348747 0.348747
0.374915 0.374915 0.374915
0.401125 0.401125 0.401125
0.427149 0.427149 0.427149
0.452770 0.452770 0.452770
0.477906 0.477906 0.477906
0.502647 0.502647 0.502647
0.526849 0.526849 0.526849
0.551173 0.551173 0.551173
0.576075 0.576075 0.576075
0.601361 0.601361 0.601361
0.626974 0.626974 0.626974
0.030656 0.030656 0.030656
0.035609 0.035609 0.035609
0.040812 0.040812 0.040812
0.046310 0.046310 0.046310
0.052159 0.052159 0.052159
0.058420 0.058420 0.058420
0.065160 0.065160 0.065160
0.076070 0.076070 0.076070
0.088507 0.088507 0.088507
0.102674 0.102674 0.102674
0.118463 0.118463 0.118463
0.135726 0.135726 0.135726
0.154266 0.154266 0.154266
0.173847 0.173847 0.173847
0.194178 0.194178 0.194178
0.215101 0.215101 0.215101
0.237215 0.237215 0.237215
0.260497 0.260497 0.260497
0.284782 0.284782 0.284782
0.309870 0.309870 0.309870
0.335553 0.335553 0.335553
0.361614 0.361614 0.361614
0.387831 0.387831 0.387831
0.413977 0.413977 0.413977
0.439829 0.439829 0.439829
0.465192 0.465192 0.465192
0.490147 0.490147 0.490147
0.514640 0.514640 0.514640
0.538740 0.538740 0.538740
0.563378 0.563378 0.563378
0.588480 0.588480 0.588480
0.613945 0.613945 0.613945
0.639636 0.639636 0.639636
0.036570 0.036570 0.036570
0.041827 0.041827 0.041827
0.047390 0.047390 0.047390
0.053312 0.053312 0.053312
0.059656 0.059656 0.059656
0.066492 0.066492 0.066492
0.073898 0.073898 0.073898
0.081974 0.081974 0.081974
0.095272 0.095272 0.095272
0.110254 0.110254 0.110254
0.126791 0.126791 0.126791
0.144710 0.144710 0.144710
0.163793 0.163793 0.163793
0.183785 0.183785 0.183785
0.204371 0.204371 0.204371
0.225835 0.225835 0.225835
0.248544 0.248544 0.248544
0.272341 0.272341 0.272341
0.297048 0.297048 0.297048
0.322456 0.322456 0.322456
0.348352 0.348352 0.348352
0.374518 0.374518 0.374518
0.400729 0.400729 0.400729
0.426757 0.426757 0.426757
0.452386 0.452386 0.452386
0.477528 0.477528 0.477528
0.502275 0.502275 0.502275
0.526485 0.526485 0.526485
0.550800 0.550800 0.550800
0.575695 0.575695 0.575695
0.600975 0.600975 0.600975
0.626585 0.626585 0.626585
0.652287 0.652287 0.652287
0.042853 0.042853 0.042853
0.048477 0.048477 0.048477
0.054470 0.054470 0.054470
0.060904 0.060904 0.060904
0.067845 0.067845 0.067845
0.075375 0.075375 0.075375
0.083599 0.083599 0.083599
0.092627 0.092627 0.092627
0.102446 0.102446 0.102446
0.118213 0.118213 0.118213
0.135455 0.135455 0.135455
0.153978 0.153978 0.153978
0.173543 0.173543 0.173543
0.193866 0.193866 0.193866
0.214776 0.214776 0.214776
0.236871 0.236871 0.236871
0.260138 0.260138 0.260138
0.284407 0.284407 0.284407
0.309485 0.309485 0.309485
0.335160 0.335160 0.335160
0.361217 0.361217 0.361217
0.387433 0.387433 0.387433
0.413583 0.413583 0.413583
0.439441 0.439441 0.439441
0.464811 0.464811 0.464811
0.489771 0.489771 0.489771
0.514273 0.514273 0.514273
0.538371 0.538371 0.538371
0.563000 0.563000 0.563000
0.588097 0.588097 0.588097
0.613558 0.613558 0.613558
0.639247 0.639247 0.639247
0.664892 0.664892 0.664892
0.049581 0.049581 0.049581
0.055656 0.055656 0.055656
0.062178 0.062178 0.062178
0.069221 0.069221 0.069221
0.076866 0.076866 0.076866
0.085232 0.085232 0.085232
0.094415 0.094415 0.094415
0.104387 0.104387 0.104387
0.115108 0.115108 0.115108
0.126530 0.126530 0.126530
0.144430 0.144430 0.144430
0.163498 0.163498 0.163498
0.183476 0.183476 0.183476
0.204055 0.204055 0.204055
0.225500 0.225500 0.225500
0.248193 0.248193 0.248193
0.271973 0.271973 0.271973
0.296667 0.296667 0.296667
0.322066 0.322066 0.322066
0.347957 0.347957 0.347957
0.374121 0.374121 0.374121
0.400333 0.400333 0.400333
0.426366 0.426366 0.426366
0.452002 0.452002 0.452002
0.477149 0.477149 0.477149
0.501903 0.501903 0.501903
0.526121 0.526121 0.526121
0.550426 0.550426 0.550426
0.575314 0.575314 0.575314
0.600590 0.600590 0.600590
0.626196 0.626196 0.626196
0.651898 0.651898 0.651898
0.677421 0.677421 0.677421
0.056847 0.056847 0.056847
0.063459 0.063459 0.063459
0.070613 0.070613 0.070613
0.078389 0.078389 0.078389
0.086914 0.086914 0.086914
0.096246 0.096246 0.096246
0.106357 0.106357 0.106357
0.117209 0.117209 0.117209
0.128754 0.128754 0.128754
0.140938 0.140938 0.140938
0.153690 0.153690 0.153690
0.173239 0.173239 0.173239
0.193553 0.193553 0.193553
0.214451 0.214451 0.214451
0.236528 0.236528 0.236528
0.259778 0.259778 0.259778
0.284031 0.284031 0.284031
0.309099 0.309099 0.309099
0.334768 0.334768 0.334768
0.360821 0.360821 0.360821
0.387036 0.387036 0.387036
0.413188 0.413188 0.413188
0.439053 0.439053 0.439053
0.464430 0.464430 0.464430
0.489396 0.489396 0.489396
0.513905 0.513905 0.513905
0.538002 0.538002 0.538002
0.562623 0.562623 0.562623
0.587714 0.587714 0.587714
0.613170 0.613170 0.613170
0.638857 0.638857 0.638857
0.664506 0.664506 0.664506
0.689839 0.689839 0.689839
0.064773 0.064773 0.064773
0.072035 0.072035 0.072035
0.079936 0.079936 0.079936
0.088609 0.088609 0.088609
0.098086 0.098086 0.098086
0.108348 0.108348 0.108348
0.119341 0.119341 0.119341
0.131016 0.131016 0.131016
0.143311 0.143311 0.143311
0.156157 0.156157 0.156157
0.169472 0.169472 0.169472
0.183167 0.183167 0.183167
0.203740 0.203740 0.203740
0.225166 0.225166 0.225166
0.247841 0.247841 0.247841
0.271607 0.271607 0.271607
0.296287 0.296287 0.296287
0.321677 0.321677 0.321677
0.347563 0.347563 0.347563
0.373723 0.373723 0.373723
0.399936 0.399936 0.399936
0.425974 0.425974 0.425974
0.451618 0.451618 0.451618
0.476771 0.476771 0.476771
0.501531 0.501531 0.501531
0.525758 0.525758 0.525758
0.550052 0.550052 0.550052
0.574934 0.574934 0.574934
0.600204 0.600204 0.600204
0.625806 0.625806 0.625806
0.651510 0.651510 0.651510
0.677037 0.677037 0.677037
0.702116 0.702116 0.702116
0.073469 0.073469 0.073469
0.081511 0.081511 0.081511
0.090345 0.090345 0.090345
0.099977 0.099977 0.099977
0.110374 0.110374 0.110374
0.121495 0.121495 0.121495
0.133288 0.133288 0.133288
0.145690 0.145690 0.145690
0.158635 0.158635 0.158635
0.172034 0.172034 0.172034
0.185792 0.185792 0.185792
0.199810 0.199810 0.199810
0.214125 0.214125 0.214125
0.236185 0.236185 0.236185
0.259419 0.259419 0.259419
0.283657 0.283657 0.283657
0.308714 0.308714 0.308714
0.334375 0.334375 0.334375
0.360424 0.360424 0.360424
0.386639 0.386639 0.386639
0.412794 0.412794 0.412794
0.438664 0.438664 0.438664
0.464049 0.464049 0.464049
0.489020 0.489020 0.489020
0.513537 0.513537 0.513537
0.537632 0.537632 0.537632
0.562245 0.562245 0.562245
0.587332 0.587332 0.587332
0.612782 0.612782 0.612782
0.638468 0.638468 0.638468
0.664119 0.664119 0.664119
0.689460 0.689460 0.689460
0.714218 0.714218 0.714218
0.083120 0.083120 0.083120
0.092101 0.092101 0.092101
0.101875 0.101875 0.101875
0.112413 0.112413 0.112413
0.123672 0.123672 0.123672
0.135590 0.135590 0.135590
0.148103 0.148103 0.148103
0.161137 0.161137 0.161137
0.174608 0.174608 0.174608
0.188421 0.188421 0.188421
0.202477 0.202477 0.202477
0.216890 0.216890 0.216890
0.231910 0.231910 0.231910
0.247490 0.247490 0.247490
0.271241 0.271241 0.271241
0.295906 0.295906 0.295906
0.321288 0.321288 0.321288
0.347168 0.347168 0.347168
0.373326 0.373326 0.373326
0.399539 0.399539 0.399539
0.425583 0.425583 0.425583
0.451233 0.451233 0.451233
0.476392 0.476392 0.476392
0.501159 0.501159 0.501159
0.525394 0.525394 0.525394
0.549678 0.549678 0.549678
0.574553 0.574553 0.574553
0.599818 0.599818 0.599818
0.625417 0.625417 0.625417
0.651121 0.651121 0.651121
0.676654 0.676654 0.676654
0.701741 0.701741 0.701741
0.726115 0.726115 0.726115
0.093889 0.093889 0.093889
0.103816 0.103816 0.103816
0.114494 0.114494 0.114494
0.125877 0.125877 0.125877
0.137908 0.137908 0.137908
0.150523 0.150523 0.150523
0.163646 0.163646 0.163646
0.177193 0.177193 0.177193
0.191062 0.191062 0.191062
0.205160 0.205160 0.205160
0.219686 0.219686 0.219686
0.234812 0.234812 0.234812
0.250488 0.250488 0.250488
0.266664 0.266664 0.266664
0.283284 0.283284 0.283284
0.308328 0.308328 0.308328
0.333983 0.333983 0.333983
0.360028 0.360028 0.360028
0.386241 0.386241 0.386241
0.412399 0.412399 0.412399
0.438276 0.438276 0.438276
0.463668 0.463668 0.463668
0.488644 0.488644 0.488644
0.513169 0.513169 0.513169
0.537264 0.537264 0.537264
0.561868 0.561868 0.561868
0.586949 0.586949 0.586949
0.612394 0.612394 0.612394
0.638078 0.638078 0.638078
0.663733 0.663733 0.663733
0.689080 0.689080 0.689080
0.713849 0.713849 0.713849
0.737776 0.737776 0.737776
0.105772 0.105772 0.105772
0.116582 0.116582 0.116582
0.128097 0.128097 0.128097
0.140249 0.140249 0.140249
0.152970 0.152970 0.152970
0.166180 0.166180 0.166180
0.179792 0.179792 0.179792
0.193709 0.193709 0.193709
0.207851 0.207851 0.207851
0.222491 0.222491 0.222491
0.237730 0.237730 0.237730
0.253510 0.253510 0.253510
0.269776 0.269776 0.269776
0.286472 0.286472 0.286472
0.303534 0.303534 0.303534
0.320898 0.320898 0.320898
0.346773 0.346773 0.346773
0.372929 0.372929 0.372929
0.399143 0.399143 0.399143
0.425191 0.425191 0.425191
0.450849 0.450849 0.450849
0.476014 0.476014 0.476014
0.500787 0.500787 0.500787
0.525031 0.525031 0.525031
0.549305 0.549305 0.549305
0.574173 0.574173 0.574173
0.599432 0.599432 0.599432
0.625028 0.625028 0.625028
0.650732 0.650732 0.650732
0.676270 0.676270 0.676270
0.701366 0.701366 0.701366
0.725752 0.725752 0.725752
0.749171 0.749171 0.749171
0.118714 0.118714 0.118714
0.130351 0.130351 0.130351
0.142612 0.142612 0.142612
0.155427 0.155427 0.155427
0.168718 0.168718 0.168718
0.182398 0.182398 0.182398
0.196364 0.196364 0.196364
0.210574 0.210574 0.210574
0.225333 0.225333 0.225333
0.240673 0.240673 0.240673
0.256546 0.256546 0.256546
0.272895 0.272895 0.272895
0.289663 0.289663 0.289663
0.306791 0.306791 0.306791
0.324208 0.324208 0.324208
0.341844 0.341844 0.341844
0.359631 0.359631 0.359631
0.385844 0.385844 0.385844
0.412004 0.412004 0.412004
0.437888 0.437888 0.437888
0.463287 0.463287 0.463287
0.488269 0.488269 0.488269
0.512801 0.512801 0.512801
0.536897 0.536897 0.536897
0.561490 0.561490 0.561490
0.586566 0.586566 0.586566
0.612006 0.612006 0.612006
0.637688 0.637688 0.637688
0.663346 0.663346 0.663346
0.688700 0.688700 0.688700
0.713479 0.713479 0.713479
0.737421 0.737421 0.737421
0.760272 0.760272 0.760272
0.132612 0.132612 0.132612
0.144990 0.144990 0.144990
0.157906 0.157906 0.157906
0.171280 0.171280 0.171280
0.185020 0.185020 0.185020
0.199026 0.199026 0.199026
0.213312 0.213312 0.213312
0.228181 0.228181 0.228181
0.243627 0.243627 0.243627
0.259599 0.259599 0.259599
0.276036 0.276036 0.276036
0.292878 0.292878 0.292878
0.310063 0.310063 0.310063
0.327524 0.327524 0.327524
0.345193 0.345193 0.345193
0.363001 0.363001 0.363001
0.380877 0.380877 0.380877
0.398746 0.398746 0.398746
0.424799 0.424799 0.424799
0.450465 0.450465 0.450465
0.475635 0.475635 0.475635
0.500415 0.500415 0.500415
0.524667 0.524667 0.524667
0.548931 0.548931 0.548931
0.573792 0.573792 0.573792
0.599047 0.599047 0.599047
0.624639 0.624639 0.624639
0.650342 0.650342 0.650342
0.675886 0.675886 0.675886
0.700991 0.700991 0.700991
0.725389 0.725389 0.725389
0.748824 0.748824 0.748824
0.771051 0.771051 0.771051
0.147394 0.147394 0.147394
0.160399 0.160399 0.160399
0.173847 0.173847 0.173847
0.187645 0.187645 0.187645
0.201692 0.201692 0.201692
0.216077 0.216077 0.216077
0.231062 0.231062 0.231062
0.246611 0.246611 0.246611
0.262671 0.262671 0.262671
0.279186 0.279186 0.279186
0.296096 0.296096 0.296096
0.313339 0.313339 0.313339
0.330847 0.330847 0.330847
0.348550 0.348550 0.348550
0.366376 0.366376 0.366376
0.384254 0.384254 0.384254
0.402115 0.402115 0.402115
0.419886 0.419886 0.419886
0.437500 0.437500 0.437500
0.462906 0.462906 0.462906
0.487893 0.487893 0.487893
0.512433 0.512433 0.512433
0.536530 0.536530 0.536530
0.561113 0.561113 0.561113
0.586184 0.586184 0.586184
0.611618 0.611618 0.611618
0.637299 0.637299 0.637299
0.662958 0.662958 0.662958
0.688320 0.688320 0.688320
0.713110 0.713110 0.713110
0.737065 0.737065 0.737065
0.759934 0.759934 0.759934
0.781481 0.781481 0.781481
0.162908 0.162908 0.162908
0.176432 0.176432 0.176432
0.190286 0.190286 0.190286
0.204371 0.204371 0.204371
0.218862 0.218862 0.218862
0.233953 0.233953 0.233953
0.249600 0.249600 0.249600
0.265754 0.265754 0.265754
0.282353 0.282353 0.282353
0.299333 0.299333 0.299333
0.316631 0.316631 0.316631
0.334179 0.334179 0.334179
0.351909 0.351909 0.351909
0.369750 0.369750 0.369750
0.387632 0.387632 0.387632
0.405481 0.405481 0.405481
0.423227 0.423227 0.423227
0.440800 0.440800 0.440800
0.458135 0.458135 0.458135
0.475257 0.475257 0.475257
0.500043 0.500043 0.500043
0.524304 0.524304 0.524304
0.548559 0.548559 0.548559
0.573412 0.573412 0.573412
0.598661 0.598661 0.598661
0.624249 0.624249 0.624249
0.649953 0.649953 0.649953
0.675502 0.675502 0.675502
0.700616 0.700616 0.700616
0.725027 0.725027 0.725027
0.748477 0.748477 0.748477
0.770723 0.770723 0.770723
0.791536 0.791536 0.791536
0.179026 0.179026 0.179026
0.192929 0.192929 0.192929
0.207054 0.207054 0.207054
0.221666 0.221666 0.221666
0.236871 0.236871 0.236871
0.252621 0.252621 0.252621
0.268861 0.268861 0.268861
0.285533 0.285533 0.285533
0.302576 0.302576 0.302576
0.319925 0.319925 0.319925
0.337515 0.337515 0.337515
0.355273 0.355273 0.355273
0.373127 0.373127 0.373127
0.391008 0.391008 0.391008
0.408842 0.408842 0.408842
0.426562 0.426562 0.426562
0.444096 0.444096 0.444096
0.461382 0.461382 0.461382
0.478474 0.478474 0.478474
0.495385 0.495385 0.495385
0.512065 0.512065 0.512065
0.536164 0.536164 0.536164
0.560735 0.560735 0.560735
0.585801 0.585801 0.585801
0.611230 0.611230 0.611230
0.636909 0.636909 0.636909
0.662570 0.662570 0.662570
0.687940 0.687940 0.687940
0.712740 0.712740 0.712740
0.736710 0.736710 0.736710
0.759596 0.759596 0.759596
0.781163 0.781163 0.781163
0.801187 0.801187 0.801187
0.195583 0.195583 0.195583
0.209773 0.209773 0.209773
0.224497 0.224497 0.224497
0.239805 0.239805 0.239805
0.255648 0.255648 0.255648
0.271973 0.271973 0.271973
0.288725 0.288725 0.288725
0.305833 0.305833 0.305833
0.323234 0.323234 0.323234
0.340860 0.340860 0.340860
0.358640 0.358640 0.358640
0.376505 0.376505 0.376505
0.394383 0.394383 0.394383
0.412202 0.412202 0.412202
0.429890 0.429890 0.429890
0.447380 0.447380 0.447380
0.464620 0.464620 0.464620
0.481682 0.481682 0.481682
0.498555 0.498555 0.498555
0.515188 0.515188 0.515188
0.531580 0.531580 0.531580
0.548188 0.548188 0.548188
0.573032 0.573032 0.573032
0.598275 0.598275 0.598275
0.623860 0.623860 0.623860
0.649564 0.649564 0.649564
0.675117 0.675117 0.675117
0.700240 0.700240 0.700240
0.724664 0.724664 0.724664
0.748130 0.748130 0.748130
0.770394 0.770394 0.770394
0.791230 0.791230 0.791230
0.810418 0.810418 0.810418
0.212499 0.212499 0.212499
0.227340 0.227340 0.227340
0.242758 0.242758 0.242758
0.258701 0.258701 0.258701
0.275112 0.275112 0.275112
0.291932 0.291932 0.291932
0.309099 0.309099 0.309099
0.326546 0.326546 0.326546
0.344207 0.344207 0.344207
0.362010 0.362010 0.362010
0.379883 0.379883 0.379883
0.397754 0.397754 0.397754
0.415553 0.415553 0.415553
0.433210 0.433210 0.433210
0.450657 0.450657 0.450657
0.467857 0.467857 0.467857
0.484888 0.484888 0.484888
0.501717 0.501717 0.501717
0.518297 0.518297 0.518297
0.534697 0.534697 0.534697
0.551360 0.551360 0.551360
0.568292 0.568292 0.568292
0.585418 0.585418 0.585418
0.610842 0.610842 0.610842
0.636519 0.636519 0.636519
0.662183 0.662183 0.662183
0.687560 0.687560 0.687560
0.712371 0.712371 0.712371
0.736354 0.736354 0.736354
0.759258 0.759258 0.759258
0.780845 0.780845 0.780845
0.800899 0.800899 0.800899
0.819207 0.819207 0.819207
0.230215 0.230215 0.230215
0.245732 0.245732 0.245732
0.261764 0.261764 0.261764
0.278255 0.278255 0.278255
0.295147 0.295147 0.295147
0.312375 0.312375 0.312375
0.329870 0.329870 0.329870
0.347563 0.347563 0.347563
0.365383 0.365383 0.365383
0.383261 0.383261 0.383261
0.401125 0.401125 0.401125
0.418904 0.418904 0.418904
0.436525 0.436525 0.436525
0.453923 0.453923 0.453923
0.471085 0.471085 0.471085
0.488081 0.488081 0.488081
0.504869 0.504869 0.504869
0.521397 0.521397 0.521397
0.537817 0.537817 0.537817
0.554537 0.554537 0.554537
0.571514 0.571514 0.571514
0.588671 0.588671 0.588671
0.606000 0.606000 0.606000
0.623471 0.623471 0.623471
0.649175 0.649175 0.649175
0.674731 0.674731 0.674731
0.699865 0.699865 0.699865
0.724301 0.724301 0.724301
0.747783 0.747783 0.747783
0.770066 0.770066 0.770066
0.790924 0.790924 0.790924
0.810143 0.810143 0.810143
0.827536 0.827536 0.827536
0.248720 0.248720 0.248720
0.264848 0.264848 0.264848
0.281421 0.281421 0.281421
0.298381 0.298381 0.298381
0.315662 0.315662 0.315662
0.333198 0.333198 0.333198
0.350920 0.350920 0.350920
0.368758 0.368758 0.368758
0.386639 0.386639 0.386639
0.404491 0.404491 0.404491
0.422244 0.422244 0.422244
0.439829 0.439829 0.439829
0.457179 0.457179 0.457179
0.474310 0.474310 0.474310
0.491273 0.491273 0.491273
0.508014 0.508014 0.508014
0.524486 0.524486 0.524486
0.540955 0.540955 0.540955
0.557729 0.557729 0.557729
0.574744 0.574744 0.574744
0.591929 0.591929 0.591929
0.609290 0.609290 0.609290
0.626779 0.626779 0.626779
0.644310 0.644310 0.644310
0.661795 0.661795 0.661795
0.687178 0.687178 0.687178
0.712002 0.712002 0.712002
0.735999 0.735999 0.735999
0.758920 0.758920 0.758920
0.780528 0.780528 0.780528
0.800606 0.800606 0.800606
0.818945 0.818945 0.818945
0.835417 0.835417 0.835417
0.267945 0.267945 0.267945
0.284594 0.284594 0.284594
0.301618 0.301618 0.301618
0.318955 0.318955 0.318955
0.336534 0.336534 0.336534
0.354283 0.354283 0.354283
0.372134 0.372134 0.372134
0.390015 0.390015 0.390015
0.407854 0.407854 0.407854
0.425583 0.425583 0.425583
0.443129 0.443129 0.443129
0.460427 0.460427 0.460427
0.477528 0.477528 0.477528
0.494450 0.494450 0.494450
0.511145 0.511145 0.511145
0.527577 0.527577 0.527577
0.544100 0.544100 0.544100
0.560924 0.560924 0.560924
0.577977 0.577977 0.577977
0.595195 0.595195 0.595195
0.612588 0.612588 0.612588
0.630091 0.630091 0.630091
0.647619 0.647619 0.647619
0.665086 0.665086 0.665086
0.682405 0.682405 0.682405
0.699490 0.699490 0.699490
0.723938 0.723938 0.723938
0.747436 0.747436 0.747436
0.769738 0.769738 0.769738
0.790618 0.790618 0.790618
0.809867 0.809867 0.809867
0.827288 0.827288 0.827288
0.842971 0.842971 0.842971
0.287786 0.287786 0.287786
0.304875 0.304875 0.304875
0.322261 0.322261 0.322261
0.339875 0.339875 0.339875
0.357649 0.357649 0.357649
0.375511 0.375511 0.375511
0.393390 0.393390 0.393390
0.411214 0.411214 0.411214
0.428911 0.428911 0.428911
0.446414 0.446414 0.446414
0.463668 0.463668 0.463668
0.480740 0.480740 0.480740
0.497625 0.497625 0.497625
0.514273 0.514273 0.514273
0.530670 0.530670 0.530670
0.547259 0.547259 0.547259
0.564133 0.564133 0.564133
0.581219 0.581219 0.581219
0.598468 0.598468 0.598468
0.615887 0.615887 0.615887
0.633402 0.633402 0.633402
