ricette/lut/Ritratto-in-luce-di-finestra-33.cube
# LUT generata da Camera Oscura BN
# Ricetta: Ritratto in luce di finestra
# Pellicola: ritratto
# Nota: grana, vignetta e interventi locali non sono inclusi nella LUT.
TITLE "Ritratto in luce di finestra"
LUT_3D_SIZE 33
DOMAIN_MIN 0.0 0.0 0.0
DOMAIN_MAX 1.0 1.0 1.0
0.045413 0.039993 0.030015
0.056148 0.050614 0.040409
0.066932 0.061284 0.050851
0.077771 0.072008 0.061345
0.088669 0.082791 0.071896
0.099631 0.093636 0.082509
0.110662 0.104550 0.093189
0.121768 0.115539 0.103943
0.132955 0.126607 0.114774
0.144228 0.137761 0.125688
0.155594 0.149006 0.136693
0.167059 0.160349 0.147793
0.178631 0.171799 0.158998
0.190317 0.183361 0.170312
0.202122 0.195041 0.181742
0.214055 0.206847 0.193294
0.226119 0.218783 0.204975
0.238300 0.230836 0.216769
0.250588 0.242993 0.228666
0.262973 0.255247 0.240658
0.275450 0.267592 0.252737
0.288010 0.280019 0.264898
0.300647 0.292521 0.277133
0.313353 0.305093 0.289435
0.326120 0.317725 0.301796
0.338941 0.330409 0.314209
0.351807 0.343139 0.326666
0.364710 0.355906 0.339159
0.377643 0.368701 0.351681
0.390597 0.381518 0.364223
0.403565 0.394348 0.376778
0.416537 0.407183 0.389338
0.429507 0.420015 0.401895
0.065876 0.060239 0.049827
0.067312 0.061660 0.051218
0.078153 0.072386 0.061714
0.089053 0.083170 0.072267
0.100016 0.094017 0.082882
0.111050 0.104935 0.093566
0.122159 0.115926 0.104321
0.133349 0.126997 0.115155
0.144625 0.138153 0.126073
0.155994 0.149402 0.137080
0.167463 0.160750 0.148185
0.179040 0.172203 0.159393
0.190729 0.183769 0.170711
0.202539 0.195453 0.182145
0.214475 0.207263 0.193702
0.226544 0.219204 0.205387
0.238730 0.231261 0.217185
0.251021 0.243422 0.229085
0.263410 0.255679 0.241080
0.275889 0.268026 0.253163
0.288452 0.280456 0.265326
0.301092 0.292961 0.277564
0.313800 0.305535 0.289868
0.326569 0.318169 0.302231
0.339392 0.330855 0.314646
0.352259 0.343586 0.327104
0.365163 0.356354 0.339598
0.378097 0.369151 0.352121
0.391052 0.381968 0.364664
0.404020 0.394799 0.377219
0.416992 0.407634 0.389779
0.429962 0.420465 0.402336
0.442919 0.433286 0.414881
0.086534 0.080678 0.069828
0.087985 0.082113 0.071233
0.089436 0.083549 0.072638
0.100403 0.094400 0.083256
0.111439 0.105319 0.093942
0.122551 0.116313 0.104700
0.133743 0.127387 0.115537
0.145022 0.138546 0.126457
0.156394 0.149798 0.137468
0.167868 0.161150 0.148577
0.179448 0.172607 0.159788
0.191142 0.184177 0.171110
0.202955 0.195865 0.182548
0.214896 0.207679 0.194109
0.226970 0.219626 0.205799
0.239160 0.231686 0.217601
0.251454 0.243850 0.229505
0.263846 0.256111 0.241502
0.276328 0.268461 0.253588
0.288894 0.280893 0.265754
0.301537 0.293402 0.277995
0.314247 0.305978 0.290301
0.327018 0.318613 0.302666
0.339842 0.331301 0.315082
0.352711 0.344034 0.327542
0.365617 0.356803 0.340037
0.378552 0.369600 0.352560
0.391507 0.382418 0.365104
0.404475 0.395249 0.377660
0.417448 0.408084 0.390220
0.430417 0.420915 0.402776
0.443373 0.433735 0.415321
0.456310 0.446535 0.427846
0.107420 0.101342 0.090050
0.108888 0.102795 0.091472
0.110356 0.104248 0.092894
0.111828 0.105704 0.094318
0.122942 0.116700 0.105079
0.134137 0.127776 0.115918
0.145419 0.138939 0.126842
0.156796 0.150195 0.137856
0.168273 0.161551 0.148969
0.179857 0.173011 0.160184
0.191554 0.184585 0.171509
0.203371 0.196277 0.182951
0.215317 0.208096 0.194517
0.227396 0.220047 0.206212
0.239590 0.232111 0.218018
0.251887 0.244279 0.229924
0.264282 0.256542 0.241925
0.276768 0.268895 0.254013
0.289337 0.281331 0.266182
0.301982 0.293842 0.278425
0.314695 0.306420 0.290734
0.327468 0.319058 0.303101
0.340293 0.331747 0.315518
0.353163 0.344481 0.327979
0.366070 0.357251 0.340476
0.379006 0.370050 0.353000
0.391962 0.382868 0.365544
0.404930 0.395699 0.378100
0.417903 0.408534 0.390660
0.430871 0.421366 0.403217
0.443828 0.434184 0.415761
0.456764 0.446983 0.428285
0.469671 0.459754 0.440783
0.128571 0.122269 0.110529
0.130059 0.123742 0.111970
0.131547 0.125214 0.113411
0.133039 0.126690 0.114855
0.134531 0.128166 0.116300
0.145817 0.139332 0.127226
0.157197 0.150592 0.138245
0.168678 0.161951 0.149360
0.180265 0.173416 0.160579
0.191966 0.184993 0.171908
0.203788 0.196689 0.183354
0.215739 0.208514 0.194926
0.227823 0.220469 0.206625
0.240020 0.232537 0.218434
0.252321 0.244707 0.230343
0.264719 0.256974 0.242347
0.277207 0.269330 0.254439
0.289779 0.281769 0.266611
0.302427 0.294282 0.278856
0.315142 0.306863 0.291167
0.327917 0.319502 0.303536
0.340744 0.332193 0.315955
0.353616 0.344929 0.328417
0.366524 0.357700 0.340915
0.379460 0.370499 0.353440
0.392417 0.383319 0.365985
0.405385 0.396150 0.378541
0.418358 0.408985 0.391101
0.431326 0.421816 0.403657
0.444282 0.434634 0.416201
0.457217 0.447432 0.428724
0.470124 0.460202 0.441221
0.482994 0.472935 0.453681
0.150027 0.143498 0.131303
0.151538 0.144993 0.132766
0.153050 0.146489 0.134230
0.154565 0.147988 0.135696
0.156080 0.149487 0.137163
0.157598 0.150989 0.138633
0.169082 0.162351 0.149752
0.180673 0.173820 0.160975
0.192378 0.185401 0.172307
0.204205 0.197102 0.183758
0.216161 0.208932 0.195334
0.228249 0.220891 0.207037
0.240449 0.232962 0.218850
0.252754 0.245136 0.230763
0.265155 0.257406 0.242770
0.277647 0.269766 0.254865
0.290222 0.282207 0.267040
0.302872 0.294723 0.279287
0.315589 0.307305 0.291600
0.328366 0.319946 0.303970
0.341195 0.332639 0.316391
0.354068 0.345376 0.328855
0.366977 0.358149 0.341354
0.379915 0.370949 0.353880
0.392872 0.383769 0.366425
0.405841 0.396600 0.378982
0.418813 0.409435 0.391542
0.431781 0.422265 0.404097
0.444736 0.435083 0.416640
0.457671 0.447881 0.429163
0.470576 0.460649 0.441659
0.483445 0.473382 0.454118
0.496285 0.486086 0.466550
0.171832 0.165072 0.152414
0.173369 0.166592 0.153902
0.174907 0.168114 0.155392
0.176448 0.169639 0.156884
0.177990 0.171164 0.158376
0.179536 0.172694 0.159873
0.181082 0.174224 0.161370
0.192791 0.185808 0.172707
0.204623 0.197515 0.184163
0.216584 0.209349 0.195743
0.228675 0.221313 0.207450
0.240879 0.233387 0.219266
0.253187 0.245564 0.231182
0.265592 0.257838 0.243193
0.278087 0.270201 0.255291
0.290665 0.282645 0.267468
0.303317 0.295163 0.279718
0.316036 0.307747 0.292033
0.328815 0.320391 0.304405
0.341646 0.333086 0.316828
0.354520 0.345824 0.329294
0.367431 0.358597 0.341793
0.380369 0.371398 0.354320
0.393326 0.384219 0.366866
0.406296 0.397050 0.379422
0.419268 0.409885 0.391982
0.432236 0.422715 0.404538
0.445190 0.435533 0.417080
0.458124 0.448329 0.429602
0.471028 0.461097 0.442097
0.483895 0.473828 0.454554
0.496735 0.486531 0.466986
0.509556 0.499216 0.479399
0.194032 0.187036 0.173908
0.195597 0.188585 0.175424
0.197166 0.190137 0.176942
0.198737 0.191691 0.178464
0.200308 0.193246 0.179985
0.201884 0.194806 0.181511
0.203461 0.196365 0.183037
0.205041 0.197929 0.184567
0.217006 0.209767 0.196152
0.229101 0.221734 0.207863
0.241309 0.233813 0.219682
0.253620 0.245993 0.231602
0.266029 0.258271 0.243616
0.278527 0.270636 0.255717
0.291108 0.283083 0.267897
0.303762 0.295603 0.280149
0.316483 0.308190 0.292466
0.329264 0.320835 0.304840
0.342097 0.333532 0.317265
0.354973 0.346272 0.329732
0.367884 0.359046 0.342232
0.380823 0.371848 0.354760
0.393781 0.384669 0.367306
0.406751 0.397501 0.379863
0.419723 0.410336 0.392423
0.432691 0.423165 0.404978
0.445645 0.435982 0.417520
0.458577 0.448778 0.430042
0.471481 0.461544 0.442534
0.484346 0.474274 0.454991
0.497185 0.486976 0.467421
0.510005 0.499661 0.479834
0.522674 0.512427 0.492754
0.216674 0.209439 0.195831
0.218273 0.211020 0.197378
0.219874 0.212605 0.198929
0.221478 0.214192 0.200482
0.223083 0.215780 0.202036
0.224692 0.217372 0.203594
0.226301 0.218964 0.205151
0.227914 0.220559 0.206713
0.229528 0.222156 0.208275
0.241739 0.234238 0.220098
0.254054 0.246423 0.232022
0.266467 0.258703 0.244040
0.278968 0.271072 0.256143
0.291550 0.283521 0.268326
0.304207 0.296044 0.280580
0.316931 0.308632 0.292899
0.329714 0.321280 0.305276
0.342548 0.333978 0.317702
0.355425 0.346719 0.330170
0.368338 0.359495 0.342672
0.381277 0.372297 0.355200
0.394236 0.385119 0.367746
0.407206 0.397951 0.380304
0.420178 0.410786 0.392864
0.433145 0.423615 0.405418
0.446099 0.436432 0.417960
0.459031 0.449226 0.430481
0.471933 0.461991 0.442972
0.484797 0.474719 0.455427
0.497635 0.487422 0.467857
0.510455 0.500105 0.480269
0.523118 0.512875 0.493208
0.535749 0.525619 0.506132
0.239774 0.232294 0.218196
0.241401 0.233904 0.219771
0.243031 0.235516 0.221350
0.244663 0.237131 0.222929
0.246296 0.238746 0.224510
0.247931 0.240365 0.226094
0.249567 0.241983 0.227678
0.251207 0.243605 0.229265
0.252847 0.245228 0.230853
0.254489 0.246852 0.232443
0.266904 0.259136 0.244463
0.279408 0.271507 0.256569
0.291993 0.283959 0.268754
0.304652 0.296484 0.281011
0.317378 0.309076 0.293333
0.330164 0.321725 0.305711
0.342999 0.334425 0.318139
0.355878 0.347167 0.330608
0.368791 0.359944 0.343111
0.381732 0.372747 0.355640
0.394691 0.385569 0.368187
0.407661 0.398401 0.380744
0.420634 0.411236 0.393304
0.433600 0.424065 0.405859
0.446553 0.436881 0.418400
0.459484 0.449675 0.430919
0.472384 0.462439 0.443409
0.485248 0.475165 0.455864
0.498085 0.487867 0.468293
0.510903 0.500551 0.480710
0.523562 0.513323 0.493662
0.536193 0.526067 0.506586
0.548902 0.538890 0.519591
0.263254 0.255525 0.240929
0.264906 0.257159 0.242528
0.266560 0.258796 0.244130
0.268216 0.260434 0.245733
0.269873 0.262073 0.247338
0.271532 0.263715 0.248944
0.273191 0.265357 0.250550
0.274854 0.267002 0.252160
0.276517 0.268647 0.253770
0.278182 0.270294 0.255382
0.279848 0.271943 0.256995
0.292436 0.284397 0.269183
0.305098 0.296925 0.281442
0.317826 0.309519 0.293766
0.330613 0.322170 0.306146
0.343450 0.334871 0.318576
0.356330 0.347615 0.331046
0.369245 0.360392 0.343550
0.382186 0.373197 0.356080
0.395146 0.386019 0.368627
0.408116 0.398852 0.381185
0.421089 0.411687 0.393745
0.434055 0.424515 0.406299
0.447007 0.437330 0.418839
0.459937 0.450123 0.431358
0.472836 0.462886 0.443847
0.485698 0.475611 0.456300
0.498536 0.488313 0.468729
0.511348 0.501000 0.481165
0.524005 0.513770 0.494116
0.536636 0.526514 0.507040
0.549351 0.539343 0.520050
0.562216 0.552322 0.533213
0.287063 0.279082 0.263981
0.288736 0.280737 0.265601
0.290412 0.282395 0.267223
0.292088 0.284053 0.268846
0.293765 0.285713 0.270470
0.295444 0.287374 0.272096
0.297124 0.289036 0.273722
0.298806 0.290700 0.275351
0.300488 0.292364 0.276979
0.302172 0.294031 0.278610
0.303857 0.295698 0.280241
0.305543 0.297366 0.281874
0.318274 0.309962 0.294200
0.331063 0.322615 0.306582
0.343902 0.335318 0.319012
0.356783 0.348062 0.331484
0.369699 0.360841 0.343989
0.382641 0.373646 0.356520
0.395601 0.386469 0.369068
0.408572 0.399302 0.381626
0.421544 0.412137 0.394186
0.434510 0.424965 0.406739
0.447461 0.437780 0.419279
0.460390 0.450571 0.431797
0.473288 0.463333 0.444285
0.486149 0.476057 0.456736
0.498986 0.488758 0.469165
0.511792 0.501448 0.481620
0.524449 0.514218 0.494570
0.537080 0.526962 0.507494
0.549800 0.539796 0.520510
0.562669 0.552779 0.533677
0.575662 0.565889 0.546972
0.311151 0.302915 0.287304
0.312842 0.304587 0.288940
0.314535 0.306262 0.290579
0.316228 0.307937 0.292218
0.317922 0.309614 0.293859
0.319618 0.311291 0.295501
0.321314 0.312969 0.297143
0.323011 0.314649 0.298786
0.324709 0.316329 0.300430
0.326409 0.318010 0.302076
0.328109 0.319692 0.303722
0.329810 0.321376 0.305369
0.331512 0.323060 0.307017
0.344353 0.335764 0.319449
0.357235 0.348510 0.331922
0.370152 0.361290 0.344428
0.383095 0.374096 0.356960
0.396056 0.386919 0.369508
0.409027 0.399752 0.382067
0.421999 0.412587 0.394626
0.434965 0.425415 0.407180
0.447915 0.438229 0.419718
0.460843 0.451020 0.432235
0.473740 0.463780 0.444722
0.486600 0.476503 0.457173
0.499436 0.489203 0.469601
0.512237 0.501897 0.482074
0.524892 0.514665 0.495024
0.537523 0.527409 0.507948
0.550249 0.540248 0.520969
0.563123 0.553237 0.534142
0.576120 0.566351 0.547441
0.589223 0.579570 0.560847
0.335466 0.326971 0.310845
0.337170 0.328658 0.312495
0.338877 0.330346 0.314147
0.340583 0.332034 0.315799
0.342290 0.333723 0.317452
0.343998 0.335413 0.319106
0.345707 0.337104 0.320760
0.347417 0.338796 0.322416
0.349127 0.340487 0.324071
0.350838 0.342181 0.325728
0.352550 0.343874 0.327385
0.354262 0.345568 0.329043
0.355975 0.347263 0.330702
0.357688 0.348958 0.332361
0.370606 0.361739 0.344868
0.383550 0.374546 0.357400
0.396511 0.387370 0.369949
0.409482 0.400203 0.382507
0.422454 0.413037 0.395067
0.435419 0.425865 0.407620
0.448369 0.438678 0.420158
0.461296 0.451468 0.432674
0.474192 0.464227 0.445160
0.487051 0.476949 0.457609
0.499886 0.489649 0.470036
0.512681 0.502345 0.482529
0.525336 0.515113 0.495477
0.537967 0.527857 0.508402
0.550698 0.540701 0.521428
0.563576 0.553695 0.534606
0.576579 0.566813 0.547910
0.589685 0.580037 0.561320
0.602916 0.593385 0.574858
0.359952 0.351198 0.334553
0.361667 0.352895 0.336213
0.363383 0.354592 0.337874
0.365099 0.356290 0.339535
0.366815 0.357988 0.341197
0.368532 0.359687 0.342860
0.370250 0.361386 0.344523
0.371968 0.363086 0.346186
0.373686 0.364786 0.347849
0.375405 0.366487 0.349514
0.377124 0.368188 0.351178
0.378844 0.369889 0.352843
0.380564 0.371591 0.354508
0.382284 0.373293 0.356174
0.384004 0.374995 0.357840
0.396966 0.387820 0.370389
0.409937 0.400653 0.382948
0.422909 0.413488 0.395507
0.435874 0.426315 0.408060
0.448823 0.439127 0.420598
0.461749 0.451916 0.433113
0.474644 0.464674 0.445597
0.487501 0.477395 0.458046
0.500336 0.490094 0.470472
0.513126 0.502793 0.482984
0.525779 0.515560 0.495931
0.538411 0.528304 0.508856
0.551147 0.541154 0.521888
0.564031 0.554153 0.535071
0.577037 0.567276 0.548379
0.590147 0.580503 0.561793
0.603382 0.593856 0.575335
0.616722 0.607315 0.588985
0.384556 0.375541 0.358374
0.386277 0.377244 0.360041
0.387999 0.378947 0.361707
0.389720 0.380650 0.363374
0.391442 0.382354 0.365041
0.393164 0.384058 0.366708
0.394886 0.385762 0.368376
0.396609 0.387466 0.370043
0.398331 0.389170 0.371711
0.400054 0.390875 0.373379
0.401777 0.392579 0.375047
0.403500 0.394284 0.376715
0.405223 0.395989 0.378384
0.406946 0.397694 0.380052
0.408669 0.399399 0.381720
0.410392 0.401104 0.383389
0.423364 0.413938 0.395948
0.436329 0.426765 0.408500
0.449277 0.439576 0.421037
0.462203 0.452365 0.433551
0.475096 0.465121 0.446035
0.487952 0.477841 0.458482
0.500786 0.490539 0.470908
0.513570 0.503242 0.483439
0.526223 0.516008 0.496385
0.538854 0.528752 0.509310
0.551596 0.541608 0.522348
0.564486 0.554612 0.535536
0.577495 0.567738 0.548848
0.590610 0.580969 0.562266
0.603848 0.594326 0.575812
0.617192 0.607789 0.589465
0.630609 0.621326 0.603195
0.409222 0.399945 0.382255
0.410945 0.401650 0.383924
0.412668 0.403355 0.385592
0.414391 0.405060 0.387261
0.416115 0.406765 0.388929
0.417838 0.408470 0.390597
0.419561 0.410175 0.392266
0.421284 0.411879 0.393934
0.423007 0.413584 0.395602
0.424729 0.415289 0.397270
0.426452 0.416993 0.398938
0.428174 0.418697 0.400605
0.429897 0.420401 0.402273
0.431619 0.422105 0.403940
0.433340 0.423808 0.405607
0.435062 0.425512 0.407274
0.436783 0.427215 0.408940
0.449731 0.440026 0.421477
0.462656 0.452813 0.433990
0.475548 0.465568 0.446472
0.488402 0.478287 0.458918
0.501236 0.490984 0.471343
0.514014 0.503690 0.483893
0.526666 0.516455 0.496839
0.539298 0.529199 0.509764
0.552047 0.542062 0.522809
0.564941 0.555071 0.536002
0.577954 0.568201 0.549317
0.591072 0.581436 0.562739
0.604315 0.594797 0.576290
0.617661 0.608262 0.589946
0.631081 0.621802 0.603678
0.644543 0.635384 0.617452
0.433893 0.424355 0.406142
0.435614 0.426058 0.407808
0.437335 0.427761 0.409475
0.439056 0.429464 0.411141
0.440777 0.431166 0.412807
0.442497 0.432868 0.414473
0.444217 0.434570 0.416138
0.445937 0.436271 0.417803
0.447656 0.437972 0.419467
0.449375 0.439673 0.421131
0.451093 0.441373 0.422795
0.452811 0.443073 0.424458
0.454529 0.444772 0.426121
0.456246 0.446471 0.427784
0.457962 0.448169 0.429446
0.459678 0.449867 0.431107
0.461393 0.451564 0.432768
0.463109 0.453261 0.434429
0.475999 0.466015 0.446909
0.488853 0.478732 0.459354
0.501686 0.491429 0.471779
0.514459 0.504139 0.484348
0.527110 0.516903 0.497293
0.539743 0.529648 0.510219
0.552498 0.542517 0.523270
0.565396 0.555530 0.536467
0.578412 0.568663 0.549786
0.591534 0.581902 0.563212
0.604781 0.595267 0.576767
0.618131 0.608737 0.590427
0.631553 0.622279 0.604161
0.645016 0.635861 0.617936
0.658488 0.649454 0.631720
0.458513 0.448714 0.429979
0.460228 0.450411 0.431640
0.461944 0.452108 0.433301
0.463659 0.453805 0.434961
0.465372 0.455501 0.436620
0.467086 0.457197 0.438280
0.468799 0.458891 0.439938
0.470511 0.460585 0.441596
0.472223 0.462279 0.443253
0.473934 0.463972 0.444910
0.475645 0.465664 0.446566
0.477354 0.467355 0.448221
0.479063 0.469046 0.449876
0.480771 0.470736 0.451529
0.482478 0.472425 0.453182
0.484185 0.474114 0.454835
0.485892 0.475802 0.456487
0.487598 0.477491 0.458139
0.489303 0.479178 0.459790
0.502136 0.491874 0.472215
0.514903 0.504587 0.484803
0.527553 0.517350 0.497746
0.540188 0.530098 0.510675
0.552948 0.542972 0.523731
0.565850 0.555989 0.536933
0.578871 0.569126 0.550255
0.591996 0.582368 0.563685
0.605248 0.595738 0.577245
0.618601 0.609211 0.590908
0.632025 0.622755 0.604643
0.645489 0.636338 0.618419
0.658961 0.649931 0.632204
0.672409 0.663499 0.645965
0.483026 0.472967 0.453713
0.484733 0.474656 0.455365
0.486439 0.476344 0.457017
0.488145 0.478032 0.458669
0.489851 0.479719 0.460320
0.491556 0.481407 0.461972
0.493261 0.483094 0.463622
0.494966 0.484781 0.465273
0.496671 0.486467 0.466923
0.498375 0.488153 0.468573
0.500079 0.489839 0.470223
0.501782 0.491525 0.471872
0.503486 0.493210 0.473522
0.505188 0.494895 0.475170
0.506891 0.496579 0.476818
0.508593 0.498263 0.478466
0.510294 0.499946 0.480114
0.511983 0.501640 0.481814
0.513665 0.503338 0.483536
0.515348 0.505035 0.485258
0.527996 0.517797 0.498200
0.540634 0.530547 0.511130
0.553399 0.543426 0.524192
0.566305 0.556448 0.537398
0.579329 0.569588 0.550724
0.592459 0.582835 0.564159
0.605715 0.596210 0.577723
0.619072 0.609685 0.591389
0.632497 0.623231 0.605126
0.645961 0.636815 0.618903
0.659433 0.650407 0.632688
0.672880 0.663974 0.646447
0.686270 0.677484 0.660148
0.507437 0.497119 0.477347
0.509138 0.498803 0.478995
0.510839 0.500487 0.480645
0.512522 0.502185 0.482367
0.514205 0.503882 0.484088
0.515887 0.505580 0.485810
0.517569 0.507276 0.487530
0.519250 0.508973 0.489250
0.520930 0.510668 0.490970
0.522611 0.512363 0.492689
0.524290 0.514058 0.494408
0.525969 0.515752 0.496126
0.527648 0.517446 0.497844
0.529326 0.519139 0.499560
0.531004 0.520831 0.501277
0.532680 0.522523 0.502993
0.534357 0.524214 0.504708
0.536034 0.525907 0.506424
0.537714 0.527601 0.508143
0.539393 0.529295 0.509861
0.541079 0.530997 0.511586
0.553849 0.543881 0.524653
0.566760 0.556907 0.537863
0.579788 0.570051 0.551193
0.592922 0.583303 0.564633
0.606183 0.596681 0.578201
0.619542 0.610160 0.591870
0.632969 0.623707 0.605609
0.646434 0.637292 0.619387
0.659906 0.650884 0.633171
0.673351 0.664449 0.646929
0.686739 0.677957 0.660627
0.700037 0.691374 0.674234
0.531542 0.521374 0.501828
0.533218 0.523065 0.503543
0.534894 0.524757 0.505258
0.536573 0.526450 0.506975
0.538252 0.528144 0.508694
0.539934 0.529841 0.510414
0.541620 0.531542 0.512140
0.543307 0.533244 0.513865
0.544999 0.534952 0.515597
0.546692 0.536660 0.517330
0.548389 0.538372 0.519066
0.550089 0.540087 0.520805
0.551790 0.541803 0.522545
0.553495 0.543524 0.524291
0.555201 0.545245 0.526036
0.556911 0.546970 0.527786
0.558623 0.548697 0.529537
0.560337 0.550426 0.531291
0.562054 0.552158 0.533048
0.563771 0.553891 0.534805
0.565493 0.555629 0.536567
0.567215 0.557366 0.538329
0.580247 0.570514 0.551663
0.593386 0.583771 0.565107
0.606650 0.597153 0.578679
0.620012 0.610634 0.592351
0.633441 0.624183 0.606092
0.646907 0.637769 0.619871
0.660378 0.651360 0.633654
0.673822 0.664924 0.647410
0.687207 0.678429 0.661106
0.700502 0.691843 0.674709
0.713674 0.705133 0.688188
0.555749 0.545797 0.526597
0.557460 0.547524 0.528348
0.559172 0.549251 0.530099
0.560888 0.550982 0.531854
0.562604 0.552714 0.533611
0.564323 0.554448 0.535370
0.566045 0.556186 0.537132
0.567768 0.557923 0.538894
0.569494 0.559666 0.540661
0.571221 0.561408 0.542428
0.572951 0.563153 0.544198
0.574682 0.564900 0.545970
0.576415 0.566648 0.547742
0.578150 0.568399 0.549518
0.579886 0.570150 0.551294
0.581625 0.571904 0.553073
0.583364 0.573659 0.554853
0.585106 0.575417 0.556635
0.586850 0.577176 0.558420
0.588595 0.578937 0.560206
0.590345 0.580703 0.561996
0.592095 0.582468 0.563787
0.593850 0.584238 0.565582
0.607117 0.597625 0.579157
0.620482 0.611108 0.592832
0.633913 0.624659 0.606575
0.647380 0.638246 0.620354
0.660850 0.651837 0.634137
0.674293 0.665399 0.647892
0.687675 0.678902 0.661585
0.700967 0.692311 0.675185
0.714135 0.705597 0.688659
0.727146 0.718725 0.701972
0.580443 0.570712 0.551864
0.582183 0.572467 0.553644
0.583922 0.574222 0.555424
0.585666 0.575981 0.557208
0.587410 0.577741 0.558992
0.589157 0.579504 0.560780
0.590907 0.581269 0.562570
0.592658 0.583036 0.564362
0.594413 0.584807 0.566158
0.596168 0.586578 0.567954
0.597928 0.588353 0.569754
0.599688 0.590129 0.571556
0.601450 0.591907 0.573359
0.603216 0.593688 0.575165
0.604981 0.595469 0.576971
0.606750 0.597254 0.578782
0.608520 0.599039 0.580592
0.610292 0.600827 0.582405
0.612065 0.602616 0.584220
0.613839 0.604406 0.586035
0.615616 0.606199 0.587853
0.617393 0.607991 0.589671
0.619172 0.609787 0.591492
0.620952 0.611583 0.593313
0.634385 0.625135 0.607058
0.647852 0.638723 0.620838
0.661322 0.652313 0.634621
0.674763 0.665874 0.648374
0.688144 0.679374 0.662064
0.701431 0.692780 0.675661
0.714594 0.706060 0.689129
0.727599 0.719181 0.702435
0.740416 0.732113 0.715550
0.605548 0.596042 0.577552
0.607318 0.597827 0.579362
0.609087 0.599612 0.581173
0.610860 0.601401 0.582987
0.612634 0.603190 0.584802
0.614409 0.604981 0.586618
0.616186 0.606774 0.588436
0.617963 0.608567 0.590255
0.619743 0.610363 0.592076
0.621523 0.612159 0.593897
0.623305 0.613957 0.595721
0.625088 0.615755 0.597545
0.626871 0.617555 0.599370
0.628656 0.619355 0.601196
0.630441 0.621156 0.603022
0.632228 0.622959 0.604850
0.634014 0.624761 0.606678
0.635802 0.626565 0.608508
0.637590 0.628369 0.610337
0.639378 0.630173 0.612167
0.641167 0.631978 0.613998
0.642956 0.633783 0.615828
0.644746 0.635589 0.617659
0.646535 0.637394 0.619491
0.648325 0.639200 0.621322
0.661795 0.652790 0.635104
0.675234 0.666349 0.648855
0.688612 0.679846 0.662543
0.701896 0.693249 0.676136
0.715052 0.706523 0.689598
0.728051 0.719638 0.702899
0.740862 0.732563 0.716007
0.753454 0.745267 0.728891
0.631014 0.621734 0.603609
0.632801 0.623537 0.605437
0.634587 0.625340 0.607265
0.636375 0.627144 0.609094
0.638163 0.628948 0.610924
0.639952 0.630752 0.612754
0.641741 0.632557 0.614585
0.643530 0.634362 0.616416
0.645320 0.636168 0.618247
0.647110 0.637974 0.620078
0.648899 0.639779 0.621909
0.650689 0.641585 0.623741
0.652479 0.643391 0.625572
0.654268 0.645196 0.627403
0.656058 0.647002 0.629234
0.657847 0.648807 0.631064
0.659636 0.650612 0.632895
0.661424 0.652416 0.634724
0.663212 0.654219 0.636554
0.664999 0.656022 0.638382
0.666785 0.657825 0.640210
0.668571 0.659627 0.642038
0.670356 0.661427 0.643863
0.672140 0.663228 0.645689
0.673923 0.665026 0.647513
0.675705 0.666824 0.649337
0.689080 0.680319 0.663023
0.702359 0.693717 0.676610
0.715511 0.706986 0.690067
0.728504 0.720095 0.703362
0.741308 0.733013 0.716463
0.753892 0.745710 0.729339
0.766226 0.758153 0.741959
0.656632 0.647581 0.629821
0.658421 0.649386 0.631651
0.660209 0.651190 0.633482
0.661997 0.652994 0.635311
0.663785 0.654798 0.637140
0.665572 0.656601 0.638968
0.667358 0.658403 0.640796
0.669143 0.660204 0.642623
0.670928 0.662005 0.644449
0.672712 0.663805 0.646275
0.674494 0.665603 0.648098
0.676276 0.667401 0.649922
0.678057 0.669197 0.651743
0.679836 0.670992 0.653564
0.681614 0.672786 0.655384
0.683391 0.674579 0.657201
0.685167 0.676371 0.659018
0.686939 0.678159 0.660832
0.688712 0.679948 0.662646
0.690482 0.681734 0.664457
0.692251 0.683518 0.666267
