ricette/lut/Ritratto-in-luce-di-finestra-33.cube
# LUT generata da Camera Oscura BN
# Ricetta: Ritratto in luce di finestra
# Pellicola: ritratto
# Nota: grana, vignetta e interventi locali non sono inclusi nella LUT.
TITLE "Ritratto in luce di finestra"
LUT_3D_SIZE 9
DOMAIN_MIN 0.0 0.0 0.0
DOMAIN_MAX 1.0 1.0 1.0
0.045413 0.039993 0.030015
0.088669 0.082791 0.071896
0.132955 0.126607 0.114774
0.178631 0.171799 0.158998
0.226119 0.218783 0.204975
0.275450 0.267592 0.252737
0.326120 0.317725 0.301796
0.377643 0.368701 0.351681
0.429507 0.420015 0.401895
0.128571 0.122269 0.110529
0.134531 0.128166 0.116300
0.180265 0.173416 0.160579
0.227823 0.220469 0.206625
0.277207 0.269330 0.254439
0.327917 0.319502 0.303536
0.379460 0.370499 0.353440
0.431326 0.421816 0.403657
0.482994 0.472935 0.453681
0.216674 0.209439 0.195831
0.223083 0.215780 0.202036
0.229528 0.222156 0.208275
0.278968 0.271072 0.256143
0.329714 0.321280 0.305276
0.381277 0.372297 0.355200
0.433145 0.423615 0.405418
0.484797 0.474719 0.455427
0.535749 0.525619 0.506132
0.311151 0.302915 0.287304
0.317922 0.309614 0.293859
0.324709 0.316329 0.300430
0.331512 0.323060 0.307017
0.383095 0.374096 0.356960
0.434965 0.425415 0.407180
0.486600 0.476503 0.457173
0.537523 0.527409 0.507948
0.589223 0.579570 0.560847
0.409222 0.399945 0.382255
0.416115 0.406765 0.388929
0.423007 0.413584 0.395602
0.429897 0.420401 0.402273
0.436783 0.427215 0.408940
0.488402 0.478287 0.458918
0.539298 0.529199 0.509764
0.591072 0.581436 0.562739
0.644543 0.635384 0.617452
0.507437 0.497119 0.477347
0.514205 0.503882 0.484088
0.520930 0.510668 0.490970
0.527648 0.517446 0.497844
0.534357 0.524214 0.504708
0.541079 0.530997 0.511586
0.592922 0.583303 0.564633
0.646434 0.637292 0.619387
0.700037 0.691374 0.674234
0.605548 0.596042 0.577552
0.612634 0.603190 0.584802
0.619743 0.610363 0.592076
0.626871 0.617555 0.599370
0.634014 0.624761 0.606678
0.641167 0.631978 0.613998
0.648325 0.639200 0.621322
0.701896 0.693249 0.676136
0.753454 0.745267 0.728891
0.707452 0.698854 0.681821
0.714430 0.705895 0.688961
0.721362 0.712889 0.696054
0.728245 0.719834 0.703097
0.735078 0.726727 0.710088
0.741850 0.733560 0.717017
0.748558 0.740328 0.723882
0.755202 0.747032 0.730680
0.802606 0.794858 0.779183
0.801367 0.793608 0.777916
0.807283 0.799577 0.783969
0.813094 0.805440 0.789915
0.818792 0.811189 0.795745
0.824393 0.816840 0.801477
0.829903 0.822399 0.807114
0.835315 0.827860 0.812652
0.840644 0.833236 0.818105
0.845893 0.838532 0.823475
0.059737 0.054165 0.043884
0.110717 0.104605 0.093243
0.155651 0.149063 0.136748
0.202182 0.195100 0.181799
0.250650 0.243054 0.228726
0.300710 0.292584 0.277194
0.351871 0.343203 0.326729
0.403630 0.394413 0.376841
0.455468 0.445702 0.427031
0.110939 0.104825 0.093458
0.155880 0.149289 0.136970
0.202420 0.195335 0.182030
0.250897 0.243299 0.228965
0.300964 0.292835 0.277440
0.352130 0.343458 0.326979
0.403890 0.394670 0.377093
0.455727 0.445958 0.427282
0.507180 0.496865 0.477098
0.197788 0.190753 0.177545
0.246079 0.238532 0.224301
0.252630 0.245013 0.230643
0.302745 0.294597 0.279164
0.353939 0.345248 0.328730
0.405710 0.396471 0.378856
0.457541 0.447752 0.429038
0.508978 0.498644 0.478839
0.559818 0.549903 0.530761
0.291076 0.283052 0.267866
0.342065 0.333500 0.317234
0.348901 0.340264 0.323853
0.355749 0.347039 0.330483
0.407531 0.398273 0.380618
0.459355 0.449547 0.430794
0.510776 0.500423 0.480580
0.561633 0.551734 0.532617
0.614242 0.604812 0.586447
0.388681 0.379622 0.362368
0.440550 0.430941 0.412587
0.447429 0.437748 0.419248
0.454302 0.444548 0.425902
0.461167 0.451340 0.432549
0.512554 0.502217 0.482399
0.563447 0.553564 0.534473
0.616119 0.606706 0.588368
0.669918 0.660986 0.643416
0.487115 0.477013 0.457671
0.538030 0.527921 0.508467
0.544776 0.534726 0.515369
0.551564 0.541575 0.522315
0.558397 0.548469 0.529306
0.565266 0.555399 0.536334
0.617997 0.608601 0.590290
0.671803 0.662888 0.645345
0.724745 0.716302 0.699515
0.584613 0.574919 0.556130
0.637927 0.628709 0.610682
0.645084 0.635930 0.618005
0.652242 0.643152 0.625330
0.659399 0.650373 0.632653
0.666549 0.657587 0.639969
0.673687 0.664789 0.647273
0.726564 0.718137 0.701376
0.776482 0.768501 0.752453
0.686438 0.677653 0.660319
0.738792 0.730474 0.713888
0.745529 0.737271 0.720782
0.752202 0.744004 0.727610
0.758808 0.750669 0.734369
0.765337 0.757256 0.741049
0.771787 0.763764 0.747649
0.778157 0.770191 0.754167
0.823030 0.815465 0.800082
0.783140 0.775218 0.759266
0.827418 0.819892 0.804572
0.832876 0.825399 0.810156
0.838241 0.830812 0.815646
0.843525 0.836143 0.821053
0.848730 0.841395 0.826379
0.853854 0.846564 0.831621
0.858907 0.851662 0.836791
0.863893 0.856692 0.841893
0.074152 0.068427 0.057841
0.125544 0.119274 0.107598
0.178748 0.171915 0.159111
0.226240 0.218904 0.205093
0.275575 0.267716 0.252859
0.326249 0.317852 0.301921
0.377773 0.368830 0.351806
0.429637 0.420144 0.402021
0.481319 0.471278 0.452059
0.125768 0.119496 0.107815
0.171194 0.164441 0.151797
0.226483 0.219144 0.205328
0.275826 0.267964 0.253102
0.326505 0.318106 0.302169
0.378032 0.369087 0.352058
0.429897 0.420401 0.402273
0.481576 0.471533 0.452309
0.532586 0.522427 0.502896
0.179215 0.172376 0.159563
0.226727 0.219385 0.205563
0.276077 0.268212 0.253345
0.326762 0.318360 0.302418
0.378292 0.369343 0.352309
0.430157 0.420658 0.402524
0.481834 0.471788 0.452559
0.532839 0.522683 0.503154
0.584349 0.574653 0.555861
0.271188 0.263374 0.248611
0.321762 0.313413 0.297577
0.373232 0.364337 0.347410
0.380109 0.371141 0.354069
0.431976 0.422458 0.404286
0.483638 0.473573 0.454305
0.534610 0.524470 0.504967
0.586192 0.576512 0.557746
0.639547 0.630344 0.612340
0.368176 0.359335 0.342515
0.420016 0.410625 0.392706
0.471771 0.461832 0.442816
0.478612 0.468600 0.449439
0.485441 0.475357 0.456051
0.536383 0.526258 0.506781
0.588035 0.578372 0.559632
0.641437 0.632251 0.614274
0.695117 0.686410 0.669200
0.466731 0.456845 0.437935
0.518013 0.507724 0.487984
0.569038 0.559205 0.540194
0.575957 0.566185 0.547273
0.582905 0.573196 0.554383
0.589883 0.580236 0.561523
0.643328 0.634158 0.616208
0.696981 0.688290 0.671107
0.748810 0.740582 0.724139
0.563966 0.554088 0.535004
0.616655 0.607247 0.588917
0.670457 0.661529 0.643967
0.677587 0.668723 0.651262
0.684698 0.675897 0.658538
0.691784 0.683047 0.665789
0.698842 0.690168 0.673011
0.750574 0.742362 0.725944
0.798428 0.790643 0.774909
0.665201 0.656226 0.638589
0.718360 0.709861 0.692983
0.768876 0.760827 0.744671
0.775282 0.767290 0.751225
0.781605 0.773670 0.757696
0.787836 0.779956 0.764071
0.793973 0.786148 0.770350
0.800015 0.792244 0.776533
0.842238 0.834844 0.819736
0.764109 0.756018 0.739793
0.810585 0.802909 0.787348
0.851543 0.844233 0.829257
0.856627 0.849362 0.834459
0.861642 0.854422 0.839591
0.866592 0.859416 0.844655
0.871474 0.864342 0.849651
0.876299 0.869209 0.854587
0.881069 0.874022 0.859468
0.088669 0.082791 0.071896
0.140517 0.134089 0.122095
0.194357 0.187358 0.174223
0.250773 0.243177 0.228846
0.300837 0.292710 0.277317
0.352001 0.343331 0.326854
0.403760 0.394541 0.376967
0.455598 0.445830 0.427157
0.507051 0.496738 0.476974
0.140743 0.134313 0.122314
0.186702 0.179785 0.166812
0.242754 0.235242 0.221081
0.301092 0.292961 0.277564
0.352259 0.343586 0.327104
0.404020 0.394799 0.377219
0.455857 0.446086 0.427407
0.507308 0.496992 0.477223
0.558138 0.548208 0.529042
0.194829 0.187825 0.174680
0.243000 0.235486 0.221320
0.292847 0.284804 0.269581
0.352517 0.343842 0.327354
0.404280 0.395056 0.377471
0.456116 0.446342 0.427658
0.507565 0.497246 0.477472
0.558397 0.548469 0.529306
0.610894 0.601435 0.583022
0.251516 0.243911 0.229565
0.301600 0.293465 0.278056
0.352776 0.344097 0.327604
0.404540 0.395313 0.377723
0.456375 0.446599 0.427909
0.507822 0.497501 0.477720
0.558655 0.548730 0.529570
0.611162 0.601705 0.583295
0.664931 0.655954 0.638313
0.347739 0.339115 0.322728
0.399469 0.390296 0.372813
0.451320 0.441597 0.423015
0.502811 0.492542 0.472868
0.509620 0.499279 0.479461
0.560466 0.550557 0.531424
0.613035 0.603595 0.585213
0.666819 0.657859 0.640245
0.719926 0.711441 0.694585
0.446261 0.436592 0.418117
0.497796 0.487581 0.468013
0.548614 0.538598 0.519296
0.600751 0.591201 0.572643
0.607819 0.598332 0.579875
0.614912 0.605489 0.587133
0.668706 0.659763 0.642175
0.721753 0.713284 0.696454
0.772028 0.764008 0.747896
0.543626 0.533566 0.514192
0.595572 0.585976 0.567344
0.649136 0.640018 0.622151
0.702690 0.694051 0.676949
0.709695 0.701118 0.684116
0.716657 0.708142 0.691240
0.723575 0.715122 0.698319
0.773722 0.765716 0.749629
0.819112 0.811512 0.796073
0.643868 0.634703 0.616761
0.697514 0.688828 0.671652
0.749314 0.741091 0.724655
0.797290 0.789495 0.773745
0.803278 0.795537 0.779872
0.809158 0.801469 0.785888
0.814931 0.807293 0.791795
0.820601 0.813014 0.797596
0.860420 0.853188 0.838340
0.744388 0.736121 0.719615
0.792824 0.784989 0.769175
0.835924 0.828474 0.813275
0.874121 0.867012 0.852359
0.878915 0.871849 0.857264
0.883656 0.876632 0.862115
0.888343 0.881361 0.866911
0.892985 0.886044 0.871660
0.897584 0.890684 0.876366
0.103300 0.097266 0.086061
0.155651 0.149063 0.136748
0.210182 0.203016 0.189545
0.267310 0.259538 0.244856
0.326377 0.317979 0.302045
0.377903 0.368958 0.351932
0.429767 0.420272 0.402147
0.481447 0.471405 0.452184
0.532459 0.522300 0.502766
0.155880 0.149289 0.136970
0.202420 0.195335 0.182030
0.259208 0.251521 0.237011
0.318050 0.309740 0.293983
0.378162 0.369215 0.352183
0.430027 0.420530 0.402399
0.481705 0.471660 0.452434
0.532712 0.522555 0.503025
0.584218 0.574520 0.555726
0.210662 0.203490 0.190009
0.259456 0.251767 0.237252
0.309748 0.301526 0.285945
0.369731 0.360873 0.344020
0.430287 0.420787 0.402650
0.481963 0.471915 0.452683
0.532965 0.522810 0.503284
0.584481 0.574786 0.555995
0.637792 0.628573 0.610544
0.268060 0.260279 0.245582
0.318562 0.310247 0.294479
0.369990 0.361130 0.344271
0.421836 0.412426 0.394469
0.482221 0.472170 0.452933
0.533218 0.523065 0.503543
0.584744 0.575052 0.556265
0.638062 0.628845 0.610820
0.691784 0.683047 0.665789
0.327403 0.318994 0.303039
0.378941 0.369986 0.352937
0.430806 0.421301 0.403154
0.482478 0.472425 0.453182
0.533471 0.523321 0.503802
0.585007 0.575317 0.556534
0.638332 0.629118 0.611097
0.692051 0.683316 0.666062
0.744135 0.735865 0.719355
0.425737 0.416285 0.398245
0.477451 0.467451 0.448314
0.528535 0.518340 0.498751
0.579886 0.570150 0.551294
0.633070 0.623809 0.605713
0.640222 0.631025 0.613031
0.693918 0.685200 0.667973
0.745909 0.737655 0.721170
0.794202 0.786380 0.770585
0.523593 0.513355 0.493695
0.574780 0.564999 0.546070
0.627814 0.618506 0.600335
0.681614 0.672786 0.655384
0.734179 0.725820 0.709168
0.740958 0.732660 0.716104
0.747677 0.739439 0.722979
0.795811 0.788002 0.772231
0.838543 0.831116 0.815955
0.622565 0.613210 0.594964
0.676377 0.667503 0.650025
0.729151 0.720747 0.704024
0.778871 0.770911 0.754898
0.823661 0.816102 0.800728
0.829178 0.821668 0.806373
0.834604 0.827143 0.811925
0.839947 0.832532 0.817391
0.877745 0.870669 0.856067
0.724095 0.715647 0.698850
0.774202 0.766201 0.750120
0.819539 0.811942 0.796510
0.859474 0.852234 0.837372
0.895506 0.888588 0.874240
0.900082 0.893205 0.878923
0.904617 0.897780 0.883563
0.909118 0.902321 0.888168
0.913587 0.906830 0.892741
0.118057 0.111867 0.100350
0.170962 0.164211 0.151572
0.226240 0.218904 0.205093
0.284004 0.276055 0.261019
0.343483 0.334903 0.318607
0.403890 0.394670 0.377093
0.455727 0.445958 0.427282
0.507180 0.496865 0.477098
0.558009 0.548078 0.528909
0.171194 0.164441 0.151797
0.218363 0.211110 0.197466
0.275826 0.267964 0.253102
0.335112 0.326621 0.310502
0.395439 0.386308 0.368911
0.455986 0.446214 0.427533
0.507437 0.497119 0.477347
0.558268 0.548339 0.529174
0.610760 0.601300 0.582885
0.226727 0.219385 0.205563
0.276077 0.268212 0.253345
0.326762 0.318360 0.302418
0.386992 0.377951 0.360732
0.447559 0.437876 0.419373
0.507694 0.497374 0.477596
0.558526 0.548599 0.529438
0.611028 0.601570 0.583159
0.664796 0.655818 0.638175
0.284760 0.276803 0.261751
0.335627 0.327130 0.311000
0.387252 0.378208 0.360984
0.439121 0.429528 0.411204
0.499340 0.489108 0.469507
0.558784 0.548860 0.529702
0.611295 0.601840 0.583432
0.665066 0.656090 0.638451
0.718229 0.709729 0.692849
0.344514 0.335923 0.319605
0.396219 0.387080 0.369666
0.448077 0.438389 0.419875
0.499597 0.489362 0.469756
0.550409 0.540410 0.521133
0.611563 0.602110 0.583706
0.665336 0.656362 0.638727
0.718491 0.709992 0.693116
0.768998 0.760950 0.744795
0.405190 0.395957 0.378352
0.457023 0.447240 0.428536
0.508464 0.498136 0.478342
0.559301 0.549381 0.530231
0.611831 0.602380 0.583980
0.665605 0.656635 0.639003
0.718752 0.710256 0.693383
0.769241 0.761196 0.745045
0.815146 0.807511 0.792015
0.503453 0.493178 0.473491
0.554268 0.544303 0.525081
0.606617 0.597119 0.578645
0.660344 0.651326 0.633620
0.713642 0.705100 0.688154
0.764477 0.756389 0.740170
0.770940 0.762910 0.746783
0.816657 0.809034 0.793560
0.856913 0.849650 0.834752
0.601417 0.591873 0.573325
0.655079 0.646014 0.628232
0.708507 0.699920 0.682901
0.759673 0.751542 0.735254
0.806621 0.798910 0.783292
0.848045 0.840703 0.825678
0.853181 0.845884 0.830932
0.858245 0.850994 0.836114
0.894378 0.887450 0.873086
0.703352 0.694718 0.677626
0.754829 0.746655 0.730298
0.802268 0.794517 0.778838
0.844216 0.836840 0.821760
0.881605 0.874562 0.860016
0.916019 0.909283 0.895229
0.920441 0.913745 0.899754
0.924839 0.918183 0.904254
0.929216 0.922598 0.908732
0.132955 0.126607 0.114774
0.186468 0.179552 0.166585
0.242508 0.234999 0.220843
0.300837 0.292710 0.277317
0.360664 0.351902 0.335242
0.421186 0.411783 0.393839
0.481576 0.471533 0.452309
0.532586 0.522427 0.502896
0.584086 0.574388 0.555591
0.186702 0.179785 0.166812
0.234534 0.227109 0.213122
0.292594 0.284554 0.269336
0.352259 0.343586 0.327104
0.412733 0.403420 0.385655
0.473192 0.463237 0.444191
0.532839 0.522683 0.503154
0.584349 0.574653 0.555861
0.637657 0.628437 0.610406
0.243000 0.235486 0.221320
0.292847 0.284804 0.269581
0.343869 0.335286 0.318981
0.404280 0.395056 0.377471
0.464790 0.454925 0.436057
0.524607 0.514378 0.494732
0.584613 0.574919 0.556130
0.637927 0.628709 0.610682
0.691650 0.682912 0.665652
0.301600 0.293465 0.278056
0.352776 0.344097 0.327604
0.404540 0.395313 0.377723
0.456375 0.446599 0.427909
0.516363 0.506060 0.486296
0.576088 0.566318 0.547407
0.638197 0.628982 0.610958
0.691917 0.683181 0.665926
0.744008 0.735737 0.719226
0.361700 0.352927 0.336244
0.413514 0.404192 0.386411
0.465308 0.455437 0.436558
0.516617 0.506316 0.486556
0.567605 0.557759 0.538728
0.629430 0.620137 0.601988
0.692184 0.683451 0.666199
0.744262 0.735993 0.719485
0.792709 0.784873 0.769057
0.422487 0.413070 0.395098
0.474225 0.464259 0.445191
0.525367 0.515145 0.495510
0.576611 0.566846 0.547943
0.629700 0.620409 0.602264
0.683491 0.674680 0.657304
0.744515 0.736249 0.719744
0.792939 0.785105 0.769292
0.836026 0.828577 0.813379
0.483123 0.473063 0.453806
0.534104 0.523959 0.504449
0.585666 0.575981 0.557208
0.639007 0.629799 0.611787
0.692718 0.683989 0.666745
0.744768 0.736504 0.720004
0.793168 0.785337 0.769527
0.836229 0.828781 0.813587
0.874394 0.867288 0.852639
0.580542 0.570812 0.551965
0.633744 0.624489 0.606402
0.687508 0.678733 0.661414
0.739811 0.731503 0.714931
0.788655 0.780782 0.764909
0.832261 0.824778 0.809527
0.870832 0.863694 0.848994
0.875666 0.868571 0.853940
0.910470 0.903686 0.889552
0.682285 0.673463 0.656069
0.734821 0.726469 0.709826
0.784084 0.776171 0.760232
0.828246 0.820728 0.805419
0.867239 0.860069 0.845317
0.902654 0.895800 0.881554
0.935947 0.929390 0.915620
0.940277 0.933758 0.920050
0.944594 0.938114 0.924468
0.148006 0.141499 0.129346
0.202182 0.195100 0.181799
0.258959 0.251275 0.236771
0.317794 0.309487 0.293735
0.377903 0.368958 0.351932
0.438472 0.428885 0.410575
0.498696 0.488472 0.468885
0.558138 0.548208 0.529042
0.610626 0.601165 0.582748
0.202420 0.195335 0.182030
0.250897 0.243299 0.228965
0.309493 0.301274 0.285698
0.369472 0.360617 0.343769
0.430027 0.420530 0.402399
0.490333 0.480197 0.460788
0.549768 0.539763 0.520477
0.610894 0.601435 0.583022
0.664662 0.655682 0.638037
0.259456 0.251767 0.237252
0.309748 0.301526 0.285945
0.361052 0.352286 0.335618
0.421576 0.412169 0.394217
0.481963 0.471915 0.452683
0.541461 0.531382 0.511977
0.602216 0.592680 0.574143
0.664931 0.655954 0.638313
0.718098 0.709596 0.692715
0.318562 0.310247 0.294479
0.369990 0.361130 0.344271
0.421836 0.412426 0.394469
0.473579 0.463620 0.444566
0.533218 0.523065 0.503543
0.593585 0.583971 0.565311
0.656159 0.647104 0.629337
0.718360 0.709861 0.692983
0.768876 0.760827 0.744671
0.378941 0.369986 0.352937
0.430806 0.421301 0.403154
0.482478 0.472425 0.453182
0.533471 0.523321 0.503802
0.585007 0.575317 0.556534
0.647380 0.638246 0.620354
0.709827 0.701251 0.684251
0.769120 0.761073 0.744920
0.815039 0.807402 0.791905
0.439770 0.430170 0.411833
0.491363 0.481216 0.461785
0.542225 0.532152 0.512758
0.594115 0.584506 0.565853
0.647650 0.638519 0.620631
0.701232 0.692579 0.675457
0.761156 0.753038 0.736771
0.815254 0.807620 0.792126
0.855674 0.848400 0.833483
0.500240 0.489998 0.470379
0.551051 0.541057 0.521789
0.603282 0.593755 0.575233
0.656969 0.647921 0.630166
0.710354 0.701783 0.684790
0.761403 0.753288 0.737024
0.808166 0.800468 0.784872
0.855864 0.848592 0.833678
0.892201 0.885253 0.870859
0.559948 0.550034 0.530893
0.612500 0.603055 0.584665
0.666279 0.657315 0.639693
0.719404 0.710914 0.694051
0.769851 0.761811 0.745668
0.815686 0.808055 0.792567
0.856055 0.848785 0.833873
0.892375 0.885429 0.871037
0.926163 0.919518 0.905609
0.661019 0.652007 0.634310
0.714299 0.705763 0.688827
0.765091 0.757009 0.740798
0.811458 0.803789 0.788241
0.852315 0.845011 0.830047
0.888960 0.881983 0.867542
0.922933 0.916260 0.902304
0.955543 0.949161 0.935671
0.959829 0.953486 0.940057
0.163226 0.156557 0.144082
0.218122 0.210871 0.197232
0.275575 0.267716 0.252859
0.334855 0.326367 0.310253
0.395179 0.386051 0.368659
0.455727 0.445958 0.427282
0.515729 0.505420 0.485647
0.575434 0.565658 0.546738
0.637522 0.628301 0.610268
0.218363 0.211110 0.197466
0.267435 0.259661 0.244977
0.326505 0.318106 0.302169
0.386732 0.377694 0.360481
0.447299 0.437619 0.419122
0.507437 0.497119 0.477347
0.566955 0.557104 0.538063
0.628757 0.619457 0.601299
0.691517 0.682777 0.665516
0.276077 0.268212 0.253345
0.326762 0.318360 0.302418
0.378292 0.369343 0.352309
0.438862 0.429271 0.410953
0.499082 0.488853 0.469258
0.558526 0.548599 0.529438
0.620012 0.610634 0.592351
0.682821 0.674004 0.656618
0.743881 0.735609 0.719096
0.335627 0.327130 0.311000
0.387252 0.378208 0.360984
0.439121 0.429528 0.411204
0.490719 0.480579 0.461161
0.550153 0.540151 0.520871
0.611295 0.601840 0.583432
0.674091 0.665196 0.647685
0.735590 0.727244 0.710612
0.792594 0.784757 0.768939
0.396219 0.387080 0.369666
0.448077 0.438389 0.419875
0.499597 0.489362 0.469756
0.550409 0.540410 0.521133
0.602616 0.593083 0.574552
0.665336 0.656362 0.638727
0.727211 0.718790 0.702038
0.785028 0.777123 0.761197
0.835924 0.828474 0.813275
0.457023 0.447240 0.428536
0.508464 0.498136 0.478342
0.559301 0.549381 0.530231
0.611831 0.602380 0.583980
0.665605 0.656635 0.639003
0.718752 0.710256 0.693383
0.777322 0.769348 0.753313
0.829282 0.821772 0.806479
0.874303 0.867196 0.852545
0.517251 0.506956 0.487205
0.568256 0.558417 0.539394
0.621086 0.611718 0.593451
0.674898 0.666010 0.648511
0.727728 0.719312 0.702568
0.777561 0.769590 0.753558
0.822502 0.814932 0.799542
0.868348 0.861187 0.846452
0.909371 0.902577 0.888427
0.577266 0.567507 0.548613
0.630374 0.621088 0.602953
0.684161 0.675356 0.657990
0.736615 0.728278 0.711661
0.785730 0.777831 0.761916
0.829696 0.822190 0.806902
0.868532 0.861373 0.846641
0.903849 0.897006 0.882777
0.942559 0.936061 0.922386
0.639682 0.630480 0.612478
0.693386 0.684663 0.667428
0.745402 0.737144 0.720652
0.793743 0.785916 0.770115
0.836733 0.829290 0.814103
0.874850 0.867747 0.853104
0.909709 0.902918 0.888773
0.942722 0.936225 0.922552
0.975013 0.968804 0.955592
