ricette/lut/Ritratto-in-luce-di-finestra-33.cube
# LUT generata da Camera Oscura BN
# Ricetta: Ritratto in luce di finestra
# Pellicola: ritratto
# Nota: grana, vignetta e interventi locali non sono inclusi nella LUT.
TITLE "Ritratto in luce di finestra"
LUT_3D_SIZE 5
DOMAIN_MIN 0.0 0.0 0.0
DOMAIN_MAX 1.0 1.0 1.0
0.045413 0.039993 0.030015
0.132955 0.126607 0.114774
0.226119 0.218783 0.204975
0.326120 0.317725 0.301796
0.429507 0.420015 0.401895
0.216674 0.209439 0.195831
0.229528 0.222156 0.208275
0.329714 0.321280 0.305276
0.433145 0.423615 0.405418
0.535749 0.525619 0.506132
0.409222 0.399945 0.382255
0.423007 0.413584 0.395602
0.436783 0.427215 0.408940
0.539298 0.529199 0.509764
0.644543 0.635384 0.617452
0.605548 0.596042 0.577552
0.619743 0.610363 0.592076
0.634014 0.624761 0.606678
0.648325 0.639200 0.621322
0.753454 0.745267 0.728891
0.801367 0.793608 0.777916
0.813094 0.805440 0.789915
0.824393 0.816840 0.801477
0.835315 0.827860 0.812652
0.845893 0.838532 0.823475
0.074152 0.068427 0.057841
0.178748 0.171915 0.159111
0.275575 0.267716 0.252859
0.377773 0.368830 0.351806
0.481319 0.471278 0.452059
0.179215 0.172376 0.159563
0.276077 0.268212 0.253345
0.378292 0.369343 0.352309
0.481834 0.471788 0.452559
0.584349 0.574653 0.555861
0.368176 0.359335 0.342515
0.471771 0.461832 0.442816
0.485441 0.475357 0.456051
0.588035 0.578372 0.559632
0.695117 0.686410 0.669200
0.563966 0.554088 0.535004
0.670457 0.661529 0.643967
0.684698 0.675897 0.658538
0.698842 0.690168 0.673011
0.798428 0.790643 0.774909
0.764109 0.756018 0.739793
0.851543 0.844233 0.829257
0.861642 0.854422 0.839591
0.871474 0.864342 0.849651
0.881069 0.874022 0.859468
0.103300 0.097266 0.086061
0.210182 0.203016 0.189545
0.326377 0.317979 0.302045
0.429767 0.420272 0.402147
0.532459 0.522300 0.502766
0.210662 0.203490 0.190009
0.309748 0.301526 0.285945
0.430287 0.420787 0.402650
0.532965 0.522810 0.503284
0.637792 0.628573 0.610544
0.327403 0.318994 0.303039
0.430806 0.421301 0.403154
0.533471 0.523321 0.503802
0.638332 0.629118 0.611097
0.744135 0.735865 0.719355
0.523593 0.513355 0.493695
0.627814 0.618506 0.600335
0.734179 0.725820 0.709168
0.747677 0.739439 0.722979
0.838543 0.831116 0.815955
0.724095 0.715647 0.698850
0.819539 0.811942 0.796510
0.895506 0.888588 0.874240
0.904617 0.897780 0.883563
0.913587 0.906830 0.892741
0.132955 0.126607 0.114774
0.242508 0.234999 0.220843
0.360664 0.351902 0.335242
0.481576 0.471533 0.452309
0.584086 0.574388 0.555591
0.243000 0.235486 0.221320
0.343869 0.335286 0.318981
0.464790 0.454925 0.436057
0.584613 0.574919 0.556130
0.691650 0.682912 0.665652
0.361700 0.352927 0.336244
0.465308 0.455437 0.436558
0.567605 0.557759 0.538728
0.692184 0.683451 0.666199
0.792709 0.784873 0.769057
0.483123 0.473063 0.453806
0.585666 0.575981 0.557208
0.692718 0.683989 0.666745
0.793168 0.785337 0.769527
0.874394 0.867288 0.852639
0.682285 0.673463 0.656069
0.784084 0.776171 0.760232
0.867239 0.860069 0.845317
0.935947 0.929390 0.915620
0.944594 0.938114 0.924468
0.163226 0.156557 0.144082
0.275575 0.267716 0.252859
0.395179 0.386051 0.368659
0.515729 0.505420 0.485647
0.637522 0.628301 0.610268
0.276077 0.268212 0.253345
0.378292 0.369343 0.352309
0.499082 0.488853 0.469258
0.620012 0.610634 0.592351
0.743881 0.735609 0.719096
0.396219 0.387080 0.369666
0.499597 0.489362 0.469756
0.602616 0.593083 0.574552
0.727211 0.718790 0.702038
0.835924 0.828474 0.813275
0.517251 0.506956 0.487205
0.621086 0.611718 0.593451
0.727728 0.719312 0.702568
0.822502 0.814932 0.799542
0.909371 0.902577 0.888427
0.639682 0.630480 0.612478
0.745402 0.737144 0.720652
0.836733 0.829290 0.814103
0.909709 0.902918 0.888773
0.975013 0.968804 0.955592
