ricette/lut/Seta-100-33.cube
# LUT generata da Camera Oscura BN
# Ricetta: Seta 100
# Pellicola: acros100
# Nota: grana, vignetta e interventi locali non sono inclusi nella LUT.
TITLE "Seta 100"
LUT_3D_SIZE 9
DOMAIN_MIN 0.0 0.0 0.0
DOMAIN_MAX 1.0 1.0 1.0
0.000000 0.000000 0.000000
0.024796 0.024796 0.024796
0.053340 0.053340 0.053340
0.091765 0.091765 0.091765
0.140510 0.140510 0.140510
0.196088 0.196088 0.196088
0.254940 0.254940 0.254940
0.318686 0.318686 0.318686
0.385143 0.385143 0.385143
0.024796 0.024796 0.024796
0.038217 0.038217 0.038217
0.071101 0.071101 0.071101
0.115031 0.115031 0.115031
0.167728 0.167728 0.167728
0.224960 0.224960 0.224960
0.286292 0.286292 0.286292
0.351762 0.351762 0.351762
0.418452 0.418452 0.418452
0.053340 0.053340 0.053340
0.071101 0.071101 0.071101
0.091765 0.091765 0.091765
0.140510 0.140510 0.140510
0.196088 0.196088 0.196088
0.254940 0.254940 0.254940
0.318686 0.318686 0.318686
0.385143 0.385143 0.385143
0.451317 0.451317 0.451317
0.091765 0.091765 0.091765
0.115031 0.115031 0.115031
0.140510 0.140510 0.140510
0.167728 0.167728 0.167728
0.224960 0.224960 0.224960
0.286292 0.286292 0.286292
0.351762 0.351762 0.351762
0.418452 0.418452 0.418452
0.483597 0.483597 0.483597
0.140510 0.140510 0.140510
0.167728 0.167728 0.167728
0.196088 0.196088 0.196088
0.224960 0.224960 0.224960
0.254940 0.254940 0.254940
0.318686 0.318686 0.318686
0.385143 0.385143 0.385143
0.451317 0.451317 0.451317
0.515345 0.515345 0.515345
0.196088 0.196088 0.196088
0.224960 0.224960 0.224960
0.254940 0.254940 0.254940
0.286292 0.286292 0.286292
0.318686 0.318686 0.318686
0.351762 0.351762 0.351762
0.418452 0.418452 0.418452
0.483597 0.483597 0.483597
0.547109 0.547109 0.547109
0.254940 0.254940 0.254940
0.286292 0.286292 0.286292
0.318686 0.318686 0.318686
0.351762 0.351762 0.351762
0.385143 0.385143 0.385143
0.418452 0.418452 0.418452
0.451317 0.451317 0.451317
0.515345 0.515345 0.515345
0.579581 0.579581 0.579581
0.318686 0.318686 0.318686
0.351762 0.351762 0.351762
0.385143 0.385143 0.385143
0.418452 0.418452 0.418452
0.451317 0.451317 0.451317
0.483597 0.483597 0.483597
0.515345 0.515345 0.515345
0.547109 0.547109 0.547109
0.612455 0.612455 0.612455
0.385143 0.385143 0.385143
0.418452 0.418452 0.418452
0.451317 0.451317 0.451317
0.483597 0.483597 0.483597
0.515345 0.515345 0.515345
0.547109 0.547109 0.547109
0.579581 0.579581 0.579581
0.612455 0.612455 0.612455
0.645356 0.645356 0.645356
0.012262 0.012262 0.012262
0.053340 0.053340 0.053340
0.091765 0.091765 0.091765
0.140510 0.140510 0.140510
0.196088 0.196088 0.196088
0.254940 0.254940 0.254940
0.318686 0.318686 0.318686
0.385143 0.385143 0.385143
0.451317 0.451317 0.451317
0.038217 0.038217 0.038217
0.071101 0.071101 0.071101
0.115031 0.115031 0.115031
0.167728 0.167728 0.167728
0.224960 0.224960 0.224960
0.286292 0.286292 0.286292
0.351762 0.351762 0.351762
0.418452 0.418452 0.418452
0.483597 0.483597 0.483597
0.071101 0.071101 0.071101
0.115031 0.115031 0.115031
0.140510 0.140510 0.140510
0.196088 0.196088 0.196088
0.254940 0.254940 0.254940
0.318686 0.318686 0.318686
0.385143 0.385143 0.385143
0.451317 0.451317 0.451317
0.515345 0.515345 0.515345
0.115031 0.115031 0.115031
0.167728 0.167728 0.167728
0.196088 0.196088 0.196088
0.224960 0.224960 0.224960
0.286292 0.286292 0.286292
0.351762 0.351762 0.351762
0.418452 0.418452 0.418452
0.483597 0.483597 0.483597
0.547109 0.547109 0.547109
0.167728 0.167728 0.167728
0.224960 0.224960 0.224960
0.254940 0.254940 0.254940
0.286292 0.286292 0.286292
0.318686 0.318686 0.318686
0.385143 0.385143 0.385143
0.451317 0.451317 0.451317
0.515345 0.515345 0.515345
0.579581 0.579581 0.579581
0.224960 0.224960 0.224960
0.286292 0.286292 0.286292
0.318686 0.318686 0.318686
0.351762 0.351762 0.351762
0.385143 0.385143 0.385143
0.418452 0.418452 0.418452
0.483597 0.483597 0.483597
0.547109 0.547109 0.547109
0.612455 0.612455 0.612455
0.286292 0.286292 0.286292
0.351762 0.351762 0.351762
0.385143 0.385143 0.385143
0.418452 0.418452 0.418452
0.451317 0.451317 0.451317
0.483597 0.483597 0.483597
0.515345 0.515345 0.515345
0.579581 0.579581 0.579581
0.645356 0.645356 0.645356
0.351762 0.351762 0.351762
0.418452 0.418452 0.418452
0.451317 0.451317 0.451317
0.483597 0.483597 0.483597
0.515345 0.515345 0.515345
0.547109 0.547109 0.547109
0.579581 0.579581 0.579581
0.612455 0.612455 0.612455
0.677839 0.677839 0.677839
0.418452 0.418452 0.418452
0.483597 0.483597 0.483597
0.515345 0.515345 0.515345
0.547109 0.547109 0.547109
0.579581 0.579581 0.579581
0.612455 0.612455 0.612455
0.645356 0.645356 0.645356
0.677839 0.677839 0.677839
0.709469 0.709469 0.709469
0.024796 0.024796 0.024796
0.071101 0.071101 0.071101
0.140510 0.140510 0.140510
0.196088 0.196088 0.196088
0.254940 0.254940 0.254940
0.318686 0.318686 0.318686
0.385143 0.385143 0.385143
0.451317 0.451317 0.451317
0.515345 0.515345 0.515345
0.053340 0.053340 0.053340
0.091765 0.091765 0.091765
0.167728 0.167728 0.167728
0.224960 0.224960 0.224960
0.286292 0.286292 0.286292
0.351762 0.351762 0.351762
0.418452 0.418452 0.418452
0.483597 0.483597 0.483597
0.547109 0.547109 0.547109
0.091765 0.091765 0.091765
0.140510 0.140510 0.140510
0.196088 0.196088 0.196088
0.254940 0.254940 0.254940
0.318686 0.318686 0.318686
0.385143 0.385143 0.385143
0.451317 0.451317 0.451317
0.515345 0.515345 0.515345
0.579581 0.579581 0.579581
0.140510 0.140510 0.140510
0.196088 0.196088 0.196088
0.254940 0.254940 0.254940
0.286292 0.286292 0.286292
0.351762 0.351762 0.351762
0.418452 0.418452 0.418452
0.483597 0.483597 0.483597
0.547109 0.547109 0.547109
0.612455 0.612455 0.612455
0.196088 0.196088 0.196088
0.254940 0.254940 0.254940
0.318686 0.318686 0.318686
0.351762 0.351762 0.351762
0.385143 0.385143 0.385143
0.451317 0.451317 0.451317
0.515345 0.515345 0.515345
0.579581 0.579581 0.579581
0.645356 0.645356 0.645356
0.254940 0.254940 0.254940
0.318686 0.318686 0.318686
0.385143 0.385143 0.385143
0.418452 0.418452 0.418452
0.451317 0.451317 0.451317
0.483597 0.483597 0.483597
0.547109 0.547109 0.547109
0.612455 0.612455 0.612455
0.677839 0.677839 0.677839
0.318686 0.318686 0.318686
0.385143 0.385143 0.385143
0.451317 0.451317 0.451317
0.483597 0.483597 0.483597
0.515345 0.515345 0.515345
0.547109 0.547109 0.547109
0.579581 0.579581 0.579581
0.645356 0.645356 0.645356
0.709469 0.709469 0.709469
0.385143 0.385143 0.385143
0.451317 0.451317 0.451317
0.515345 0.515345 0.515345
0.547109 0.547109 0.547109
0.579581 0.579581 0.579581
0.612455 0.612455 0.612455
0.645356 0.645356 0.645356
0.677839 0.677839 0.677839
0.739817 0.739817 0.739817
0.451317 0.451317 0.451317
0.515345 0.515345 0.515345
0.579581 0.579581 0.579581
0.612455 0.612455 0.612455
0.645356 0.645356 0.645356
0.677839 0.677839 0.677839
0.709469 0.709469 0.709469
0.739817 0.739817 0.739817
0.768473 0.768473 0.768473
0.038217 0.038217 0.038217
0.091765 0.091765 0.091765
0.167728 0.167728 0.167728
0.254940 0.254940 0.254940
0.318686 0.318686 0.318686
0.385143 0.385143 0.385143
0.451317 0.451317 0.451317
0.515345 0.515345 0.515345
0.579581 0.579581 0.579581
0.071101 0.071101 0.071101
0.115031 0.115031 0.115031
0.196088 0.196088 0.196088
0.286292 0.286292 0.286292
0.351762 0.351762 0.351762
0.418452 0.418452 0.418452
0.483597 0.483597 0.483597
0.547109 0.547109 0.547109
0.612455 0.612455 0.612455
0.115031 0.115031 0.115031
0.167728 0.167728 0.167728
0.224960 0.224960 0.224960
0.318686 0.318686 0.318686
0.385143 0.385143 0.385143
0.451317 0.451317 0.451317
0.515345 0.515345 0.515345
0.579581 0.579581 0.579581
0.645356 0.645356 0.645356
0.167728 0.167728 0.167728
0.224960 0.224960 0.224960
0.286292 0.286292 0.286292
0.351762 0.351762 0.351762
0.418452 0.418452 0.418452
0.483597 0.483597 0.483597
0.547109 0.547109 0.547109
0.612455 0.612455 0.612455
0.677839 0.677839 0.677839
0.224960 0.224960 0.224960
0.286292 0.286292 0.286292
0.351762 0.351762 0.351762
0.418452 0.418452 0.418452
0.451317 0.451317 0.451317
0.515345 0.515345 0.515345
0.579581 0.579581 0.579581
0.645356 0.645356 0.645356
0.709469 0.709469 0.709469
0.286292 0.286292 0.286292
0.351762 0.351762 0.351762
0.418452 0.418452 0.418452
0.483597 0.483597 0.483597
0.515345 0.515345 0.515345
0.547109 0.547109 0.547109
0.612455 0.612455 0.612455
0.677839 0.677839 0.677839
0.739817 0.739817 0.739817
0.351762 0.351762 0.351762
0.418452 0.418452 0.418452
0.483597 0.483597 0.483597
0.547109 0.547109 0.547109
0.579581 0.579581 0.579581
0.612455 0.612455 0.612455
0.645356 0.645356 0.645356
0.709469 0.709469 0.709469
0.768473 0.768473 0.768473
0.418452 0.418452 0.418452
0.483597 0.483597 0.483597
0.547109 0.547109 0.547109
0.612455 0.612455 0.612455
0.645356 0.645356 0.645356
0.677839 0.677839 0.677839
0.709469 0.709469 0.709469
0.739817 0.739817 0.739817
0.795067 0.795067 0.795067
0.483597 0.483597 0.483597
0.547109 0.547109 0.547109
0.612455 0.612455 0.612455
0.677839 0.677839 0.677839
0.709469 0.709469 0.709469
0.739817 0.739817 0.739817
0.768473 0.768473 0.768473
0.795067 0.795067 0.795067
0.819318 0.819318 0.819318
0.053340 0.053340 0.053340
0.115031 0.115031 0.115031
0.196088 0.196088 0.196088
0.286292 0.286292 0.286292
0.385143 0.385143 0.385143
0.451317 0.451317 0.451317
0.515345 0.515345 0.515345
0.579581 0.579581 0.579581
0.645356 0.645356 0.645356
0.091765 0.091765 0.091765
0.140510 0.140510 0.140510
0.224960 0.224960 0.224960
0.318686 0.318686 0.318686
0.418452 0.418452 0.418452
0.483597 0.483597 0.483597
0.547109 0.547109 0.547109
0.612455 0.612455 0.612455
0.677839 0.677839 0.677839
0.140510 0.140510 0.140510
0.196088 0.196088 0.196088
0.254940 0.254940 0.254940
0.351762 0.351762 0.351762
0.451317 0.451317 0.451317
0.515345 0.515345 0.515345
0.579581 0.579581 0.579581
0.645356 0.645356 0.645356
0.709469 0.709469 0.709469
0.196088 0.196088 0.196088
0.254940 0.254940 0.254940
0.318686 0.318686 0.318686
0.385143 0.385143 0.385143
0.483597 0.483597 0.483597
0.547109 0.547109 0.547109
0.612455 0.612455 0.612455
0.677839 0.677839 0.677839
0.739817 0.739817 0.739817
0.254940 0.254940 0.254940
0.318686 0.318686 0.318686
0.385143 0.385143 0.385143
0.451317 0.451317 0.451317
0.515345 0.515345 0.515345
0.579581 0.579581 0.579581
0.645356 0.645356 0.645356
0.709469 0.709469 0.709469
0.768473 0.768473 0.768473
0.318686 0.318686 0.318686
0.385143 0.385143 0.385143
0.451317 0.451317 0.451317
0.515345 0.515345 0.515345
0.579581 0.579581 0.579581
0.612455 0.612455 0.612455
0.677839 0.677839 0.677839
0.739817 0.739817 0.739817
0.795067 0.795067 0.795067
0.385143 0.385143 0.385143
0.451317 0.451317 0.451317
0.515345 0.515345 0.515345
0.579581 0.579581 0.579581
0.645356 0.645356 0.645356
0.677839 0.677839 0.677839
0.709469 0.709469 0.709469
0.768473 0.768473 0.768473
0.819318 0.819318 0.819318
0.451317 0.451317 0.451317
0.515345 0.515345 0.515345
0.579581 0.579581 0.579581
0.645356 0.645356 0.645356
0.709469 0.709469 0.709469
0.739817 0.739817 0.739817
0.768473 0.768473 0.768473
0.795067 0.795067 0.795067
0.841638 0.841638 0.841638
0.515345 0.515345 0.515345
0.579581 0.579581 0.579581
0.645356 0.645356 0.645356
0.709469 0.709469 0.709469
0.768473 0.768473 0.768473
0.795067 0.795067 0.795067
0.819318 0.819318 0.819318
0.841638 0.841638 0.841638
0.862401 0.862401 0.862401
0.071101 0.071101 0.071101
0.140510 0.140510 0.140510
0.224960 0.224960 0.224960
0.318686 0.318686 0.318686
0.418452 0.418452 0.418452
0.515345 0.515345 0.515345
0.579581 0.579581 0.579581
0.645356 0.645356 0.645356
0.709469 0.709469 0.709469
0.115031 0.115031 0.115031
0.167728 0.167728 0.167728
0.254940 0.254940 0.254940
0.351762 0.351762 0.351762
0.451317 0.451317 0.451317
0.547109 0.547109 0.547109
0.612455 0.612455 0.612455
0.677839 0.677839 0.677839
0.739817 0.739817 0.739817
0.167728 0.167728 0.167728
0.224960 0.224960 0.224960
0.286292 0.286292 0.286292
0.385143 0.385143 0.385143
0.483597 0.483597 0.483597
0.579581 0.579581 0.579581
0.645356 0.645356 0.645356
0.709469 0.709469 0.709469
0.768473 0.768473 0.768473
0.224960 0.224960 0.224960
0.286292 0.286292 0.286292
0.351762 0.351762 0.351762
0.418452 0.418452 0.418452
0.515345 0.515345 0.515345
0.612455 0.612455 0.612455
0.677839 0.677839 0.677839
0.739817 0.739817 0.739817
0.795067 0.795067 0.795067
0.286292 0.286292 0.286292
0.351762 0.351762 0.351762
0.418452 0.418452 0.418452
0.483597 0.483597 0.483597
0.547109 0.547109 0.547109
0.645356 0.645356 0.645356
0.709469 0.709469 0.709469
0.768473 0.768473 0.768473
0.819318 0.819318 0.819318
0.351762 0.351762 0.351762
0.418452 0.418452 0.418452
0.483597 0.483597 0.483597
0.547109 0.547109 0.547109
0.612455 0.612455 0.612455
0.677839 0.677839 0.677839
0.739817 0.739817 0.739817
0.795067 0.795067 0.795067
0.841638 0.841638 0.841638
0.418452 0.418452 0.418452
0.483597 0.483597 0.483597
0.547109 0.547109 0.547109
0.612455 0.612455 0.612455
0.677839 0.677839 0.677839
0.739817 0.739817 0.739817
0.768473 0.768473 0.768473
0.819318 0.819318 0.819318
0.862401 0.862401 0.862401
0.483597 0.483597 0.483597
0.547109 0.547109 0.547109
0.612455 0.612455 0.612455
0.677839 0.677839 0.677839
0.739817 0.739817 0.739817
0.795067 0.795067 0.795067
0.819318 0.819318 0.819318
0.841638 0.841638 0.841638
0.881890 0.881890 0.881890
0.547109 0.547109 0.547109
0.612455 0.612455 0.612455
0.677839 0.677839 0.677839
0.739817 0.739817 0.739817
0.795067 0.795067 0.795067
0.841638 0.841638 0.841638
0.862401 0.862401 0.862401
0.881890 0.881890 0.881890
0.900393 0.900393 0.900393
0.091765 0.091765 0.091765
0.167728 0.167728 0.167728
0.254940 0.254940 0.254940
0.351762 0.351762 0.351762
0.451317 0.451317 0.451317
0.547109 0.547109 0.547109
0.645356 0.645356 0.645356
0.709469 0.709469 0.709469
0.768473 0.768473 0.768473
0.140510 0.140510 0.140510
0.196088 0.196088 0.196088
0.286292 0.286292 0.286292
0.385143 0.385143 0.385143
0.483597 0.483597 0.483597
0.579581 0.579581 0.579581
0.677839 0.677839 0.677839
0.739817 0.739817 0.739817
0.795067 0.795067 0.795067
0.196088 0.196088 0.196088
0.254940 0.254940 0.254940
0.318686 0.318686 0.318686
0.418452 0.418452 0.418452
0.515345 0.515345 0.515345
0.612455 0.612455 0.612455
0.709469 0.709469 0.709469
0.768473 0.768473 0.768473
0.819318 0.819318 0.819318
0.254940 0.254940 0.254940
0.318686 0.318686 0.318686
0.385143 0.385143 0.385143
0.451317 0.451317 0.451317
0.547109 0.547109 0.547109
0.645356 0.645356 0.645356
0.739817 0.739817 0.739817
0.795067 0.795067 0.795067
0.841638 0.841638 0.841638
0.318686 0.318686 0.318686
0.385143 0.385143 0.385143
0.451317 0.451317 0.451317
0.515345 0.515345 0.515345
0.579581 0.579581 0.579581
0.677839 0.677839 0.677839
0.768473 0.768473 0.768473
0.819318 0.819318 0.819318
0.862401 0.862401 0.862401
0.385143 0.385143 0.385143
0.451317 0.451317 0.451317
0.515345 0.515345 0.515345
0.579581 0.579581 0.579581
0.645356 0.645356 0.645356
0.709469 0.709469 0.709469
0.795067 0.795067 0.795067
0.841638 0.841638 0.841638
0.881890 0.881890 0.881890
0.451317 0.451317 0.451317
0.515345 0.515345 0.515345
0.579581 0.579581 0.579581
0.645356 0.645356 0.645356
0.709469 0.709469 0.709469
0.768473 0.768473 0.768473
0.819318 0.819318 0.819318
0.862401 0.862401 0.862401
0.900393 0.900393 0.900393
0.515345 0.515345 0.515345
0.579581 0.579581 0.579581
0.645356 0.645356 0.645356
0.709469 0.709469 0.709469
0.768473 0.768473 0.768473
0.819318 0.819318 0.819318
0.862401 0.862401 0.862401
0.881890 0.881890 0.881890
0.918158 0.918158 0.918158
0.579581 0.579581 0.579581
0.645356 0.645356 0.645356
0.709469 0.709469 0.709469
0.768473 0.768473 0.768473
0.819318 0.819318 0.819318
0.862401 0.862401 0.862401
0.900393 0.900393 0.900393
0.918158 0.918158 0.918158
0.935399 0.935399 0.935399
0.115031 0.115031 0.115031
0.196088 0.196088 0.196088
0.286292 0.286292 0.286292
0.385143 0.385143 0.385143
0.483597 0.483597 0.483597
0.579581 0.579581 0.579581
0.677839 0.677839 0.677839
0.768473 0.768473 0.768473
0.819318 0.819318 0.819318
0.167728 0.167728 0.167728
0.224960 0.224960 0.224960
0.318686 0.318686 0.318686
0.418452 0.418452 0.418452
0.515345 0.515345 0.515345
0.612455 0.612455 0.612455
0.709469 0.709469 0.709469
0.795067 0.795067 0.795067
0.841638 0.841638 0.841638
0.224960 0.224960 0.224960
0.286292 0.286292 0.286292
0.351762 0.351762 0.351762
0.451317 0.451317 0.451317
0.547109 0.547109 0.547109
0.645356 0.645356 0.645356
0.739817 0.739817 0.739817
0.819318 0.819318 0.819318
0.862401 0.862401 0.862401
0.286292 0.286292 0.286292
0.351762 0.351762 0.351762
0.418452 0.418452 0.418452
0.483597 0.483597 0.483597
0.579581 0.579581 0.579581
0.677839 0.677839 0.677839
0.768473 0.768473 0.768473
0.841638 0.841638 0.841638
0.881890 0.881890 0.881890
0.351762 0.351762 0.351762
0.418452 0.418452 0.418452
0.483597 0.483597 0.483597
0.547109 0.547109 0.547109
0.612455 0.612455 0.612455
0.709469 0.709469 0.709469
0.795067 0.795067 0.795067
0.862401 0.862401 0.862401
0.900393 0.900393 0.900393
0.418452 0.418452 0.418452
0.483597 0.483597 0.483597
0.547109 0.547109 0.547109
0.612455 0.612455 0.612455
0.677839 0.677839 0.677839
0.739817 0.739817 0.739817
0.819318 0.819318 0.819318
0.881890 0.881890 0.881890
0.918158 0.918158 0.918158
0.483597 0.483597 0.483597
0.547109 0.547109 0.547109
0.612455 0.612455 0.612455
0.677839 0.677839 0.677839
0.739817 0.739817 0.739817
0.795067 0.795067 0.795067
0.841638 0.841638 0.841638
0.900393 0.900393 0.900393
0.935399 0.935399 0.935399
0.547109 0.547109 0.547109
0.612455 0.612455 0.612455
0.677839 0.677839 0.677839
0.739817 0.739817 0.739817
0.795067 0.795067 0.795067
0.841638 0.841638 0.841638
0.881890 0.881890 0.881890
0.918158 0.918158 0.918158
0.951704 0.951704 0.951704
0.612455 0.612455 0.612455
0.677839 0.677839 0.677839
0.739817 0.739817 0.739817
0.795067 0.795067 0.795067
0.841638 0.841638 0.841638
0.881890 0.881890 0.881890
0.918158 0.918158 0.918158
0.951704 0.951704 0.951704
0.967019 0.967019 0.967019
0.140510 0.140510 0.140510
0.224960 0.224960 0.224960
0.318686 0.318686 0.318686
0.418452 0.418452 0.418452
0.515345 0.515345 0.515345
0.612455 0.612455 0.612455
0.709469 0.709469 0.709469
0.795067 0.795067 0.795067
0.862401 0.862401 0.862401
0.196088 0.196088 0.196088
0.254940 0.254940 0.254940
0.351762 0.351762 0.351762
0.451317 0.451317 0.451317
0.547109 0.547109 0.547109
0.645356 0.645356 0.645356
0.739817 0.739817 0.739817
0.819318 0.819318 0.819318
0.881890 0.881890 0.881890
0.254940 0.254940 0.254940
0.318686 0.318686 0.318686
0.385143 0.385143 0.385143
0.483597 0.483597 0.483597
0.579581 0.579581 0.579581
0.677839 0.677839 0.677839
0.768473 0.768473 0.768473
0.841638 0.841638 0.841638
0.900393 0.900393 0.900393
0.318686 0.318686 0.318686
0.385143 0.385143 0.385143
0.451317 0.451317 0.451317
0.515345 0.515345 0.515345
0.612455 0.612455 0.612455
0.709469 0.709469 0.709469
0.795067 0.795067 0.795067
0.862401 0.862401 0.862401
0.918158 0.918158 0.918158
0.385143 0.385143 0.385143
0.451317 0.451317 0.451317
0.515345 0.515345 0.515345
0.579581 0.579581 0.579581
0.645356 0.645356 0.645356
0.739817 0.739817 0.739817
0.819318 0.819318 0.819318
0.881890 0.881890 0.881890
0.935399 0.935399 0.935399
0.451317 0.451317 0.451317
0.515345 0.515345 0.515345
0.579581 0.579581 0.579581
0.645356 0.645356 0.645356
0.709469 0.709469 0.709469
0.768473 0.768473 0.768473
0.841638 0.841638 0.841638
0.900393 0.900393 0.900393
0.951704 0.951704 0.951704
0.515345 0.515345 0.515345
0.579581 0.579581 0.579581
0.645356 0.645356 0.645356
0.709469 0.709469 0.709469
0.768473 0.768473 0.768473
0.819318 0.819318 0.819318
0.862401 0.862401 0.862401
0.918158 0.918158 0.918158
0.967019 0.967019 0.967019
0.579581 0.579581 0.579581
0.645356 0.645356 0.645356
0.709469 0.709469 0.709469
0.768473 0.768473 0.768473
0.819318 0.819318 0.819318
0.862401 0.862401 0.862401
0.900393 0.900393 0.900393
0.935399 0.935399 0.935399
0.981708 0.981708 0.981708
0.645356 0.645356 0.645356
0.709469 0.709469 0.709469
0.768473 0.768473 0.768473
0.819318 0.819318 0.819318
0.862401 0.862401 0.862401
0.900393 0.900393 0.900393
0.935399 0.935399 0.935399
0.967019 0.967019 0.967019
0.996078 0.996078 0.996078
