ricette/lut/Seta-100-33.cube
# LUT generata da Camera Oscura BN
# Ricetta: Seta 100
# Pellicola: acros100
# Nota: grana, vignetta e interventi locali non sono inclusi nella LUT.
TITLE "Seta 100"
LUT_3D_SIZE 33
DOMAIN_MIN 0.0 0.0 0.0
DOMAIN_MAX 1.0 1.0 1.0
0.000000 0.000000 0.000000
0.006128 0.006128 0.006128
0.012262 0.012262 0.012262
0.018461 0.018461 0.018461
0.024796 0.024796 0.024796
0.031349 0.031349 0.031349
0.038217 0.038217 0.038217
0.045509 0.045509 0.045509
0.053340 0.053340 0.053340
0.061843 0.061843 0.061843
0.071101 0.071101 0.071101
0.081085 0.081085 0.081085
0.091765 0.091765 0.091765
0.103095 0.103095 0.103095
0.115031 0.115031 0.115031
0.127522 0.127522 0.127522
0.140510 0.140510 0.140510
0.153938 0.153938 0.153938
0.167728 0.167728 0.167728
0.181805 0.181805 0.181805
0.196088 0.196088 0.196088
0.210491 0.210491 0.210491
0.224960 0.224960 0.224960
0.239759 0.239759 0.239759
0.254940 0.254940 0.254940
0.270465 0.270465 0.270465
0.286292 0.286292 0.286292
0.302380 0.302380 0.302380
0.318686 0.318686 0.318686
0.335162 0.335162 0.335162
0.351762 0.351762 0.351762
0.368438 0.368438 0.368438
0.385143 0.385143 0.385143
0.006128 0.006128 0.006128
0.009190 0.009190 0.009190
0.015348 0.015348 0.015348
0.021606 0.021606 0.021606
0.028041 0.028041 0.028041
0.034740 0.034740 0.034740
0.041804 0.041804 0.041804
0.049345 0.049345 0.049345
0.057493 0.057493 0.057493
0.066381 0.066381 0.066381
0.076010 0.076010 0.076010
0.086344 0.086344 0.086344
0.097349 0.097349 0.097349
0.108984 0.108984 0.108984
0.121209 0.121209 0.121209
0.133961 0.133961 0.133961
0.147177 0.147177 0.147177
0.160792 0.160792 0.160792
0.174733 0.174733 0.174733
0.188925 0.188925 0.188925
0.203280 0.203280 0.203280
0.217710 0.217710 0.217710
0.232310 0.232310 0.232310
0.247302 0.247302 0.247302
0.262660 0.262660 0.262660
0.278343 0.278343 0.278343
0.294308 0.294308 0.294308
0.310510 0.310510 0.310510
0.326905 0.326905 0.326905
0.343448 0.343448 0.343448
0.360093 0.360093 0.360093
0.376790 0.376790 0.376790
0.393492 0.393492 0.393492
0.012262 0.012262 0.012262
0.015348 0.015348 0.015348
0.018461 0.018461 0.018461
0.024796 0.024796 0.024796
0.031349 0.031349 0.031349
0.038217 0.038217 0.038217
0.045509 0.045509 0.045509
0.053340 0.053340 0.053340
0.061843 0.061843 0.061843
0.071101 0.071101 0.071101
0.081085 0.081085 0.081085
0.091765 0.091765 0.091765
0.103095 0.103095 0.103095
0.115031 0.115031 0.115031
0.127522 0.127522 0.127522
0.140510 0.140510 0.140510
0.153938 0.153938 0.153938
0.167728 0.167728 0.167728
0.181805 0.181805 0.181805
0.196088 0.196088 0.196088
0.210491 0.210491 0.210491
0.224960 0.224960 0.224960
0.239759 0.239759 0.239759
0.254940 0.254940 0.254940
0.270465 0.270465 0.270465
0.286292 0.286292 0.286292
0.302380 0.302380 0.302380
0.318686 0.318686 0.318686
0.335162 0.335162 0.335162
0.351762 0.351762 0.351762
0.368438 0.368438 0.368438
0.385143 0.385143 0.385143
0.401830 0.401830 0.401830
0.018461 0.018461 0.018461
0.021606 0.021606 0.021606
0.024796 0.024796 0.024796
0.028041 0.028041 0.028041
0.034740 0.034740 0.034740
0.041804 0.041804 0.041804
0.049345 0.049345 0.049345
0.057493 0.057493 0.057493
0.066381 0.066381 0.066381
0.076010 0.076010 0.076010
0.086344 0.086344 0.086344
0.097349 0.097349 0.097349
0.108984 0.108984 0.108984
0.121209 0.121209 0.121209
0.133961 0.133961 0.133961
0.147177 0.147177 0.147177
0.160792 0.160792 0.160792
0.174733 0.174733 0.174733
0.188925 0.188925 0.188925
0.203280 0.203280 0.203280
0.217710 0.217710 0.217710
0.232310 0.232310 0.232310
0.247302 0.247302 0.247302
0.262660 0.262660 0.262660
0.278343 0.278343 0.278343
0.294308 0.294308 0.294308
0.310510 0.310510 0.310510
0.326905 0.326905 0.326905
0.343448 0.343448 0.343448
0.360093 0.360093 0.360093
0.376790 0.376790 0.376790
0.393492 0.393492 0.393492
0.410153 0.410153 0.410153
0.024796 0.024796 0.024796
0.028041 0.028041 0.028041
0.031349 0.031349 0.031349
0.034740 0.034740 0.034740
0.038217 0.038217 0.038217
0.045509 0.045509 0.045509
0.053340 0.053340 0.053340
0.061843 0.061843 0.061843
0.071101 0.071101 0.071101
0.081085 0.081085 0.081085
0.091765 0.091765 0.091765
0.103095 0.103095 0.103095
0.115031 0.115031 0.115031
0.127522 0.127522 0.127522
0.140510 0.140510 0.140510
0.153938 0.153938 0.153938
0.167728 0.167728 0.167728
0.181805 0.181805 0.181805
0.196088 0.196088 0.196088
0.210491 0.210491 0.210491
0.224960 0.224960 0.224960
0.239759 0.239759 0.239759
0.254940 0.254940 0.254940
0.270465 0.270465 0.270465
0.286292 0.286292 0.286292
0.302380 0.302380 0.302380
0.318686 0.318686 0.318686
0.335162 0.335162 0.335162
0.351762 0.351762 0.351762
0.368438 0.368438 0.368438
0.385143 0.385143 0.385143
0.401830 0.401830 0.401830
0.418452 0.418452 0.418452
0.031349 0.031349 0.031349
0.034740 0.034740 0.034740
0.038217 0.038217 0.038217
0.041804 0.041804 0.041804
0.045509 0.045509 0.045509
0.049345 0.049345 0.049345
0.057493 0.057493 0.057493
0.066381 0.066381 0.066381
0.076010 0.076010 0.076010
0.086344 0.086344 0.086344
0.097349 0.097349 0.097349
0.108984 0.108984 0.108984
0.121209 0.121209 0.121209
0.133961 0.133961 0.133961
0.147177 0.147177 0.147177
0.160792 0.160792 0.160792
0.174733 0.174733 0.174733
0.188925 0.188925 0.188925
0.203280 0.203280 0.203280
0.217710 0.217710 0.217710
0.232310 0.232310 0.232310
0.247302 0.247302 0.247302
0.262660 0.262660 0.262660
0.278343 0.278343 0.278343
0.294308 0.294308 0.294308
0.310510 0.310510 0.310510
0.326905 0.326905 0.326905
0.343448 0.343448 0.343448
0.360093 0.360093 0.360093
0.376790 0.376790 0.376790
0.393492 0.393492 0.393492
0.410153 0.410153 0.410153
0.426726 0.426726 0.426726
0.038217 0.038217 0.038217
0.041804 0.041804 0.041804
0.045509 0.045509 0.045509
0.049345 0.049345 0.049345
0.053340 0.053340 0.053340
0.057493 0.057493 0.057493
0.061843 0.061843 0.061843
0.071101 0.071101 0.071101
0.081085 0.081085 0.081085
0.091765 0.091765 0.091765
0.103095 0.103095 0.103095
0.115031 0.115031 0.115031
0.127522 0.127522 0.127522
0.140510 0.140510 0.140510
0.153938 0.153938 0.153938
0.167728 0.167728 0.167728
0.181805 0.181805 0.181805
0.196088 0.196088 0.196088
0.210491 0.210491 0.210491
0.224960 0.224960 0.224960
0.239759 0.239759 0.239759
0.254940 0.254940 0.254940
0.270465 0.270465 0.270465
0.286292 0.286292 0.286292
0.302380 0.302380 0.302380
0.318686 0.318686 0.318686
0.335162 0.335162 0.335162
0.351762 0.351762 0.351762
0.368438 0.368438 0.368438
0.385143 0.385143 0.385143
0.401830 0.401830 0.401830
0.418452 0.418452 0.418452
0.434963 0.434963 0.434963
0.045509 0.045509 0.045509
0.049345 0.049345 0.049345
0.053340 0.053340 0.053340
0.057493 0.057493 0.057493
0.061843 0.061843 0.061843
0.066381 0.066381 0.066381
0.071101 0.071101 0.071101
0.076010 0.076010 0.076010
0.086344 0.086344 0.086344
0.097349 0.097349 0.097349
0.108984 0.108984 0.108984
0.121209 0.121209 0.121209
0.133961 0.133961 0.133961
0.147177 0.147177 0.147177
0.160792 0.160792 0.160792
0.174733 0.174733 0.174733
0.188925 0.188925 0.188925
0.203280 0.203280 0.203280
0.217710 0.217710 0.217710
0.232310 0.232310 0.232310
0.247302 0.247302 0.247302
0.262660 0.262660 0.262660
0.278343 0.278343 0.278343
0.294308 0.294308 0.294308
0.310510 0.310510 0.310510
0.326905 0.326905 0.326905
0.343448 0.343448 0.343448
0.360093 0.360093 0.360093
0.376790 0.376790 0.376790
0.393492 0.393492 0.393492
0.410153 0.410153 0.410153
0.426726 0.426726 0.426726
0.443163 0.443163 0.443163
0.053340 0.053340 0.053340
0.057493 0.057493 0.057493
0.061843 0.061843 0.061843
0.066381 0.066381 0.066381
0.071101 0.071101 0.071101
0.076010 0.076010 0.076010
0.081085 0.081085 0.081085
0.086344 0.086344 0.086344
0.091765 0.091765 0.091765
0.103095 0.103095 0.103095
0.115031 0.115031 0.115031
0.127522 0.127522 0.127522
0.140510 0.140510 0.140510
0.153938 0.153938 0.153938
0.167728 0.167728 0.167728
0.181805 0.181805 0.181805
0.196088 0.196088 0.196088
0.210491 0.210491 0.210491
0.224960 0.224960 0.224960
0.239759 0.239759 0.239759
0.254940 0.254940 0.254940
0.270465 0.270465 0.270465
0.286292 0.286292 0.286292
0.302380 0.302380 0.302380
0.318686 0.318686 0.318686
0.335162 0.335162 0.335162
0.351762 0.351762 0.351762
0.368438 0.368438 0.368438
0.385143 0.385143 0.385143
0.401830 0.401830 0.401830
0.418452 0.418452 0.418452
0.434963 0.434963 0.434963
0.451317 0.451317 0.451317
0.061843 0.061843 0.061843
0.066381 0.066381 0.066381
0.071101 0.071101 0.071101
0.076010 0.076010 0.076010
0.081085 0.081085 0.081085
0.086344 0.086344 0.086344
0.091765 0.091765 0.091765
0.097349 0.097349 0.097349
0.103095 0.103095 0.103095
0.108984 0.108984 0.108984
0.121209 0.121209 0.121209
0.133961 0.133961 0.133961
0.147177 0.147177 0.147177
0.160792 0.160792 0.160792
0.174733 0.174733 0.174733
0.188925 0.188925 0.188925
0.203280 0.203280 0.203280
0.217710 0.217710 0.217710
0.232310 0.232310 0.232310
0.247302 0.247302 0.247302
0.262660 0.262660 0.262660
0.278343 0.278343 0.278343
0.294308 0.294308 0.294308
0.310510 0.310510 0.310510
0.326905 0.326905 0.326905
0.343448 0.343448 0.343448
0.360093 0.360093 0.360093
0.376790 0.376790 0.376790
0.393492 0.393492 0.393492
0.410153 0.410153 0.410153
0.426726 0.426726 0.426726
0.443163 0.443163 0.443163
0.459426 0.459426 0.459426
0.071101 0.071101 0.071101
0.076010 0.076010 0.076010
0.081085 0.081085 0.081085
0.086344 0.086344 0.086344
0.091765 0.091765 0.091765
0.097349 0.097349 0.097349
0.103095 0.103095 0.103095
0.108984 0.108984 0.108984
0.115031 0.115031 0.115031
0.121209 0.121209 0.121209
0.127522 0.127522 0.127522
0.140510 0.140510 0.140510
0.153938 0.153938 0.153938
0.167728 0.167728 0.167728
0.181805 0.181805 0.181805
0.196088 0.196088 0.196088
0.210491 0.210491 0.210491
0.224960 0.224960 0.224960
0.239759 0.239759 0.239759
0.254940 0.254940 0.254940
0.270465 0.270465 0.270465
0.286292 0.286292 0.286292
0.302380 0.302380 0.302380
0.318686 0.318686 0.318686
0.335162 0.335162 0.335162
0.351762 0.351762 0.351762
0.368438 0.368438 0.368438
0.385143 0.385143 0.385143
0.401830 0.401830 0.401830
0.418452 0.418452 0.418452
0.434963 0.434963 0.434963
0.451317 0.451317 0.451317
0.467510 0.467510 0.467510
0.081085 0.081085 0.081085
0.086344 0.086344 0.086344
0.091765 0.091765 0.091765
0.097349 0.097349 0.097349
0.103095 0.103095 0.103095
0.108984 0.108984 0.108984
0.115031 0.115031 0.115031
0.121209 0.121209 0.121209
0.127522 0.127522 0.127522
0.133961 0.133961 0.133961
0.140510 0.140510 0.140510
0.147177 0.147177 0.147177
0.160792 0.160792 0.160792
0.174733 0.174733 0.174733
0.188925 0.188925 0.188925
0.203280 0.203280 0.203280
0.217710 0.217710 0.217710
0.232310 0.232310 0.232310
0.247302 0.247302 0.247302
0.262660 0.262660 0.262660
0.278343 0.278343 0.278343
0.294308 0.294308 0.294308
0.310510 0.310510 0.310510
0.326905 0.326905 0.326905
0.343448 0.343448 0.343448
0.360093 0.360093 0.360093
0.376790 0.376790 0.376790
0.393492 0.393492 0.393492
0.410153 0.410153 0.410153
0.426726 0.426726 0.426726
0.443163 0.443163 0.443163
0.459426 0.459426 0.459426
0.475567 0.475567 0.475567
0.091765 0.091765 0.091765
0.097349 0.097349 0.097349
0.103095 0.103095 0.103095
0.108984 0.108984 0.108984
0.115031 0.115031 0.115031
0.121209 0.121209 0.121209
0.127522 0.127522 0.127522
0.133961 0.133961 0.133961
0.140510 0.140510 0.140510
0.147177 0.147177 0.147177
0.153938 0.153938 0.153938
0.160792 0.160792 0.160792
0.167728 0.167728 0.167728
0.181805 0.181805 0.181805
0.196088 0.196088 0.196088
0.210491 0.210491 0.210491
0.224960 0.224960 0.224960
0.239759 0.239759 0.239759
0.254940 0.254940 0.254940
0.270465 0.270465 0.270465
0.286292 0.286292 0.286292
0.302380 0.302380 0.302380
0.318686 0.318686 0.318686
0.335162 0.335162 0.335162
0.351762 0.351762 0.351762
0.368438 0.368438 0.368438
0.385143 0.385143 0.385143
0.401830 0.401830 0.401830
0.418452 0.418452 0.418452
0.434963 0.434963 0.434963
0.451317 0.451317 0.451317
0.467510 0.467510 0.467510
0.483597 0.483597 0.483597
0.103095 0.103095 0.103095
0.108984 0.108984 0.108984
0.115031 0.115031 0.115031
0.121209 0.121209 0.121209
0.127522 0.127522 0.127522
0.133961 0.133961 0.133961
0.140510 0.140510 0.140510
0.147177 0.147177 0.147177
0.153938 0.153938 0.153938
0.160792 0.160792 0.160792
0.167728 0.167728 0.167728
0.174733 0.174733 0.174733
0.181805 0.181805 0.181805
0.188925 0.188925 0.188925
0.203280 0.203280 0.203280
0.217710 0.217710 0.217710
0.232310 0.232310 0.232310
0.247302 0.247302 0.247302
0.262660 0.262660 0.262660
0.278343 0.278343 0.278343
0.294308 0.294308 0.294308
0.310510 0.310510 0.310510
0.326905 0.326905 0.326905
0.343448 0.343448 0.343448
0.360093 0.360093 0.360093
0.376790 0.376790 0.376790
0.393492 0.393492 0.393492
0.410153 0.410153 0.410153
0.426726 0.426726 0.426726
0.443163 0.443163 0.443163
0.459426 0.459426 0.459426
0.475567 0.475567 0.475567
0.491593 0.491593 0.491593
0.115031 0.115031 0.115031
0.121209 0.121209 0.121209
0.127522 0.127522 0.127522
0.133961 0.133961 0.133961
0.140510 0.140510 0.140510
0.147177 0.147177 0.147177
0.153938 0.153938 0.153938
0.160792 0.160792 0.160792
0.167728 0.167728 0.167728
0.174733 0.174733 0.174733
0.181805 0.181805 0.181805
0.188925 0.188925 0.188925
0.196088 0.196088 0.196088
0.203280 0.203280 0.203280
0.210491 0.210491 0.210491
0.224960 0.224960 0.224960
0.239759 0.239759 0.239759
0.254940 0.254940 0.254940
0.270465 0.270465 0.270465
0.286292 0.286292 0.286292
0.302380 0.302380 0.302380
0.318686 0.318686 0.318686
0.335162 0.335162 0.335162
0.351762 0.351762 0.351762
0.368438 0.368438 0.368438
0.385143 0.385143 0.385143
0.401830 0.401830 0.401830
0.418452 0.418452 0.418452
0.434963 0.434963 0.434963
0.451317 0.451317 0.451317
0.467510 0.467510 0.467510
0.483597 0.483597 0.483597
0.499553 0.499553 0.499553
0.127522 0.127522 0.127522
0.133961 0.133961 0.133961
0.140510 0.140510 0.140510
0.147177 0.147177 0.147177
0.153938 0.153938 0.153938
0.160792 0.160792 0.160792
0.167728 0.167728 0.167728
0.174733 0.174733 0.174733
0.181805 0.181805 0.181805
0.188925 0.188925 0.188925
0.196088 0.196088 0.196088
0.203280 0.203280 0.203280
0.210491 0.210491 0.210491
0.217710 0.217710 0.217710
0.224960 0.224960 0.224960
0.232310 0.232310 0.232310
0.247302 0.247302 0.247302
0.262660 0.262660 0.262660
0.278343 0.278343 0.278343
0.294308 0.294308 0.294308
0.310510 0.310510 0.310510
0.326905 0.326905 0.326905
0.343448 0.343448 0.343448
0.360093 0.360093 0.360093
0.376790 0.376790 0.376790
0.393492 0.393492 0.393492
0.410153 0.410153 0.410153
0.426726 0.426726 0.426726
0.443163 0.443163 0.443163
0.459426 0.459426 0.459426
0.475567 0.475567 0.475567
0.491593 0.491593 0.491593
0.507473 0.507473 0.507473
0.140510 0.140510 0.140510
0.147177 0.147177 0.147177
0.153938 0.153938 0.153938
0.160792 0.160792 0.160792
0.167728 0.167728 0.167728
0.174733 0.174733 0.174733
0.181805 0.181805 0.181805
0.188925 0.188925 0.188925
0.196088 0.196088 0.196088
0.203280 0.203280 0.203280
0.210491 0.210491 0.210491
0.217710 0.217710 0.217710
0.224960 0.224960 0.224960
0.232310 0.232310 0.232310
0.239759 0.239759 0.239759
0.247302 0.247302 0.247302
0.254940 0.254940 0.254940
0.270465 0.270465 0.270465
0.286292 0.286292 0.286292
0.302380 0.302380 0.302380
0.318686 0.318686 0.318686
0.335162 0.335162 0.335162
0.351762 0.351762 0.351762
0.368438 0.368438 0.368438
0.385143 0.385143 0.385143
0.401830 0.401830 0.401830
0.418452 0.418452 0.418452
0.434963 0.434963 0.434963
0.451317 0.451317 0.451317
0.467510 0.467510 0.467510
0.483597 0.483597 0.483597
0.499553 0.499553 0.499553
0.515345 0.515345 0.515345
0.153938 0.153938 0.153938
0.160792 0.160792 0.160792
0.167728 0.167728 0.167728
0.174733 0.174733 0.174733
0.181805 0.181805 0.181805
0.188925 0.188925 0.188925
0.196088 0.196088 0.196088
0.203280 0.203280 0.203280
0.210491 0.210491 0.210491
0.217710 0.217710 0.217710
0.224960 0.224960 0.224960
0.232310 0.232310 0.232310
0.239759 0.239759 0.239759
0.247302 0.247302 0.247302
0.254940 0.254940 0.254940
0.262660 0.262660 0.262660
0.270465 0.270465 0.270465
0.278343 0.278343 0.278343
0.294308 0.294308 0.294308
0.310510 0.310510 0.310510
0.326905 0.326905 0.326905
0.343448 0.343448 0.343448
0.360093 0.360093 0.360093
0.376790 0.376790 0.376790
0.393492 0.393492 0.393492
0.410153 0.410153 0.410153
0.426726 0.426726 0.426726
0.443163 0.443163 0.443163
0.459426 0.459426 0.459426
0.475567 0.475567 0.475567
0.491593 0.491593 0.491593
0.507473 0.507473 0.507473
0.523203 0.523203 0.523203
0.167728 0.167728 0.167728
0.174733 0.174733 0.174733
0.181805 0.181805 0.181805
0.188925 0.188925 0.188925
0.196088 0.196088 0.196088
0.203280 0.203280 0.203280
0.210491 0.210491 0.210491
0.217710 0.217710 0.217710
0.224960 0.224960 0.224960
0.232310 0.232310 0.232310
0.239759 0.239759 0.239759
0.247302 0.247302 0.247302
0.254940 0.254940 0.254940
0.262660 0.262660 0.262660
0.270465 0.270465 0.270465
0.278343 0.278343 0.278343
0.286292 0.286292 0.286292
0.294308 0.294308 0.294308
0.302380 0.302380 0.302380
0.318686 0.318686 0.318686
0.335162 0.335162 0.335162
0.351762 0.351762 0.351762
0.368438 0.368438 0.368438
0.385143 0.385143 0.385143
0.401830 0.401830 0.401830
0.418452 0.418452 0.418452
0.434963 0.434963 0.434963
0.451317 0.451317 0.451317
0.467510 0.467510 0.467510
0.483597 0.483597 0.483597
0.499553 0.499553 0.499553
0.515345 0.515345 0.515345
0.531118 0.531118 0.531118
0.181805 0.181805 0.181805
0.188925 0.188925 0.188925
0.196088 0.196088 0.196088
0.203280 0.203280 0.203280
0.210491 0.210491 0.210491
0.217710 0.217710 0.217710
0.224960 0.224960 0.224960
0.232310 0.232310 0.232310
0.239759 0.239759 0.239759
0.247302 0.247302 0.247302
0.254940 0.254940 0.254940
0.262660 0.262660 0.262660
0.270465 0.270465 0.270465
0.278343 0.278343 0.278343
0.286292 0.286292 0.286292
0.294308 0.294308 0.294308
0.302380 0.302380 0.302380
0.310510 0.310510 0.310510
0.318686 0.318686 0.318686
0.326905 0.326905 0.326905
0.343448 0.343448 0.343448
0.360093 0.360093 0.360093
0.376790 0.376790 0.376790
0.393492 0.393492 0.393492
0.410153 0.410153 0.410153
0.426726 0.426726 0.426726
0.443163 0.443163 0.443163
0.459426 0.459426 0.459426
0.475567 0.475567 0.475567
0.491593 0.491593 0.491593
0.507473 0.507473 0.507473
0.523203 0.523203 0.523203
0.539088 0.539088 0.539088
0.196088 0.196088 0.196088
0.203280 0.203280 0.203280
0.210491 0.210491 0.210491
0.217710 0.217710 0.217710
0.224960 0.224960 0.224960
0.232310 0.232310 0.232310
0.239759 0.239759 0.239759
0.247302 0.247302 0.247302
0.254940 0.254940 0.254940
0.262660 0.262660 0.262660
0.270465 0.270465 0.270465
0.278343 0.278343 0.278343
0.286292 0.286292 0.286292
0.294308 0.294308 0.294308
0.302380 0.302380 0.302380
0.310510 0.310510 0.310510
0.318686 0.318686 0.318686
0.326905 0.326905 0.326905
0.335162 0.335162 0.335162
0.343448 0.343448 0.343448
0.351762 0.351762 0.351762
0.368438 0.368438 0.368438
0.385143 0.385143 0.385143
0.401830 0.401830 0.401830
0.418452 0.418452 0.418452
0.434963 0.434963 0.434963
0.451317 0.451317 0.451317
0.467510 0.467510 0.467510
0.483597 0.483597 0.483597
0.499553 0.499553 0.499553
0.515345 0.515345 0.515345
0.531118 0.531118 0.531118
0.547109 0.547109 0.547109
0.210491 0.210491 0.210491
0.217710 0.217710 0.217710
0.224960 0.224960 0.224960
0.232310 0.232310 0.232310
0.239759 0.239759 0.239759
0.247302 0.247302 0.247302
0.254940 0.254940 0.254940
0.262660 0.262660 0.262660
0.270465 0.270465 0.270465
0.278343 0.278343 0.278343
0.286292 0.286292 0.286292
0.294308 0.294308 0.294308
0.302380 0.302380 0.302380
0.310510 0.310510 0.310510
0.318686 0.318686 0.318686
0.326905 0.326905 0.326905
0.335162 0.335162 0.335162
0.343448 0.343448 0.343448
0.351762 0.351762 0.351762
0.360093 0.360093 0.360093
0.368438 0.368438 0.368438
0.376790 0.376790 0.376790
0.393492 0.393492 0.393492
0.410153 0.410153 0.410153
0.426726 0.426726 0.426726
0.443163 0.443163 0.443163
0.459426 0.459426 0.459426
0.475567 0.475567 0.475567
0.491593 0.491593 0.491593
0.507473 0.507473 0.507473
0.523203 0.523203 0.523203
0.539088 0.539088 0.539088
0.555177 0.555177 0.555177
0.224960 0.224960 0.224960
0.232310 0.232310 0.232310
0.239759 0.239759 0.239759
0.247302 0.247302 0.247302
0.254940 0.254940 0.254940
0.262660 0.262660 0.262660
0.270465 0.270465 0.270465
0.278343 0.278343 0.278343
0.286292 0.286292 0.286292
0.294308 0.294308 0.294308
0.302380 0.302380 0.302380
0.310510 0.310510 0.310510
0.318686 0.318686 0.318686
0.326905 0.326905 0.326905
0.335162 0.335162 0.335162
0.343448 0.343448 0.343448
0.351762 0.351762 0.351762
0.360093 0.360093 0.360093
0.368438 0.368438 0.368438
0.376790 0.376790 0.376790
0.385143 0.385143 0.385143
0.393492 0.393492 0.393492
0.401830 0.401830 0.401830
0.418452 0.418452 0.418452
0.434963 0.434963 0.434963
0.451317 0.451317 0.451317
0.467510 0.467510 0.467510
0.483597 0.483597 0.483597
0.499553 0.499553 0.499553
0.515345 0.515345 0.515345
0.531118 0.531118 0.531118
0.547109 0.547109 0.547109
0.563280 0.563280 0.563280
0.239759 0.239759 0.239759
0.247302 0.247302 0.247302
0.254940 0.254940 0.254940
0.262660 0.262660 0.262660
0.270465 0.270465 0.270465
0.278343 0.278343 0.278343
0.286292 0.286292 0.286292
0.294308 0.294308 0.294308
0.302380 0.302380 0.302380
0.310510 0.310510 0.310510
0.318686 0.318686 0.318686
0.326905 0.326905 0.326905
0.335162 0.335162 0.335162
0.343448 0.343448 0.343448
0.351762 0.351762 0.351762
0.360093 0.360093 0.360093
0.368438 0.368438 0.368438
0.376790 0.376790 0.376790
0.385143 0.385143 0.385143
0.393492 0.393492 0.393492
0.401830 0.401830 0.401830
0.410153 0.410153 0.410153
0.418452 0.418452 0.418452
0.426726 0.426726 0.426726
0.443163 0.443163 0.443163
0.459426 0.459426 0.459426
0.475567 0.475567 0.475567
0.491593 0.491593 0.491593
0.507473 0.507473 0.507473
0.523203 0.523203 0.523203
0.539088 0.539088 0.539088
0.555177 0.555177 0.555177
0.571418 0.571418 0.571418
0.254940 0.254940 0.254940
0.262660 0.262660 0.262660
0.270465 0.270465 0.270465
0.278343 0.278343 0.278343
0.286292 0.286292 0.286292
0.294308 0.294308 0.294308
0.302380 0.302380 0.302380
0.310510 0.310510 0.310510
0.318686 0.318686 0.318686
0.326905 0.326905 0.326905
0.335162 0.335162 0.335162
0.343448 0.343448 0.343448
0.351762 0.351762 0.351762
0.360093 0.360093 0.360093
0.368438 0.368438 0.368438
0.376790 0.376790 0.376790
0.385143 0.385143 0.385143
0.393492 0.393492 0.393492
0.401830 0.401830 0.401830
0.410153 0.410153 0.410153
0.418452 0.418452 0.418452
0.426726 0.426726 0.426726
0.434963 0.434963 0.434963
0.443163 0.443163 0.443163
0.451317 0.451317 0.451317
0.467510 0.467510 0.467510
0.483597 0.483597 0.483597
0.499553 0.499553 0.499553
0.515345 0.515345 0.515345
0.531118 0.531118 0.531118
0.547109 0.547109 0.547109
0.563280 0.563280 0.563280
0.579581 0.579581 0.579581
0.270465 0.270465 0.270465
0.278343 0.278343 0.278343
0.286292 0.286292 0.286292
0.294308 0.294308 0.294308
0.302380 0.302380 0.302380
0.310510 0.310510 0.310510
0.318686 0.318686 0.318686
0.326905 0.326905 0.326905
0.335162 0.335162 0.335162
0.343448 0.343448 0.343448
0.351762 0.351762 0.351762
0.360093 0.360093 0.360093
0.368438 0.368438 0.368438
0.376790 0.376790 0.376790
0.385143 0.385143 0.385143
0.393492 0.393492 0.393492
0.401830 0.401830 0.401830
0.410153 0.410153 0.410153
0.418452 0.418452 0.418452
0.426726 0.426726 0.426726
0.434963 0.434963 0.434963
0.443163 0.443163 0.443163
0.451317 0.451317 0.451317
0.459426 0.459426 0.459426
0.467510 0.467510 0.467510
0.475567 0.475567 0.475567
0.491593 0.491593 0.491593
0.507473 0.507473 0.507473
0.523203 0.523203 0.523203
0.539088 0.539088 0.539088
0.555177 0.555177 0.555177
0.571418 0.571418 0.571418
0.587773 0.587773 0.587773
0.286292 0.286292 0.286292
0.294308 0.294308 0.294308
0.302380 0.302380 0.302380
0.310510 0.310510 0.310510
0.318686 0.318686 0.318686
0.326905 0.326905 0.326905
0.335162 0.335162 0.335162
0.343448 0.343448 0.343448
0.351762 0.351762 0.351762
0.360093 0.360093 0.360093
0.368438 0.368438 0.368438
0.376790 0.376790 0.376790
0.385143 0.385143 0.385143
0.393492 0.393492 0.393492
0.401830 0.401830 0.401830
0.410153 0.410153 0.410153
0.418452 0.418452 0.418452
0.426726 0.426726 0.426726
0.434963 0.434963 0.434963
0.443163 0.443163 0.443163
0.451317 0.451317 0.451317
0.459426 0.459426 0.459426
