ricette/lut/Seta-100-33.cube
# LUT generata da Camera Oscura BN
# Ricetta: Seta 100
# Pellicola: acros100
# Nota: grana, vignetta e interventi locali non sono inclusi nella LUT.
TITLE "Seta 100"
LUT_3D_SIZE 5
DOMAIN_MIN 0.0 0.0 0.0
DOMAIN_MAX 1.0 1.0 1.0
0.000000 0.000000 0.000000
0.053340 0.053340 0.053340
0.140510 0.140510 0.140510
0.254940 0.254940 0.254940
0.385143 0.385143 0.385143
0.053340 0.053340 0.053340
0.091765 0.091765 0.091765
0.196088 0.196088 0.196088
0.318686 0.318686 0.318686
0.451317 0.451317 0.451317
0.140510 0.140510 0.140510
0.196088 0.196088 0.196088
0.254940 0.254940 0.254940
0.385143 0.385143 0.385143
0.515345 0.515345 0.515345
0.254940 0.254940 0.254940
0.318686 0.318686 0.318686
0.385143 0.385143 0.385143
0.451317 0.451317 0.451317
0.579581 0.579581 0.579581
0.385143 0.385143 0.385143
0.451317 0.451317 0.451317
0.515345 0.515345 0.515345
0.579581 0.579581 0.579581
0.645356 0.645356 0.645356
0.024796 0.024796 0.024796
0.140510 0.140510 0.140510
0.254940 0.254940 0.254940
0.385143 0.385143 0.385143
0.515345 0.515345 0.515345
0.091765 0.091765 0.091765
0.196088 0.196088 0.196088
0.318686 0.318686 0.318686
0.451317 0.451317 0.451317
0.579581 0.579581 0.579581
0.196088 0.196088 0.196088
0.318686 0.318686 0.318686
0.385143 0.385143 0.385143
0.515345 0.515345 0.515345
0.645356 0.645356 0.645356
0.318686 0.318686 0.318686
0.451317 0.451317 0.451317
0.515345 0.515345 0.515345
0.579581 0.579581 0.579581
0.709469 0.709469 0.709469
0.451317 0.451317 0.451317
0.579581 0.579581 0.579581
0.645356 0.645356 0.645356
0.709469 0.709469 0.709469
0.768473 0.768473 0.768473
0.053340 0.053340 0.053340
0.196088 0.196088 0.196088
0.385143 0.385143 0.385143
0.515345 0.515345 0.515345
0.645356 0.645356 0.645356
0.140510 0.140510 0.140510
0.254940 0.254940 0.254940
0.451317 0.451317 0.451317
0.579581 0.579581 0.579581
0.709469 0.709469 0.709469
0.254940 0.254940 0.254940
0.385143 0.385143 0.385143
0.515345 0.515345 0.515345
0.645356 0.645356 0.645356
0.768473 0.768473 0.768473
0.385143 0.385143 0.385143
0.515345 0.515345 0.515345
0.645356 0.645356 0.645356
0.709469 0.709469 0.709469
0.819318 0.819318 0.819318
0.515345 0.515345 0.515345
0.645356 0.645356 0.645356
0.768473 0.768473 0.768473
0.819318 0.819318 0.819318
0.862401 0.862401 0.862401
0.091765 0.091765 0.091765
0.254940 0.254940 0.254940
0.451317 0.451317 0.451317
0.645356 0.645356 0.645356
0.768473 0.768473 0.768473
0.196088 0.196088 0.196088
0.318686 0.318686 0.318686
0.515345 0.515345 0.515345
0.709469 0.709469 0.709469
0.819318 0.819318 0.819318
0.318686 0.318686 0.318686
0.451317 0.451317 0.451317
0.579581 0.579581 0.579581
0.768473 0.768473 0.768473
0.862401 0.862401 0.862401
0.451317 0.451317 0.451317
0.579581 0.579581 0.579581
0.709469 0.709469 0.709469
0.819318 0.819318 0.819318
0.900393 0.900393 0.900393
0.579581 0.579581 0.579581
0.709469 0.709469 0.709469
0.819318 0.819318 0.819318
0.900393 0.900393 0.900393
0.935399 0.935399 0.935399
0.140510 0.140510 0.140510
0.318686 0.318686 0.318686
0.515345 0.515345 0.515345
0.709469 0.709469 0.709469
0.862401 0.862401 0.862401
0.254940 0.254940 0.254940
0.385143 0.385143 0.385143
0.579581 0.579581 0.579581
0.768473 0.768473 0.768473
0.900393 0.900393 0.900393
0.385143 0.385143 0.385143
0.515345 0.515345 0.515345
0.645356 0.645356 0.645356
0.819318 0.819318 0.819318
0.935399 0.935399 0.935399
0.515345 0.515345 0.515345
0.645356 0.645356 0.645356
0.768473 0.768473 0.768473
0.862401 0.862401 0.862401
0.967019 0.967019 0.967019
0.645356 0.645356 0.645356
0.768473 0.768473 0.768473
0.862401 0.862401 0.862401
0.935399 0.935399 0.935399
0.996078 0.996078 0.996078
