ricette/lut/Stampa-al-platino-33.cube
# LUT generata da Camera Oscura BN
# Ricetta: Stampa al platino
# Pellicola: platino
# Nota: grana, vignetta e interventi locali non sono inclusi nella LUT.
TITLE "Stampa al platino"
LUT_3D_SIZE 5
DOMAIN_MIN 0.0 0.0 0.0
DOMAIN_MAX 1.0 1.0 1.0
0.170476 0.150363 0.124812
0.246201 0.225139 0.195793
0.322316 0.300300 0.267140
0.399878 0.376890 0.339843
0.478747 0.454772 0.413772
0.246201 0.225139 0.195793
0.284139 0.262602 0.231355
0.360872 0.338373 0.303280
0.439218 0.415738 0.376719
0.518319 0.493848 0.450866
0.322316 0.300300 0.267140
0.360872 0.338373 0.303280
0.399878 0.376890 0.339843
0.478747 0.454772 0.413772
0.557529 0.533342 0.489940
0.399878 0.376890 0.339843
0.439218 0.415738 0.376719
0.478747 0.454772 0.413772
0.518319 0.493848 0.450866
0.596860 0.573671 0.531267
0.478747 0.454772 0.413772
0.518319 0.493848 0.450866
0.557529 0.533342 0.489940
0.596860 0.573671 0.531267
0.636938 0.614766 0.573379
0.208360 0.187772 0.160323
0.322316 0.300300 0.267140
0.399878 0.376890 0.339843
0.478747 0.454772 0.413772
0.557529 0.533342 0.489940
0.284139 0.262602 0.231355
0.360872 0.338373 0.303280
0.439218 0.415738 0.376719
0.518319 0.493848 0.450866
0.596860 0.573671 0.531267
0.360872 0.338373 0.303280
0.439218 0.415738 0.376719
0.478747 0.454772 0.413772
0.557529 0.533342 0.489940
0.636938 0.614766 0.573379
0.439218 0.415738 0.376719
0.518319 0.493848 0.450866
0.557529 0.533342 0.489940
0.596860 0.573671 0.531267
0.677181 0.656030 0.615664
0.518319 0.493848 0.450866
0.596860 0.573671 0.531267
0.636938 0.614766 0.573379
0.677181 0.656030 0.615664
0.716698 0.696550 0.657186
0.246201 0.225139 0.195793
0.360872 0.338373 0.303280
0.478747 0.454772 0.413772
0.557529 0.533342 0.489940
0.636938 0.614766 0.573379
0.322316 0.300300 0.267140
0.399878 0.376890 0.339843
0.518319 0.493848 0.450866
0.596860 0.573671 0.531267
0.677181 0.656030 0.615664
0.399878 0.376890 0.339843
0.478747 0.454772 0.413772
0.557529 0.533342 0.489940
0.636938 0.614766 0.573379
0.716698 0.696550 0.657186
0.478747 0.454772 0.413772
0.557529 0.533342 0.489940
0.636938 0.614766 0.573379
0.677181 0.656030 0.615664
0.754593 0.735407 0.697005
0.557529 0.533342 0.489940
0.636938 0.614766 0.573379
0.716698 0.696550 0.657186
0.754593 0.735407 0.697005
0.790211 0.771929 0.734431
0.284139 0.262602 0.231355
0.399878 0.376890 0.339843
0.518319 0.493848 0.450866
0.636938 0.614766 0.573379
0.716698 0.696550 0.657186
0.360872 0.338373 0.303280
0.439218 0.415738 0.376719
0.557529 0.533342 0.489940
0.677181 0.656030 0.615664
0.754593 0.735407 0.697005
0.439218 0.415738 0.376719
0.518319 0.493848 0.450866
0.596860 0.573671 0.531267
0.716698 0.696550 0.657186
0.790211 0.771929 0.734431
0.518319 0.493848 0.450866
0.596860 0.573671 0.531267
0.677181 0.656030 0.615664
0.754593 0.735407 0.697005
0.823918 0.806490 0.769848
0.596860 0.573671 0.531267
0.677181 0.656030 0.615664
0.754593 0.735407 0.697005
0.823918 0.806490 0.769848
0.856259 0.839652 0.803830
0.322316 0.300300 0.267140
0.439218 0.415738 0.376719
0.557529 0.533342 0.489940
0.677181 0.656030 0.615664
0.790211 0.771929 0.734431
0.399878 0.376890 0.339843
0.478747 0.454772 0.413772
0.596860 0.573671 0.531267
0.716698 0.696550 0.657186
0.823918 0.806490 0.769848
0.478747 0.454772 0.413772
0.557529 0.533342 0.489940
0.636938 0.614766 0.573379
0.754593 0.735407 0.697005
0.856259 0.839652 0.803830
0.557529 0.533342 0.489940
0.636938 0.614766 0.573379
0.716698 0.696550 0.657186
0.790211 0.771929 0.734431
0.887747 0.871940 0.836916
0.636938 0.614766 0.573379
0.716698 0.696550 0.657186
0.790211 0.771929 0.734431
0.856259 0.839652 0.803830
0.918850 0.903831 0.869597
