ricette/lut/Stampa-al-platino-33.cube
# LUT generata da Camera Oscura BN
# Ricetta: Stampa al platino
# Pellicola: platino
# Nota: grana, vignetta e interventi locali non sono inclusi nella LUT.
TITLE "Stampa al platino"
LUT_3D_SIZE 9
DOMAIN_MIN 0.0 0.0 0.0
DOMAIN_MAX 1.0 1.0 1.0
0.170476 0.150363 0.124812
0.208360 0.187772 0.160323
0.246201 0.225139 0.195793
0.284139 0.262602 0.231355
0.322316 0.300300 0.267140
0.360872 0.338373 0.303280
0.399878 0.376890 0.339843
0.439218 0.415738 0.376719
0.478747 0.454772 0.413772
0.208360 0.187772 0.160323
0.227277 0.206452 0.178055
0.265149 0.243850 0.213554
0.303189 0.281413 0.249211
0.341538 0.319281 0.285157
0.380324 0.357581 0.321514
0.419515 0.396282 0.358251
0.458968 0.435241 0.395232
0.498537 0.474314 0.432323
0.246201 0.225139 0.195793
0.265149 0.243850 0.213554
0.284139 0.262602 0.231355
0.322316 0.300300 0.267140
0.360872 0.338373 0.303280
0.399878 0.376890 0.339843
0.439218 0.415738 0.376719
0.478747 0.454772 0.413772
0.518319 0.493848 0.450866
0.284139 0.262602 0.231355
0.303189 0.281413 0.249211
0.322316 0.300300 0.267140
0.341538 0.319281 0.285157
0.380324 0.357581 0.321514
0.419515 0.396282 0.358251
0.458968 0.435241 0.395232
0.498537 0.474314 0.432323
0.538063 0.513383 0.469487
0.322316 0.300300 0.267140
0.341538 0.319281 0.285157
0.360872 0.338373 0.303280
0.380324 0.357581 0.321514
0.399878 0.376890 0.339843
0.439218 0.415738 0.376719
0.478747 0.454772 0.413772
0.518319 0.493848 0.450866
0.557529 0.533342 0.489940
0.360872 0.338373 0.303280
0.380324 0.357581 0.321514
0.399878 0.376890 0.339843
0.419515 0.396282 0.358251
0.439218 0.415738 0.376719
0.458968 0.435241 0.395232
0.498537 0.474314 0.432323
0.538063 0.513383 0.469487
0.577081 0.553391 0.510485
0.399878 0.376890 0.339843
0.419515 0.396282 0.358251
0.439218 0.415738 0.376719
0.458968 0.435241 0.395232
0.478747 0.454772 0.413772
0.498537 0.474314 0.432323
0.518319 0.493848 0.450866
0.557529 0.533342 0.489940
0.596860 0.573671 0.531267
0.439218 0.415738 0.376719
0.458968 0.435241 0.395232
0.478747 0.454772 0.413772
0.498537 0.474314 0.432323
0.518319 0.493848 0.450866
0.538063 0.513383 0.469487
0.557529 0.533342 0.489940
0.577081 0.553391 0.510485
0.616824 0.594142 0.552244
0.478747 0.454772 0.413772
0.498537 0.474314 0.432323
0.518319 0.493848 0.450866
0.538063 0.513383 0.469487
0.557529 0.533342 0.489940
0.577081 0.553391 0.510485
0.596860 0.573671 0.531267
0.616824 0.594142 0.552244
0.636938 0.614766 0.573379
0.189433 0.169082 0.142580
0.246201 0.225139 0.195793
0.284139 0.262602 0.231355
0.322316 0.300300 0.267140
0.360872 0.338373 0.303280
0.399878 0.376890 0.339843
0.439218 0.415738 0.376719
0.478747 0.454772 0.413772
0.518319 0.493848 0.450866
0.227277 0.206452 0.178055
0.265149 0.243850 0.213554
0.303189 0.281413 0.249211
0.341538 0.319281 0.285157
0.380324 0.357581 0.321514
0.419515 0.396282 0.358251
0.458968 0.435241 0.395232
0.498537 0.474314 0.432323
0.538063 0.513383 0.469487
0.265149 0.243850 0.213554
0.303189 0.281413 0.249211
0.322316 0.300300 0.267140
0.360872 0.338373 0.303280
0.399878 0.376890 0.339843
0.439218 0.415738 0.376719
0.478747 0.454772 0.413772
0.518319 0.493848 0.450866
0.557529 0.533342 0.489940
0.303189 0.281413 0.249211
0.341538 0.319281 0.285157
0.360872 0.338373 0.303280
0.380324 0.357581 0.321514
0.419515 0.396282 0.358251
0.458968 0.435241 0.395232
0.498537 0.474314 0.432323
0.538063 0.513383 0.469487
0.577081 0.553391 0.510485
0.341538 0.319281 0.285157
0.380324 0.357581 0.321514
0.399878 0.376890 0.339843
0.419515 0.396282 0.358251
0.439218 0.415738 0.376719
0.478747 0.454772 0.413772
0.518319 0.493848 0.450866
0.557529 0.533342 0.489940
0.596860 0.573671 0.531267
0.380324 0.357581 0.321514
0.419515 0.396282 0.358251
0.439218 0.415738 0.376719
0.458968 0.435241 0.395232
0.478747 0.454772 0.413772
0.498537 0.474314 0.432323
0.538063 0.513383 0.469487
0.577081 0.553391 0.510485
0.616824 0.594142 0.552244
0.419515 0.396282 0.358251
0.458968 0.435241 0.395232
0.478747 0.454772 0.413772
0.498537 0.474314 0.432323
0.518319 0.493848 0.450866
0.538063 0.513383 0.469487
0.557529 0.533342 0.489940
0.596860 0.573671 0.531267
0.636938 0.614766 0.573379
0.458968 0.435241 0.395232
0.498537 0.474314 0.432323
0.518319 0.493848 0.450866
0.538063 0.513383 0.469487
0.557529 0.533342 0.489940
0.577081 0.553391 0.510485
0.596860 0.573671 0.531267
0.616824 0.594142 0.552244
0.657094 0.635434 0.594558
0.498537 0.474314 0.432323
0.538063 0.513383 0.469487
0.557529 0.533342 0.489940
0.577081 0.553391 0.510485
0.596860 0.573671 0.531267
0.616824 0.594142 0.552244
0.636938 0.614766 0.573379
0.657094 0.635434 0.594558
0.677181 0.656030 0.615664
0.208360 0.187772 0.160323
0.265149 0.243850 0.213554
0.322316 0.300300 0.267140
0.360872 0.338373 0.303280
0.399878 0.376890 0.339843
0.439218 0.415738 0.376719
0.478747 0.454772 0.413772
0.518319 0.493848 0.450866
0.557529 0.533342 0.489940
0.246201 0.225139 0.195793
0.284139 0.262602 0.231355
0.341538 0.319281 0.285157
0.380324 0.357581 0.321514
0.419515 0.396282 0.358251
0.458968 0.435241 0.395232
0.498537 0.474314 0.432323
0.538063 0.513383 0.469487
0.577081 0.553391 0.510485
0.284139 0.262602 0.231355
0.322316 0.300300 0.267140
0.360872 0.338373 0.303280
0.399878 0.376890 0.339843
0.439218 0.415738 0.376719
0.478747 0.454772 0.413772
0.518319 0.493848 0.450866
0.557529 0.533342 0.489940
0.596860 0.573671 0.531267
0.322316 0.300300 0.267140
0.360872 0.338373 0.303280
0.399878 0.376890 0.339843
0.419515 0.396282 0.358251
0.458968 0.435241 0.395232
0.498537 0.474314 0.432323
0.538063 0.513383 0.469487
0.577081 0.553391 0.510485
0.616824 0.594142 0.552244
0.360872 0.338373 0.303280
0.399878 0.376890 0.339843
0.439218 0.415738 0.376719
0.458968 0.435241 0.395232
0.478747 0.454772 0.413772
0.518319 0.493848 0.450866
0.557529 0.533342 0.489940
0.596860 0.573671 0.531267
0.636938 0.614766 0.573379
0.399878 0.376890 0.339843
0.439218 0.415738 0.376719
0.478747 0.454772 0.413772
0.498537 0.474314 0.432323
0.518319 0.493848 0.450866
0.538063 0.513383 0.469487
0.577081 0.553391 0.510485
0.616824 0.594142 0.552244
0.657094 0.635434 0.594558
0.439218 0.415738 0.376719
0.478747 0.454772 0.413772
0.518319 0.493848 0.450866
0.538063 0.513383 0.469487
0.557529 0.533342 0.489940
0.577081 0.553391 0.510485
0.596860 0.573671 0.531267
0.636938 0.614766 0.573379
0.677181 0.656030 0.615664
0.478747 0.454772 0.413772
0.518319 0.493848 0.450866
0.557529 0.533342 0.489940
0.577081 0.553391 0.510485
0.596860 0.573671 0.531267
0.616824 0.594142 0.552244
0.636938 0.614766 0.573379
0.657094 0.635434 0.594558
0.697086 0.676441 0.636580
0.518319 0.493848 0.450866
0.557529 0.533342 0.489940
0.596860 0.573671 0.531267
0.616824 0.594142 0.552244
0.636938 0.614766 0.573379
0.657094 0.635434 0.594558
0.677181 0.656030 0.615664
0.697086 0.676441 0.636580
0.716698 0.696550 0.657186
0.227277 0.206452 0.178055
0.284139 0.262602 0.231355
0.341538 0.319281 0.285157
0.399878 0.376890 0.339843
0.439218 0.415738 0.376719
0.478747 0.454772 0.413772
0.518319 0.493848 0.450866
0.557529 0.533342 0.489940
0.596860 0.573671 0.531267
0.265149 0.243850 0.213554
0.303189 0.281413 0.249211
0.360872 0.338373 0.303280
0.419515 0.396282 0.358251
0.458968 0.435241 0.395232
0.498537 0.474314 0.432323
0.538063 0.513383 0.469487
0.577081 0.553391 0.510485
0.616824 0.594142 0.552244
0.303189 0.281413 0.249211
0.341538 0.319281 0.285157
0.380324 0.357581 0.321514
0.439218 0.415738 0.376719
0.478747 0.454772 0.413772
0.518319 0.493848 0.450866
0.557529 0.533342 0.489940
0.596860 0.573671 0.531267
0.636938 0.614766 0.573379
0.341538 0.319281 0.285157
0.380324 0.357581 0.321514
0.419515 0.396282 0.358251
0.458968 0.435241 0.395232
0.498537 0.474314 0.432323
0.538063 0.513383 0.469487
0.577081 0.553391 0.510485
0.616824 0.594142 0.552244
0.657094 0.635434 0.594558
0.380324 0.357581 0.321514
0.419515 0.396282 0.358251
0.458968 0.435241 0.395232
0.498537 0.474314 0.432323
0.518319 0.493848 0.450866
0.557529 0.533342 0.489940
0.596860 0.573671 0.531267
0.636938 0.614766 0.573379
0.677181 0.656030 0.615664
0.419515 0.396282 0.358251
0.458968 0.435241 0.395232
0.498537 0.474314 0.432323
0.538063 0.513383 0.469487
0.557529 0.533342 0.489940
0.577081 0.553391 0.510485
0.616824 0.594142 0.552244
0.657094 0.635434 0.594558
0.697086 0.676441 0.636580
0.458968 0.435241 0.395232
0.498537 0.474314 0.432323
0.538063 0.513383 0.469487
0.577081 0.553391 0.510485
0.596860 0.573671 0.531267
0.616824 0.594142 0.552244
0.636938 0.614766 0.573379
0.677181 0.656030 0.615664
0.716698 0.696550 0.657186
0.498537 0.474314 0.432323
0.538063 0.513383 0.469487
0.577081 0.553391 0.510485
0.616824 0.594142 0.552244
0.636938 0.614766 0.573379
0.657094 0.635434 0.594558
0.677181 0.656030 0.615664
0.697086 0.676441 0.636580
0.735904 0.716244 0.677368
0.538063 0.513383 0.469487
0.577081 0.553391 0.510485
0.616824 0.594142 0.552244
0.657094 0.635434 0.594558
0.677181 0.656030 0.615664
0.697086 0.676441 0.636580
0.716698 0.696550 0.657186
0.735904 0.716244 0.677368
0.754593 0.735407 0.697005
0.246201 0.225139 0.195793
0.303189 0.281413 0.249211
0.360872 0.338373 0.303280
0.419515 0.396282 0.358251
0.478747 0.454772 0.413772
0.518319 0.493848 0.450866
0.557529 0.533342 0.489940
0.596860 0.573671 0.531267
0.636938 0.614766 0.573379
0.284139 0.262602 0.231355
0.322316 0.300300 0.267140
0.380324 0.357581 0.321514
0.439218 0.415738 0.376719
0.498537 0.474314 0.432323
0.538063 0.513383 0.469487
0.577081 0.553391 0.510485
0.616824 0.594142 0.552244
0.657094 0.635434 0.594558
0.322316 0.300300 0.267140
0.360872 0.338373 0.303280
0.399878 0.376890 0.339843
0.458968 0.435241 0.395232
0.518319 0.493848 0.450866
0.557529 0.533342 0.489940
0.596860 0.573671 0.531267
0.636938 0.614766 0.573379
0.677181 0.656030 0.615664
0.360872 0.338373 0.303280
0.399878 0.376890 0.339843
0.439218 0.415738 0.376719
0.478747 0.454772 0.413772
0.538063 0.513383 0.469487
0.577081 0.553391 0.510485
0.616824 0.594142 0.552244
0.657094 0.635434 0.594558
0.697086 0.676441 0.636580
0.399878 0.376890 0.339843
0.439218 0.415738 0.376719
0.478747 0.454772 0.413772
0.518319 0.493848 0.450866
0.557529 0.533342 0.489940
0.596860 0.573671 0.531267
0.636938 0.614766 0.573379
0.677181 0.656030 0.615664
0.716698 0.696550 0.657186
0.439218 0.415738 0.376719
0.478747 0.454772 0.413772
0.518319 0.493848 0.450866
0.557529 0.533342 0.489940
0.596860 0.573671 0.531267
0.616824 0.594142 0.552244
0.657094 0.635434 0.594558
0.697086 0.676441 0.636580
0.735904 0.716244 0.677368
0.478747 0.454772 0.413772
0.518319 0.493848 0.450866
0.557529 0.533342 0.489940
0.596860 0.573671 0.531267
0.636938 0.614766 0.573379
0.657094 0.635434 0.594558
0.677181 0.656030 0.615664
0.716698 0.696550 0.657186
0.754593 0.735407 0.697005
0.518319 0.493848 0.450866
0.557529 0.533342 0.489940
0.596860 0.573671 0.531267
0.636938 0.614766 0.573379
0.677181 0.656030 0.615664
0.697086 0.676441 0.636580
0.716698 0.696550 0.657186
0.735904 0.716244 0.677368
0.772676 0.753949 0.716006
0.557529 0.533342 0.489940
0.596860 0.573671 0.531267
0.636938 0.614766 0.573379
0.677181 0.656030 0.615664
0.716698 0.696550 0.657186
0.735904 0.716244 0.677368
0.754593 0.735407 0.697005
0.772676 0.753949 0.716006
0.790211 0.771929 0.734431
0.265149 0.243850 0.213554
0.322316 0.300300 0.267140
0.380324 0.357581 0.321514
0.439218 0.415738 0.376719
0.498537 0.474314 0.432323
0.557529 0.533342 0.489940
0.596860 0.573671 0.531267
0.636938 0.614766 0.573379
0.677181 0.656030 0.615664
0.303189 0.281413 0.249211
0.341538 0.319281 0.285157
0.399878 0.376890 0.339843
0.458968 0.435241 0.395232
0.518319 0.493848 0.450866
0.577081 0.553391 0.510485
0.616824 0.594142 0.552244
0.657094 0.635434 0.594558
0.697086 0.676441 0.636580
0.341538 0.319281 0.285157
0.380324 0.357581 0.321514
0.419515 0.396282 0.358251
0.478747 0.454772 0.413772
0.538063 0.513383 0.469487
0.596860 0.573671 0.531267
0.636938 0.614766 0.573379
0.677181 0.656030 0.615664
0.716698 0.696550 0.657186
0.380324 0.357581 0.321514
0.419515 0.396282 0.358251
0.458968 0.435241 0.395232
0.498537 0.474314 0.432323
0.557529 0.533342 0.489940
0.616824 0.594142 0.552244
0.657094 0.635434 0.594558
0.697086 0.676441 0.636580
0.735904 0.716244 0.677368
0.419515 0.396282 0.358251
0.458968 0.435241 0.395232
0.498537 0.474314 0.432323
0.538063 0.513383 0.469487
0.577081 0.553391 0.510485
0.636938 0.614766 0.573379
0.677181 0.656030 0.615664
0.716698 0.696550 0.657186
0.754593 0.735407 0.697005
0.458968 0.435241 0.395232
0.498537 0.474314 0.432323
0.538063 0.513383 0.469487
0.577081 0.553391 0.510485
0.616824 0.594142 0.552244
0.657094 0.635434 0.594558
0.697086 0.676441 0.636580
0.735904 0.716244 0.677368
0.772676 0.753949 0.716006
0.498537 0.474314 0.432323
0.538063 0.513383 0.469487
0.577081 0.553391 0.510485
0.616824 0.594142 0.552244
0.657094 0.635434 0.594558
0.697086 0.676441 0.636580
0.716698 0.696550 0.657186
0.754593 0.735407 0.697005
0.790211 0.771929 0.734431
0.538063 0.513383 0.469487
0.577081 0.553391 0.510485
0.616824 0.594142 0.552244
0.657094 0.635434 0.594558
0.697086 0.676441 0.636580
0.735904 0.716244 0.677368
0.754593 0.735407 0.697005
0.772676 0.753949 0.716006
0.807268 0.789418 0.752353
0.577081 0.553391 0.510485
0.616824 0.594142 0.552244
0.657094 0.635434 0.594558
0.697086 0.676441 0.636580
0.735904 0.716244 0.677368
0.772676 0.753949 0.716006
0.790211 0.771929 0.734431
0.807268 0.789418 0.752353
0.823918 0.806490 0.769848
0.284139 0.262602 0.231355
0.341538 0.319281 0.285157
0.399878 0.376890 0.339843
0.458968 0.435241 0.395232
0.518319 0.493848 0.450866
0.577081 0.553391 0.510485
0.636938 0.614766 0.573379
0.677181 0.656030 0.615664
0.716698 0.696550 0.657186
0.322316 0.300300 0.267140
0.360872 0.338373 0.303280
0.419515 0.396282 0.358251
0.478747 0.454772 0.413772
0.538063 0.513383 0.469487
0.596860 0.573671 0.531267
0.657094 0.635434 0.594558
0.697086 0.676441 0.636580
0.735904 0.716244 0.677368
0.360872 0.338373 0.303280
0.399878 0.376890 0.339843
0.439218 0.415738 0.376719
0.498537 0.474314 0.432323
0.557529 0.533342 0.489940
0.616824 0.594142 0.552244
0.677181 0.656030 0.615664
0.716698 0.696550 0.657186
0.754593 0.735407 0.697005
0.399878 0.376890 0.339843
0.439218 0.415738 0.376719
0.478747 0.454772 0.413772
0.518319 0.493848 0.450866
0.577081 0.553391 0.510485
0.636938 0.614766 0.573379
0.697086 0.676441 0.636580
0.735904 0.716244 0.677368
0.772676 0.753949 0.716006
0.439218 0.415738 0.376719
0.478747 0.454772 0.413772
0.518319 0.493848 0.450866
0.557529 0.533342 0.489940
0.596860 0.573671 0.531267
0.657094 0.635434 0.594558
0.716698 0.696550 0.657186
0.754593 0.735407 0.697005
0.790211 0.771929 0.734431
0.478747 0.454772 0.413772
0.518319 0.493848 0.450866
0.557529 0.533342 0.489940
0.596860 0.573671 0.531267
0.636938 0.614766 0.573379
0.677181 0.656030 0.615664
0.735904 0.716244 0.677368
0.772676 0.753949 0.716006
0.807268 0.789418 0.752353
0.518319 0.493848 0.450866
0.557529 0.533342 0.489940
0.596860 0.573671 0.531267
0.636938 0.614766 0.573379
0.677181 0.656030 0.615664
0.716698 0.696550 0.657186
0.754593 0.735407 0.697005
0.790211 0.771929 0.734431
0.823918 0.806490 0.769848
0.557529 0.533342 0.489940
0.596860 0.573671 0.531267
0.636938 0.614766 0.573379
0.677181 0.656030 0.615664
0.716698 0.696550 0.657186
0.754593 0.735407 0.697005
0.790211 0.771929 0.734431
0.807268 0.789418 0.752353
0.840226 0.823213 0.786984
0.596860 0.573671 0.531267
0.636938 0.614766 0.573379
0.677181 0.656030 0.615664
0.716698 0.696550 0.657186
0.754593 0.735407 0.697005
0.790211 0.771929 0.734431
0.823918 0.806490 0.769848
0.840226 0.823213 0.786984
0.856259 0.839652 0.803830
0.303189 0.281413 0.249211
0.360872 0.338373 0.303280
0.419515 0.396282 0.358251
0.478747 0.454772 0.413772
0.538063 0.513383 0.469487
0.596860 0.573671 0.531267
0.657094 0.635434 0.594558
0.716698 0.696550 0.657186
0.754593 0.735407 0.697005
0.341538 0.319281 0.285157
0.380324 0.357581 0.321514
0.439218 0.415738 0.376719
0.498537 0.474314 0.432323
0.557529 0.533342 0.489940
0.616824 0.594142 0.552244
0.677181 0.656030 0.615664
0.735904 0.716244 0.677368
0.772676 0.753949 0.716006
0.380324 0.357581 0.321514
0.419515 0.396282 0.358251
0.458968 0.435241 0.395232
0.518319 0.493848 0.450866
0.577081 0.553391 0.510485
0.636938 0.614766 0.573379
0.697086 0.676441 0.636580
0.754593 0.735407 0.697005
0.790211 0.771929 0.734431
0.419515 0.396282 0.358251
0.458968 0.435241 0.395232
0.498537 0.474314 0.432323
0.538063 0.513383 0.469487
0.596860 0.573671 0.531267
0.657094 0.635434 0.594558
0.716698 0.696550 0.657186
0.772676 0.753949 0.716006
0.807268 0.789418 0.752353
0.458968 0.435241 0.395232
0.498537 0.474314 0.432323
0.538063 0.513383 0.469487
0.577081 0.553391 0.510485
0.616824 0.594142 0.552244
0.677181 0.656030 0.615664
0.735904 0.716244 0.677368
0.790211 0.771929 0.734431
0.823918 0.806490 0.769848
0.498537 0.474314 0.432323
0.538063 0.513383 0.469487
0.577081 0.553391 0.510485
0.616824 0.594142 0.552244
0.657094 0.635434 0.594558
0.697086 0.676441 0.636580
0.754593 0.735407 0.697005
0.807268 0.789418 0.752353
0.840226 0.823213 0.786984
0.538063 0.513383 0.469487
0.577081 0.553391 0.510485
0.616824 0.594142 0.552244
0.657094 0.635434 0.594558
0.697086 0.676441 0.636580
0.735904 0.716244 0.677368
0.772676 0.753949 0.716006
0.823918 0.806490 0.769848
0.856259 0.839652 0.803830
0.577081 0.553391 0.510485
0.616824 0.594142 0.552244
0.657094 0.635434 0.594558
0.697086 0.676441 0.636580
0.735904 0.716244 0.677368
0.772676 0.753949 0.716006
0.807268 0.789418 0.752353
0.840226 0.823213 0.786984
0.872079 0.855874 0.820453
0.616824 0.594142 0.552244
0.657094 0.635434 0.594558
0.697086 0.676441 0.636580
0.735904 0.716244 0.677368
0.772676 0.753949 0.716006
0.807268 0.789418 0.752353
0.840226 0.823213 0.786984
0.872079 0.855874 0.820453
0.887747 0.871940 0.836916
0.322316 0.300300 0.267140
0.380324 0.357581 0.321514
0.439218 0.415738 0.376719
0.498537 0.474314 0.432323
0.557529 0.533342 0.489940
0.616824 0.594142 0.552244
0.677181 0.656030 0.615664
0.735904 0.716244 0.677368
0.790211 0.771929 0.734431
0.360872 0.338373 0.303280
0.399878 0.376890 0.339843
0.458968 0.435241 0.395232
0.518319 0.493848 0.450866
0.577081 0.553391 0.510485
0.636938 0.614766 0.573379
0.697086 0.676441 0.636580
0.754593 0.735407 0.697005
0.807268 0.789418 0.752353
0.399878 0.376890 0.339843
0.439218 0.415738 0.376719
0.478747 0.454772 0.413772
0.538063 0.513383 0.469487
0.596860 0.573671 0.531267
0.657094 0.635434 0.594558
0.716698 0.696550 0.657186
0.772676 0.753949 0.716006
0.823918 0.806490 0.769848
0.439218 0.415738 0.376719
0.478747 0.454772 0.413772
0.518319 0.493848 0.450866
0.557529 0.533342 0.489940
0.616824 0.594142 0.552244
0.677181 0.656030 0.615664
0.735904 0.716244 0.677368
0.790211 0.771929 0.734431
0.840226 0.823213 0.786984
0.478747 0.454772 0.413772
0.518319 0.493848 0.450866
0.557529 0.533342 0.489940
0.596860 0.573671 0.531267
0.636938 0.614766 0.573379
0.697086 0.676441 0.636580
0.754593 0.735407 0.697005
0.807268 0.789418 0.752353
0.856259 0.839652 0.803830
0.518319 0.493848 0.450866
0.557529 0.533342 0.489940
0.596860 0.573671 0.531267
0.636938 0.614766 0.573379
0.677181 0.656030 0.615664
0.716698 0.696550 0.657186
0.772676 0.753949 0.716006
0.823918 0.806490 0.769848
0.872079 0.855874 0.820453
0.557529 0.533342 0.489940
0.596860 0.573671 0.531267
0.636938 0.614766 0.573379
0.677181 0.656030 0.615664
0.716698 0.696550 0.657186
0.754593 0.735407 0.697005
0.790211 0.771929 0.734431
0.840226 0.823213 0.786984
0.887747 0.871940 0.836916
0.596860 0.573671 0.531267
0.636938 0.614766 0.573379
0.677181 0.656030 0.615664
0.716698 0.696550 0.657186
0.754593 0.735407 0.697005
0.790211 0.771929 0.734431
0.823918 0.806490 0.769848
0.856259 0.839652 0.803830
0.903320 0.887907 0.853279
0.636938 0.614766 0.573379
0.677181 0.656030 0.615664
0.716698 0.696550 0.657186
0.754593 0.735407 0.697005
0.790211 0.771929 0.734431
0.823918 0.806490 0.769848
0.856259 0.839652 0.803830
0.887747 0.871940 0.836916
0.918850 0.903831 0.869597
