ricette/lut/Stampa-al-platino-33.cube
# LUT generata da Camera Oscura BN
# Ricetta: Stampa al platino
# Pellicola: platino
# Nota: grana, vignetta e interventi locali non sono inclusi nella LUT.
TITLE "Stampa al platino"
LUT_3D_SIZE 33
DOMAIN_MIN 0.0 0.0 0.0
DOMAIN_MAX 1.0 1.0 1.0
0.170476 0.150363 0.124812
0.179959 0.159727 0.133700
0.189433 0.169082 0.142580
0.198899 0.178429 0.151454
0.208360 0.187772 0.160323
0.217819 0.197113 0.169189
0.227277 0.206452 0.178055
0.236737 0.215794 0.186922
0.246201 0.225139 0.195793
0.255671 0.234490 0.204670
0.265149 0.243850 0.213554
0.274638 0.253219 0.222448
0.284139 0.262602 0.231355
0.293655 0.271999 0.240275
0.303189 0.281413 0.249211
0.312741 0.290846 0.258165
0.322316 0.300300 0.267140
0.331914 0.309778 0.276136
0.341538 0.319281 0.285157
0.351189 0.328812 0.294205
0.360872 0.338373 0.303280
0.370584 0.347963 0.312384
0.380324 0.357581 0.321514
0.390089 0.367224 0.330668
0.399878 0.376890 0.339843
0.409687 0.386577 0.349038
0.419515 0.396282 0.358251
0.429359 0.406003 0.367478
0.439218 0.415738 0.376719
0.449088 0.425485 0.385971
0.458968 0.435241 0.395232
0.468855 0.445004 0.404500
0.478747 0.454772 0.413772
0.179959 0.159727 0.133700
0.184697 0.164405 0.138141
0.194167 0.173756 0.147018
0.203630 0.183101 0.155889
0.213090 0.192443 0.164756
0.222548 0.201782 0.173622
0.232007 0.211123 0.182488
0.241468 0.220466 0.191357
0.250935 0.229814 0.200230
0.260409 0.239169 0.209111
0.269892 0.248533 0.218000
0.279387 0.257909 0.226900
0.288895 0.267298 0.235813
0.298420 0.276703 0.244741
0.307963 0.286127 0.253686
0.317526 0.295570 0.262650
0.327112 0.305036 0.271635
0.336722 0.314526 0.280644
0.346360 0.324043 0.289677
0.356027 0.333589 0.298739
0.365724 0.343165 0.307829
0.375450 0.352769 0.316946
0.385203 0.362400 0.326088
0.394980 0.372055 0.335253
0.404780 0.381731 0.344438
0.414599 0.391427 0.353642
0.424436 0.401141 0.362863
0.434287 0.410869 0.372097
0.444152 0.420610 0.381344
0.454027 0.430362 0.390601
0.463911 0.440122 0.399866
0.473801 0.449887 0.409136
0.483694 0.459657 0.418410
0.189433 0.169082 0.142580
0.194167 0.173756 0.147018
0.198899 0.178429 0.151454
0.208360 0.187772 0.160323
0.217819 0.197113 0.169189
0.227277 0.206452 0.178055
0.236737 0.215794 0.186922
0.246201 0.225139 0.195793
0.255671 0.234490 0.204670
0.265149 0.243850 0.213554
0.274638 0.253219 0.222448
0.284139 0.262602 0.231355
0.293655 0.271999 0.240275
0.303189 0.281413 0.249211
0.312741 0.290846 0.258165
0.322316 0.300300 0.267140
0.331914 0.309778 0.276136
0.341538 0.319281 0.285157
0.351189 0.328812 0.294205
0.360872 0.338373 0.303280
0.370584 0.347963 0.312384
0.380324 0.357581 0.321514
0.390089 0.367224 0.330668
0.399878 0.376890 0.339843
0.409687 0.386577 0.349038
0.419515 0.396282 0.358251
0.429359 0.406003 0.367478
0.439218 0.415738 0.376719
0.449088 0.425485 0.385971
0.458968 0.435241 0.395232
0.468855 0.445004 0.404500
0.478747 0.454772 0.413772
0.488642 0.464543 0.423047
0.198899 0.178429 0.151454
0.203630 0.183101 0.155889
0.208360 0.187772 0.160323
0.213090 0.192443 0.164756
0.222548 0.201782 0.173622
0.232007 0.211123 0.182488
0.241468 0.220466 0.191357
0.250935 0.229814 0.200230
0.260409 0.239169 0.209111
0.269892 0.248533 0.218000
0.279387 0.257909 0.226900
0.288895 0.267298 0.235813
0.298420 0.276703 0.244741
0.307963 0.286127 0.253686
0.317526 0.295570 0.262650
0.327112 0.305036 0.271635
0.336722 0.314526 0.280644
0.346360 0.324043 0.289677
0.356027 0.333589 0.298739
0.365724 0.343165 0.307829
0.375450 0.352769 0.316946
0.385203 0.362400 0.326088
0.394980 0.372055 0.335253
0.404780 0.381731 0.344438
0.414599 0.391427 0.353642
0.424436 0.401141 0.362863
0.434287 0.410869 0.372097
0.444152 0.420610 0.381344
0.454027 0.430362 0.390601
0.463911 0.440122 0.399866
0.473801 0.449887 0.409136
0.483694 0.459657 0.418410
0.493590 0.469428 0.427685
0.208360 0.187772 0.160323
0.213090 0.192443 0.164756
0.217819 0.197113 0.169189
0.222548 0.201782 0.173622
0.227277 0.206452 0.178055
0.236737 0.215794 0.186922
0.246201 0.225139 0.195793
0.255671 0.234490 0.204670
0.265149 0.243850 0.213554
0.274638 0.253219 0.222448
0.284139 0.262602 0.231355
0.293655 0.271999 0.240275
0.303189 0.281413 0.249211
0.312741 0.290846 0.258165
0.322316 0.300300 0.267140
0.331914 0.309778 0.276136
0.341538 0.319281 0.285157
0.351189 0.328812 0.294205
0.360872 0.338373 0.303280
0.370584 0.347963 0.312384
0.380324 0.357581 0.321514
0.390089 0.367224 0.330668
0.399878 0.376890 0.339843
0.409687 0.386577 0.349038
0.419515 0.396282 0.358251
0.429359 0.406003 0.367478
0.439218 0.415738 0.376719
0.449088 0.425485 0.385971
0.458968 0.435241 0.395232
0.468855 0.445004 0.404500
0.478747 0.454772 0.413772
0.488642 0.464543 0.423047
0.498537 0.474314 0.432323
0.217819 0.197113 0.169189
0.222548 0.201782 0.173622
0.227277 0.206452 0.178055
0.232007 0.211123 0.182488
0.236737 0.215794 0.186922
0.241468 0.220466 0.191357
0.250935 0.229814 0.200230
0.260409 0.239169 0.209111
0.269892 0.248533 0.218000
0.279387 0.257909 0.226900
0.288895 0.267298 0.235813
0.298420 0.276703 0.244741
0.307963 0.286127 0.253686
0.317526 0.295570 0.262650
0.327112 0.305036 0.271635
0.336722 0.314526 0.280644
0.346360 0.324043 0.289677
0.356027 0.333589 0.298739
0.365724 0.343165 0.307829
0.375450 0.352769 0.316946
0.385203 0.362400 0.326088
0.394980 0.372055 0.335253
0.404780 0.381731 0.344438
0.414599 0.391427 0.353642
0.424436 0.401141 0.362863
0.434287 0.410869 0.372097
0.444152 0.420610 0.381344
0.454027 0.430362 0.390601
0.463911 0.440122 0.399866
0.473801 0.449887 0.409136
0.483694 0.459657 0.418410
0.493590 0.469428 0.427685
0.503484 0.479199 0.436960
0.227277 0.206452 0.178055
0.232007 0.211123 0.182488
0.236737 0.215794 0.186922
0.241468 0.220466 0.191357
0.246201 0.225139 0.195793
0.250935 0.229814 0.200230
0.255671 0.234490 0.204670
0.265149 0.243850 0.213554
0.274638 0.253219 0.222448
0.284139 0.262602 0.231355
0.293655 0.271999 0.240275
0.303189 0.281413 0.249211
0.312741 0.290846 0.258165
0.322316 0.300300 0.267140
0.331914 0.309778 0.276136
0.341538 0.319281 0.285157
0.351189 0.328812 0.294205
0.360872 0.338373 0.303280
0.370584 0.347963 0.312384
0.380324 0.357581 0.321514
0.390089 0.367224 0.330668
0.399878 0.376890 0.339843
0.409687 0.386577 0.349038
0.419515 0.396282 0.358251
0.429359 0.406003 0.367478
0.439218 0.415738 0.376719
0.449088 0.425485 0.385971
0.458968 0.435241 0.395232
0.468855 0.445004 0.404500
0.478747 0.454772 0.413772
0.488642 0.464543 0.423047
0.498537 0.474314 0.432323
0.508430 0.484083 0.441596
0.236737 0.215794 0.186922
0.241468 0.220466 0.191357
0.246201 0.225139 0.195793
0.250935 0.229814 0.200230
0.255671 0.234490 0.204670
0.260409 0.239169 0.209111
0.265149 0.243850 0.213554
0.269892 0.248533 0.218000
0.279387 0.257909 0.226900
0.288895 0.267298 0.235813
0.298420 0.276703 0.244741
0.307963 0.286127 0.253686
0.317526 0.295570 0.262650
0.327112 0.305036 0.271635
0.336722 0.314526 0.280644
0.346360 0.324043 0.289677
0.356027 0.333589 0.298739
0.365724 0.343165 0.307829
0.375450 0.352769 0.316946
0.385203 0.362400 0.326088
0.394980 0.372055 0.335253
0.404780 0.381731 0.344438
0.414599 0.391427 0.353642
0.424436 0.401141 0.362863
0.434287 0.410869 0.372097
0.444152 0.420610 0.381344
0.454027 0.430362 0.390601
0.463911 0.440122 0.399866
0.473801 0.449887 0.409136
0.483694 0.459657 0.418410
0.493590 0.469428 0.427685
0.503484 0.479199 0.436960
0.513376 0.488966 0.446232
0.246201 0.225139 0.195793
0.250935 0.229814 0.200230
0.255671 0.234490 0.204670
0.260409 0.239169 0.209111
0.265149 0.243850 0.213554
0.269892 0.248533 0.218000
0.274638 0.253219 0.222448
0.279387 0.257909 0.226900
0.284139 0.262602 0.231355
0.293655 0.271999 0.240275
0.303189 0.281413 0.249211
0.312741 0.290846 0.258165
0.322316 0.300300 0.267140
0.331914 0.309778 0.276136
0.341538 0.319281 0.285157
0.351189 0.328812 0.294205
0.360872 0.338373 0.303280
0.370584 0.347963 0.312384
0.380324 0.357581 0.321514
0.390089 0.367224 0.330668
0.399878 0.376890 0.339843
0.409687 0.386577 0.349038
0.419515 0.396282 0.358251
0.429359 0.406003 0.367478
0.439218 0.415738 0.376719
0.449088 0.425485 0.385971
0.458968 0.435241 0.395232
0.468855 0.445004 0.404500
0.478747 0.454772 0.413772
0.488642 0.464543 0.423047
0.498537 0.474314 0.432323
0.508430 0.484083 0.441596
0.518319 0.493848 0.450866
0.255671 0.234490 0.204670
0.260409 0.239169 0.209111
0.265149 0.243850 0.213554
0.269892 0.248533 0.218000
0.274638 0.253219 0.222448
0.279387 0.257909 0.226900
0.284139 0.262602 0.231355
0.288895 0.267298 0.235813
0.293655 0.271999 0.240275
0.298420 0.276703 0.244741
0.307963 0.286127 0.253686
0.317526 0.295570 0.262650
0.327112 0.305036 0.271635
0.336722 0.314526 0.280644
0.346360 0.324043 0.289677
0.356027 0.333589 0.298739
0.365724 0.343165 0.307829
0.375450 0.352769 0.316946
0.385203 0.362400 0.326088
0.394980 0.372055 0.335253
0.404780 0.381731 0.344438
0.414599 0.391427 0.353642
0.424436 0.401141 0.362863
0.434287 0.410869 0.372097
0.444152 0.420610 0.381344
0.454027 0.430362 0.390601
0.463911 0.440122 0.399866
0.473801 0.449887 0.409136
0.483694 0.459657 0.418410
0.493590 0.469428 0.427685
0.503484 0.479199 0.436960
0.513376 0.488966 0.446232
0.523262 0.498729 0.455499
0.265149 0.243850 0.213554
0.269892 0.248533 0.218000
0.274638 0.253219 0.222448
0.279387 0.257909 0.226900
0.284139 0.262602 0.231355
0.288895 0.267298 0.235813
0.293655 0.271999 0.240275
0.298420 0.276703 0.244741
0.303189 0.281413 0.249211
0.307963 0.286127 0.253686
0.312741 0.290846 0.258165
0.322316 0.300300 0.267140
0.331914 0.309778 0.276136
0.341538 0.319281 0.285157
0.351189 0.328812 0.294205
0.360872 0.338373 0.303280
0.370584 0.347963 0.312384
0.380324 0.357581 0.321514
0.390089 0.367224 0.330668
0.399878 0.376890 0.339843
0.409687 0.386577 0.349038
0.419515 0.396282 0.358251
0.429359 0.406003 0.367478
0.439218 0.415738 0.376719
0.449088 0.425485 0.385971
0.458968 0.435241 0.395232
0.468855 0.445004 0.404500
0.478747 0.454772 0.413772
0.488642 0.464543 0.423047
0.498537 0.474314 0.432323
0.508430 0.484083 0.441596
0.518319 0.493848 0.450866
0.528202 0.503607 0.460129
0.274638 0.253219 0.222448
0.279387 0.257909 0.226900
0.284139 0.262602 0.231355
0.288895 0.267298 0.235813
0.293655 0.271999 0.240275
0.298420 0.276703 0.244741
0.303189 0.281413 0.249211
0.307963 0.286127 0.253686
0.312741 0.290846 0.258165
0.317526 0.295570 0.262650
0.322316 0.300300 0.267140
0.327112 0.305036 0.271635
0.336722 0.314526 0.280644
0.346360 0.324043 0.289677
0.356027 0.333589 0.298739
0.365724 0.343165 0.307829
0.375450 0.352769 0.316946
0.385203 0.362400 0.326088
0.394980 0.372055 0.335253
0.404780 0.381731 0.344438
0.414599 0.391427 0.353642
0.424436 0.401141 0.362863
0.434287 0.410869 0.372097
0.444152 0.420610 0.381344
0.454027 0.430362 0.390601
0.463911 0.440122 0.399866
0.473801 0.449887 0.409136
0.483694 0.459657 0.418410
0.493590 0.469428 0.427685
0.503484 0.479199 0.436960
0.513376 0.488966 0.446232
0.523262 0.498729 0.455499
0.533140 0.508483 0.464758
0.284139 0.262602 0.231355
0.288895 0.267298 0.235813
0.293655 0.271999 0.240275
0.298420 0.276703 0.244741
0.303189 0.281413 0.249211
0.307963 0.286127 0.253686
0.312741 0.290846 0.258165
0.317526 0.295570 0.262650
0.322316 0.300300 0.267140
0.327112 0.305036 0.271635
0.331914 0.309778 0.276136
0.336722 0.314526 0.280644
0.341538 0.319281 0.285157
0.351189 0.328812 0.294205
0.360872 0.338373 0.303280
0.370584 0.347963 0.312384
0.380324 0.357581 0.321514
0.390089 0.367224 0.330668
0.399878 0.376890 0.339843
0.409687 0.386577 0.349038
0.419515 0.396282 0.358251
0.429359 0.406003 0.367478
0.439218 0.415738 0.376719
0.449088 0.425485 0.385971
0.458968 0.435241 0.395232
0.468855 0.445004 0.404500
0.478747 0.454772 0.413772
0.488642 0.464543 0.423047
0.498537 0.474314 0.432323
0.508430 0.484083 0.441596
0.518319 0.493848 0.450866
0.528202 0.503607 0.460129
0.538063 0.513383 0.469487
0.293655 0.271999 0.240275
0.298420 0.276703 0.244741
0.303189 0.281413 0.249211
0.307963 0.286127 0.253686
0.312741 0.290846 0.258165
0.317526 0.295570 0.262650
0.322316 0.300300 0.267140
0.327112 0.305036 0.271635
0.331914 0.309778 0.276136
0.336722 0.314526 0.280644
0.341538 0.319281 0.285157
0.346360 0.324043 0.289677
0.351189 0.328812 0.294205
0.356027 0.333589 0.298739
0.365724 0.343165 0.307829
0.375450 0.352769 0.316946
0.385203 0.362400 0.326088
0.394980 0.372055 0.335253
0.404780 0.381731 0.344438
0.414599 0.391427 0.353642
0.424436 0.401141 0.362863
0.434287 0.410869 0.372097
0.444152 0.420610 0.381344
0.454027 0.430362 0.390601
0.463911 0.440122 0.399866
0.473801 0.449887 0.409136
0.483694 0.459657 0.418410
0.493590 0.469428 0.427685
0.503484 0.479199 0.436960
0.513376 0.488966 0.446232
0.523262 0.498729 0.455499
0.533140 0.508483 0.464758
0.542935 0.518378 0.474605
0.303189 0.281413 0.249211
0.307963 0.286127 0.253686
0.312741 0.290846 0.258165
0.317526 0.295570 0.262650
0.322316 0.300300 0.267140
0.327112 0.305036 0.271635
0.331914 0.309778 0.276136
0.336722 0.314526 0.280644
0.341538 0.319281 0.285157
0.346360 0.324043 0.289677
0.351189 0.328812 0.294205
0.356027 0.333589 0.298739
0.360872 0.338373 0.303280
0.365724 0.343165 0.307829
0.370584 0.347963 0.312384
0.380324 0.357581 0.321514
0.390089 0.367224 0.330668
0.399878 0.376890 0.339843
0.409687 0.386577 0.349038
0.419515 0.396282 0.358251
0.429359 0.406003 0.367478
0.439218 0.415738 0.376719
0.449088 0.425485 0.385971
0.458968 0.435241 0.395232
0.468855 0.445004 0.404500
0.478747 0.454772 0.413772
0.488642 0.464543 0.423047
0.498537 0.474314 0.432323
0.508430 0.484083 0.441596
0.518319 0.493848 0.450866
0.528202 0.503607 0.460129
0.538063 0.513383 0.469487
0.547803 0.523369 0.479720
0.312741 0.290846 0.258165
0.317526 0.295570 0.262650
0.322316 0.300300 0.267140
0.327112 0.305036 0.271635
0.331914 0.309778 0.276136
0.336722 0.314526 0.280644
0.341538 0.319281 0.285157
0.346360 0.324043 0.289677
0.351189 0.328812 0.294205
0.356027 0.333589 0.298739
0.360872 0.338373 0.303280
0.365724 0.343165 0.307829
0.370584 0.347963 0.312384
0.375450 0.352769 0.316946
0.380324 0.357581 0.321514
0.385203 0.362400 0.326088
0.394980 0.372055 0.335253
0.404780 0.381731 0.344438
0.414599 0.391427 0.353642
0.424436 0.401141 0.362863
0.434287 0.410869 0.372097
0.444152 0.420610 0.381344
0.454027 0.430362 0.390601
0.463911 0.440122 0.399866
0.473801 0.449887 0.409136
0.483694 0.459657 0.418410
0.493590 0.469428 0.427685
0.503484 0.479199 0.436960
0.513376 0.488966 0.446232
0.523262 0.498729 0.455499
0.533140 0.508483 0.464758
0.542935 0.518378 0.474605
0.552668 0.528358 0.484832
0.322316 0.300300 0.267140
0.327112 0.305036 0.271635
0.331914 0.309778 0.276136
0.336722 0.314526 0.280644
0.341538 0.319281 0.285157
0.346360 0.324043 0.289677
0.351189 0.328812 0.294205
0.356027 0.333589 0.298739
0.360872 0.338373 0.303280
0.365724 0.343165 0.307829
0.370584 0.347963 0.312384
0.375450 0.352769 0.316946
0.380324 0.357581 0.321514
0.385203 0.362400 0.326088
0.390089 0.367224 0.330668
0.394980 0.372055 0.335253
0.399878 0.376890 0.339843
0.409687 0.386577 0.349038
0.419515 0.396282 0.358251
0.429359 0.406003 0.367478
0.439218 0.415738 0.376719
0.449088 0.425485 0.385971
0.458968 0.435241 0.395232
0.468855 0.445004 0.404500
0.478747 0.454772 0.413772
0.488642 0.464543 0.423047
0.498537 0.474314 0.432323
0.508430 0.484083 0.441596
0.518319 0.493848 0.450866
0.528202 0.503607 0.460129
0.538063 0.513383 0.469487
0.547803 0.523369 0.479720
0.557529 0.533342 0.489940
0.331914 0.309778 0.276136
0.336722 0.314526 0.280644
0.341538 0.319281 0.285157
0.346360 0.324043 0.289677
0.351189 0.328812 0.294205
0.356027 0.333589 0.298739
0.360872 0.338373 0.303280
0.365724 0.343165 0.307829
0.370584 0.347963 0.312384
0.375450 0.352769 0.316946
0.380324 0.357581 0.321514
0.385203 0.362400 0.326088
0.390089 0.367224 0.330668
0.394980 0.372055 0.335253
0.399878 0.376890 0.339843
0.404780 0.381731 0.344438
0.409687 0.386577 0.349038
0.414599 0.391427 0.353642
0.424436 0.401141 0.362863
0.434287 0.410869 0.372097
0.444152 0.420610 0.381344
0.454027 0.430362 0.390601
0.463911 0.440122 0.399866
0.473801 0.449887 0.409136
0.483694 0.459657 0.418410
0.493590 0.469428 0.427685
0.503484 0.479199 0.436960
0.513376 0.488966 0.446232
0.523262 0.498729 0.455499
0.533140 0.508483 0.464758
0.542935 0.518378 0.474605
0.552668 0.528358 0.484832
0.562392 0.538329 0.495050
0.341538 0.319281 0.285157
0.346360 0.324043 0.289677
0.351189 0.328812 0.294205
0.356027 0.333589 0.298739
0.360872 0.338373 0.303280
0.365724 0.343165 0.307829
0.370584 0.347963 0.312384
0.375450 0.352769 0.316946
0.380324 0.357581 0.321514
0.385203 0.362400 0.326088
0.390089 0.367224 0.330668
0.394980 0.372055 0.335253
0.399878 0.376890 0.339843
0.404780 0.381731 0.344438
0.409687 0.386577 0.349038
0.414599 0.391427 0.353642
0.419515 0.396282 0.358251
0.424436 0.401141 0.362863
0.429359 0.406003 0.367478
0.439218 0.415738 0.376719
0.449088 0.425485 0.385971
0.458968 0.435241 0.395232
0.468855 0.445004 0.404500
0.478747 0.454772 0.413772
0.488642 0.464543 0.423047
0.498537 0.474314 0.432323
0.508430 0.484083 0.441596
0.518319 0.493848 0.450866
0.528202 0.503607 0.460129
0.538063 0.513383 0.469487
0.547803 0.523369 0.479720
0.557529 0.533342 0.489940
0.567272 0.543333 0.500178
0.351189 0.328812 0.294205
0.356027 0.333589 0.298739
0.360872 0.338373 0.303280
0.365724 0.343165 0.307829
0.370584 0.347963 0.312384
0.375450 0.352769 0.316946
0.380324 0.357581 0.321514
0.385203 0.362400 0.326088
0.390089 0.367224 0.330668
0.394980 0.372055 0.335253
0.399878 0.376890 0.339843
0.404780 0.381731 0.344438
0.409687 0.386577 0.349038
0.414599 0.391427 0.353642
0.419515 0.396282 0.358251
0.424436 0.401141 0.362863
0.429359 0.406003 0.367478
0.434287 0.410869 0.372097
0.439218 0.415738 0.376719
0.444152 0.420610 0.381344
0.454027 0.430362 0.390601
0.463911 0.440122 0.399866
0.473801 0.449887 0.409136
0.483694 0.459657 0.418410
0.493590 0.469428 0.427685
0.503484 0.479199 0.436960
0.513376 0.488966 0.446232
0.523262 0.498729 0.455499
0.533140 0.508483 0.464758
0.542935 0.518378 0.474605
0.552668 0.528358 0.484832
0.562392 0.538329 0.495050
0.572169 0.548354 0.505324
0.360872 0.338373 0.303280
0.365724 0.343165 0.307829
0.370584 0.347963 0.312384
0.375450 0.352769 0.316946
0.380324 0.357581 0.321514
0.385203 0.362400 0.326088
0.390089 0.367224 0.330668
0.394980 0.372055 0.335253
0.399878 0.376890 0.339843
0.404780 0.381731 0.344438
0.409687 0.386577 0.349038
0.414599 0.391427 0.353642
0.419515 0.396282 0.358251
0.424436 0.401141 0.362863
0.429359 0.406003 0.367478
0.434287 0.410869 0.372097
0.439218 0.415738 0.376719
0.444152 0.420610 0.381344
0.449088 0.425485 0.385971
0.454027 0.430362 0.390601
0.458968 0.435241 0.395232
0.468855 0.445004 0.404500
0.478747 0.454772 0.413772
0.488642 0.464543 0.423047
0.498537 0.474314 0.432323
0.508430 0.484083 0.441596
0.518319 0.493848 0.450866
0.528202 0.503607 0.460129
0.538063 0.513383 0.469487
0.547803 0.523369 0.479720
0.557529 0.533342 0.489940
0.567272 0.543333 0.500178
0.577081 0.553391 0.510485
0.370584 0.347963 0.312384
0.375450 0.352769 0.316946
0.380324 0.357581 0.321514
0.385203 0.362400 0.326088
0.390089 0.367224 0.330668
0.394980 0.372055 0.335253
0.399878 0.376890 0.339843
0.404780 0.381731 0.344438
0.409687 0.386577 0.349038
0.414599 0.391427 0.353642
0.419515 0.396282 0.358251
0.424436 0.401141 0.362863
0.429359 0.406003 0.367478
0.434287 0.410869 0.372097
0.439218 0.415738 0.376719
0.444152 0.420610 0.381344
0.449088 0.425485 0.385971
0.454027 0.430362 0.390601
0.458968 0.435241 0.395232
0.463911 0.440122 0.399866
0.468855 0.445004 0.404500
0.473801 0.449887 0.409136
0.483694 0.459657 0.418410
0.493590 0.469428 0.427685
0.503484 0.479199 0.436960
0.513376 0.488966 0.446232
0.523262 0.498729 0.455499
0.533140 0.508483 0.464758
0.542935 0.518378 0.474605
0.552668 0.528358 0.484832
0.562392 0.538329 0.495050
0.572169 0.548354 0.505324
0.582008 0.558443 0.515662
0.380324 0.357581 0.321514
0.385203 0.362400 0.326088
0.390089 0.367224 0.330668
0.394980 0.372055 0.335253
0.399878 0.376890 0.339843
0.404780 0.381731 0.344438
0.409687 0.386577 0.349038
0.414599 0.391427 0.353642
0.419515 0.396282 0.358251
0.424436 0.401141 0.362863
0.429359 0.406003 0.367478
0.434287 0.410869 0.372097
0.439218 0.415738 0.376719
0.444152 0.420610 0.381344
0.449088 0.425485 0.385971
0.454027 0.430362 0.390601
0.458968 0.435241 0.395232
0.463911 0.440122 0.399866
0.468855 0.445004 0.404500
0.473801 0.449887 0.409136
0.478747 0.454772 0.413772
0.483694 0.459657 0.418410
0.488642 0.464543 0.423047
0.498537 0.474314 0.432323
0.508430 0.484083 0.441596
0.518319 0.493848 0.450866
0.528202 0.503607 0.460129
0.538063 0.513383 0.469487
0.547803 0.523369 0.479720
0.557529 0.533342 0.489940
0.567272 0.543333 0.500178
0.577081 0.553391 0.510485
0.586948 0.563508 0.520852
0.390089 0.367224 0.330668
0.394980 0.372055 0.335253
0.399878 0.376890 0.339843
0.404780 0.381731 0.344438
0.409687 0.386577 0.349038
0.414599 0.391427 0.353642
0.419515 0.396282 0.358251
0.424436 0.401141 0.362863
0.429359 0.406003 0.367478
0.434287 0.410869 0.372097
0.439218 0.415738 0.376719
0.444152 0.420610 0.381344
0.449088 0.425485 0.385971
0.454027 0.430362 0.390601
0.458968 0.435241 0.395232
0.463911 0.440122 0.399866
0.468855 0.445004 0.404500
0.473801 0.449887 0.409136
0.478747 0.454772 0.413772
0.483694 0.459657 0.418410
0.488642 0.464543 0.423047
0.493590 0.469428 0.427685
0.498537 0.474314 0.432323
0.503484 0.479199 0.436960
0.513376 0.488966 0.446232
0.523262 0.498729 0.455499
0.533140 0.508483 0.464758
0.542935 0.518378 0.474605
0.552668 0.528358 0.484832
0.562392 0.538329 0.495050
0.572169 0.548354 0.505324
0.582008 0.558443 0.515662
0.591899 0.568585 0.526054
0.399878 0.376890 0.339843
0.404780 0.381731 0.344438
0.409687 0.386577 0.349038
0.414599 0.391427 0.353642
0.419515 0.396282 0.358251
0.424436 0.401141 0.362863
0.429359 0.406003 0.367478
0.434287 0.410869 0.372097
0.439218 0.415738 0.376719
0.444152 0.420610 0.381344
0.449088 0.425485 0.385971
0.454027 0.430362 0.390601
0.458968 0.435241 0.395232
0.463911 0.440122 0.399866
0.468855 0.445004 0.404500
0.473801 0.449887 0.409136
0.478747 0.454772 0.413772
0.483694 0.459657 0.418410
0.488642 0.464543 0.423047
0.493590 0.469428 0.427685
0.498537 0.474314 0.432323
0.503484 0.479199 0.436960
0.508430 0.484083 0.441596
0.513376 0.488966 0.446232
0.518319 0.493848 0.450866
0.528202 0.503607 0.460129
0.538063 0.513383 0.469487
0.547803 0.523369 0.479720
0.557529 0.533342 0.489940
0.567272 0.543333 0.500178
0.577081 0.553391 0.510485
0.586948 0.563508 0.520852
0.596860 0.573671 0.531267
0.409687 0.386577 0.349038
0.414599 0.391427 0.353642
0.419515 0.396282 0.358251
0.424436 0.401141 0.362863
0.429359 0.406003 0.367478
0.434287 0.410869 0.372097
0.439218 0.415738 0.376719
0.444152 0.420610 0.381344
0.449088 0.425485 0.385971
0.454027 0.430362 0.390601
0.458968 0.435241 0.395232
0.463911 0.440122 0.399866
0.468855 0.445004 0.404500
0.473801 0.449887 0.409136
0.478747 0.454772 0.413772
0.483694 0.459657 0.418410
0.488642 0.464543 0.423047
0.493590 0.469428 0.427685
0.498537 0.474314 0.432323
0.503484 0.479199 0.436960
0.508430 0.484083 0.441596
0.513376 0.488966 0.446232
0.518319 0.493848 0.450866
0.523262 0.498729 0.455499
0.528202 0.503607 0.460129
0.533140 0.508483 0.464758
0.542935 0.518378 0.474605
0.552668 0.528358 0.484832
0.562392 0.538329 0.495050
0.572169 0.548354 0.505324
0.582008 0.558443 0.515662
0.591899 0.568585 0.526054
0.601831 0.578769 0.536491
0.419515 0.396282 0.358251
0.424436 0.401141 0.362863
0.429359 0.406003 0.367478
0.434287 0.410869 0.372097
0.439218 0.415738 0.376719
0.444152 0.420610 0.381344
0.449088 0.425485 0.385971
0.454027 0.430362 0.390601
0.458968 0.435241 0.395232
0.463911 0.440122 0.399866
0.468855 0.445004 0.404500
0.473801 0.449887 0.409136
0.478747 0.454772 0.413772
0.483694 0.459657 0.418410
0.488642 0.464543 0.423047
0.493590 0.469428 0.427685
0.498537 0.474314 0.432323
0.503484 0.479199 0.436960
0.508430 0.484083 0.441596
0.513376 0.488966 0.446232
0.518319 0.493848 0.450866
