ricette/lut/Strada-400-33.cube
# LUT generata da Camera Oscura BN
# Ricetta: Strada 400
# Pellicola: trix400
# Nota: grana, vignetta e interventi locali non sono inclusi nella LUT.
TITLE "Strada 400"
LUT_3D_SIZE 33
DOMAIN_MIN 0.0 0.0 0.0
DOMAIN_MAX 1.0 1.0 1.0
0.000000 0.000000 0.000000
0.007719 0.007719 0.007719
0.015530 0.015530 0.015530
0.023456 0.023456 0.023456
0.031520 0.031520 0.031520
0.039754 0.039754 0.039754
0.048193 0.048193 0.048193
0.056875 0.056875 0.056875
0.065842 0.065842 0.065842
0.075139 0.075139 0.075139
0.084819 0.084819 0.084819
0.094940 0.094940 0.094940
0.105562 0.105562 0.105562
0.116669 0.116669 0.116669
0.128234 0.128234 0.128234
0.140232 0.140232 0.140232
0.152637 0.152637 0.152637
0.165426 0.165426 0.165426
0.178559 0.178559 0.178559
0.191999 0.191999 0.191999
0.205710 0.205710 0.205710
0.219651 0.219651 0.219651
0.233803 0.233803 0.233803
0.248285 0.248285 0.248285
0.263097 0.263097 0.263097
0.278205 0.278205 0.278205
0.293575 0.293575 0.293575
0.309170 0.309170 0.309170
0.324955 0.324955 0.324955
0.340888 0.340888 0.340888
0.356929 0.356929 0.356929
0.373038 0.373038 0.373038
0.389177 0.389177 0.389177
0.007719 0.007719 0.007719
0.011611 0.011611 0.011611
0.019476 0.019476 0.019476
0.027468 0.027468 0.027468
0.035615 0.035615 0.035615
0.043948 0.043948 0.043948
0.052502 0.052502 0.052502
0.061318 0.061318 0.061318
0.070443 0.070443 0.070443
0.079929 0.079929 0.079929
0.089825 0.089825 0.089825
0.100189 0.100189 0.100189
0.111055 0.111055 0.111055
0.122391 0.122391 0.122391
0.134180 0.134180 0.134180
0.146389 0.146389 0.146389
0.158989 0.158989 0.158989
0.171951 0.171951 0.171951
0.185240 0.185240 0.185240
0.198822 0.198822 0.198822
0.212655 0.212655 0.212655
0.226697 0.226697 0.226697
0.241001 0.241001 0.241001
0.255650 0.255650 0.255650
0.270614 0.270614 0.270614
0.285860 0.285860 0.285860
0.301348 0.301348 0.301348
0.317043 0.317043 0.317043
0.332905 0.332905 0.332905
0.348896 0.348896 0.348896
0.364977 0.364977 0.364977
0.381106 0.381106 0.381106
0.397244 0.397244 0.397244
0.015530 0.015530 0.015530
0.019476 0.019476 0.019476
0.023456 0.023456 0.023456
0.031520 0.031520 0.031520
0.039754 0.039754 0.039754
0.048193 0.048193 0.048193
0.056875 0.056875 0.056875
0.065842 0.065842 0.065842
0.075139 0.075139 0.075139
0.084819 0.084819 0.084819
0.094940 0.094940 0.094940
0.105562 0.105562 0.105562
0.116669 0.116669 0.116669
0.128234 0.128234 0.128234
0.140232 0.140232 0.140232
0.152637 0.152637 0.152637
0.165426 0.165426 0.165426
0.178559 0.178559 0.178559
0.191999 0.191999 0.191999
0.205710 0.205710 0.205710
0.219651 0.219651 0.219651
0.233803 0.233803 0.233803
0.248285 0.248285 0.248285
0.263097 0.263097 0.263097
0.278205 0.278205 0.278205
0.293575 0.293575 0.293575
0.309170 0.309170 0.309170
0.324955 0.324955 0.324955
0.340888 0.340888 0.340888
0.356929 0.356929 0.356929
0.373038 0.373038 0.373038
0.389177 0.389177 0.389177
0.405303 0.405303 0.405303
0.023456 0.023456 0.023456
0.027468 0.027468 0.027468
0.031520 0.031520 0.031520
0.035615 0.035615 0.035615
0.043948 0.043948 0.043948
0.052502 0.052502 0.052502
0.061318 0.061318 0.061318
0.070443 0.070443 0.070443
0.079929 0.079929 0.079929
0.089825 0.089825 0.089825
0.100189 0.100189 0.100189
0.111055 0.111055 0.111055
0.122391 0.122391 0.122391
0.134180 0.134180 0.134180
0.146389 0.146389 0.146389
0.158989 0.158989 0.158989
0.171951 0.171951 0.171951
0.185240 0.185240 0.185240
0.198822 0.198822 0.198822
0.212655 0.212655 0.212655
0.226697 0.226697 0.226697
0.241001 0.241001 0.241001
0.255650 0.255650 0.255650
0.270614 0.270614 0.270614
0.285860 0.285860 0.285860
0.301348 0.301348 0.301348
0.317043 0.317043 0.317043
0.332905 0.332905 0.332905
0.348896 0.348896 0.348896
0.364977 0.364977 0.364977
0.381106 0.381106 0.381106
0.397244 0.397244 0.397244
0.413349 0.413349 0.413349
0.031520 0.031520 0.031520
0.035615 0.035615 0.035615
0.039754 0.039754 0.039754
0.043948 0.043948 0.043948
0.048193 0.048193 0.048193
0.056875 0.056875 0.056875
0.065842 0.065842 0.065842
0.075139 0.075139 0.075139
0.084819 0.084819 0.084819
0.094940 0.094940 0.094940
0.105562 0.105562 0.105562
0.116669 0.116669 0.116669
0.128234 0.128234 0.128234
0.140232 0.140232 0.140232
0.152637 0.152637 0.152637
0.165426 0.165426 0.165426
0.178559 0.178559 0.178559
0.191999 0.191999 0.191999
0.205710 0.205710 0.205710
0.219651 0.219651 0.219651
0.233803 0.233803 0.233803
0.248285 0.248285 0.248285
0.263097 0.263097 0.263097
0.278205 0.278205 0.278205
0.293575 0.293575 0.293575
0.309170 0.309170 0.309170
0.324955 0.324955 0.324955
0.340888 0.340888 0.340888
0.356929 0.356929 0.356929
0.373038 0.373038 0.373038
0.389177 0.389177 0.389177
0.405303 0.405303 0.405303
0.421376 0.421376 0.421376
0.039754 0.039754 0.039754
0.043948 0.043948 0.043948
0.048193 0.048193 0.048193
0.052502 0.052502 0.052502
0.056875 0.056875 0.056875
0.061318 0.061318 0.061318
0.070443 0.070443 0.070443
0.079929 0.079929 0.079929
0.089825 0.089825 0.089825
0.100189 0.100189 0.100189
0.111055 0.111055 0.111055
0.122391 0.122391 0.122391
0.134180 0.134180 0.134180
0.146389 0.146389 0.146389
0.158989 0.158989 0.158989
0.171951 0.171951 0.171951
0.185240 0.185240 0.185240
0.198822 0.198822 0.198822
0.212655 0.212655 0.212655
0.226697 0.226697 0.226697
0.241001 0.241001 0.241001
0.255650 0.255650 0.255650
0.270614 0.270614 0.270614
0.285860 0.285860 0.285860
0.301348 0.301348 0.301348
0.317043 0.317043 0.317043
0.332905 0.332905 0.332905
0.348896 0.348896 0.348896
0.364977 0.364977 0.364977
0.381106 0.381106 0.381106
0.397244 0.397244 0.397244
0.413349 0.413349 0.413349
0.429382 0.429382 0.429382
0.048193 0.048193 0.048193
0.052502 0.052502 0.052502
0.056875 0.056875 0.056875
0.061318 0.061318 0.061318
0.065842 0.065842 0.065842
0.070443 0.070443 0.070443
0.075139 0.075139 0.075139
0.084819 0.084819 0.084819
0.094940 0.094940 0.094940
0.105562 0.105562 0.105562
0.116669 0.116669 0.116669
0.128234 0.128234 0.128234
0.140232 0.140232 0.140232
0.152637 0.152637 0.152637
0.165426 0.165426 0.165426
0.178559 0.178559 0.178559
0.191999 0.191999 0.191999
0.205710 0.205710 0.205710
0.219651 0.219651 0.219651
0.233803 0.233803 0.233803
0.248285 0.248285 0.248285
0.263097 0.263097 0.263097
0.278205 0.278205 0.278205
0.293575 0.293575 0.293575
0.309170 0.309170 0.309170
0.324955 0.324955 0.324955
0.340888 0.340888 0.340888
0.356929 0.356929 0.356929
0.373038 0.373038 0.373038
0.389177 0.389177 0.389177
0.405303 0.405303 0.405303
0.421376 0.421376 0.421376
0.437357 0.437357 0.437357
0.056875 0.056875 0.056875
0.061318 0.061318 0.061318
0.065842 0.065842 0.065842
0.070443 0.070443 0.070443
0.075139 0.075139 0.075139
0.079929 0.079929 0.079929
0.084819 0.084819 0.084819
0.089825 0.089825 0.089825
0.100189 0.100189 0.100189
0.111055 0.111055 0.111055
0.122391 0.122391 0.122391
0.134180 0.134180 0.134180
0.146389 0.146389 0.146389
0.158989 0.158989 0.158989
0.171951 0.171951 0.171951
0.185240 0.185240 0.185240
0.198822 0.198822 0.198822
0.212655 0.212655 0.212655
0.226697 0.226697 0.226697
0.241001 0.241001 0.241001
0.255650 0.255650 0.255650
0.270614 0.270614 0.270614
0.285860 0.285860 0.285860
0.301348 0.301348 0.301348
0.317043 0.317043 0.317043
0.332905 0.332905 0.332905
0.348896 0.348896 0.348896
0.364977 0.364977 0.364977
0.381106 0.381106 0.381106
0.397244 0.397244 0.397244
0.413349 0.413349 0.413349
0.429382 0.429382 0.429382
0.445302 0.445302 0.445302
0.065842 0.065842 0.065842
0.070443 0.070443 0.070443
0.075139 0.075139 0.075139
0.079929 0.079929 0.079929
0.084819 0.084819 0.084819
0.089825 0.089825 0.089825
0.094940 0.094940 0.094940
0.100189 0.100189 0.100189
0.105562 0.105562 0.105562
0.116669 0.116669 0.116669
0.128234 0.128234 0.128234
0.140232 0.140232 0.140232
0.152637 0.152637 0.152637
0.165426 0.165426 0.165426
0.178559 0.178559 0.178559
0.191999 0.191999 0.191999
0.205710 0.205710 0.205710
0.219651 0.219651 0.219651
0.233803 0.233803 0.233803
0.248285 0.248285 0.248285
0.263097 0.263097 0.263097
0.278205 0.278205 0.278205
0.293575 0.293575 0.293575
0.309170 0.309170 0.309170
0.324955 0.324955 0.324955
0.340888 0.340888 0.340888
0.356929 0.356929 0.356929
0.373038 0.373038 0.373038
0.389177 0.389177 0.389177
0.405303 0.405303 0.405303
0.421376 0.421376 0.421376
0.437357 0.437357 0.437357
0.453208 0.453208 0.453208
0.075139 0.075139 0.075139
0.079929 0.079929 0.079929
0.084819 0.084819 0.084819
0.089825 0.089825 0.089825
0.094940 0.094940 0.094940
0.100189 0.100189 0.100189
0.105562 0.105562 0.105562
0.111055 0.111055 0.111055
0.116669 0.116669 0.116669
0.122391 0.122391 0.122391
0.134180 0.134180 0.134180
0.146389 0.146389 0.146389
0.158989 0.158989 0.158989
0.171951 0.171951 0.171951
0.185240 0.185240 0.185240
0.198822 0.198822 0.198822
0.212655 0.212655 0.212655
0.226697 0.226697 0.226697
0.241001 0.241001 0.241001
0.255650 0.255650 0.255650
0.270614 0.270614 0.270614
0.285860 0.285860 0.285860
0.301348 0.301348 0.301348
0.317043 0.317043 0.317043
0.332905 0.332905 0.332905
0.348896 0.348896 0.348896
0.364977 0.364977 0.364977
0.381106 0.381106 0.381106
0.397244 0.397244 0.397244
0.413349 0.413349 0.413349
0.429382 0.429382 0.429382
0.445302 0.445302 0.445302
0.461076 0.461076 0.461076
0.084819 0.084819 0.084819
0.089825 0.089825 0.089825
0.094940 0.094940 0.094940
0.100189 0.100189 0.100189
0.105562 0.105562 0.105562
0.111055 0.111055 0.111055
0.116669 0.116669 0.116669
0.122391 0.122391 0.122391
0.128234 0.128234 0.128234
0.134180 0.134180 0.134180
0.140232 0.140232 0.140232
0.152637 0.152637 0.152637
0.165426 0.165426 0.165426
0.178559 0.178559 0.178559
0.191999 0.191999 0.191999
0.205710 0.205710 0.205710
0.219651 0.219651 0.219651
0.233803 0.233803 0.233803
0.248285 0.248285 0.248285
0.263097 0.263097 0.263097
0.278205 0.278205 0.278205
0.293575 0.293575 0.293575
0.309170 0.309170 0.309170
0.324955 0.324955 0.324955
0.340888 0.340888 0.340888
0.356929 0.356929 0.356929
0.373038 0.373038 0.373038
0.389177 0.389177 0.389177
0.405303 0.405303 0.405303
0.421376 0.421376 0.421376
0.437357 0.437357 0.437357
0.453208 0.453208 0.453208
0.468922 0.468922 0.468922
0.094940 0.094940 0.094940
0.100189 0.100189 0.100189
0.105562 0.105562 0.105562
0.111055 0.111055 0.111055
0.116669 0.116669 0.116669
0.122391 0.122391 0.122391
0.128234 0.128234 0.128234
0.134180 0.134180 0.134180
0.140232 0.140232 0.140232
0.146389 0.146389 0.146389
0.152637 0.152637 0.152637
0.158989 0.158989 0.158989
0.171951 0.171951 0.171951
0.185240 0.185240 0.185240
0.198822 0.198822 0.198822
0.212655 0.212655 0.212655
0.226697 0.226697 0.226697
0.241001 0.241001 0.241001
0.255650 0.255650 0.255650
0.270614 0.270614 0.270614
0.285860 0.285860 0.285860
0.301348 0.301348 0.301348
0.317043 0.317043 0.317043
0.332905 0.332905 0.332905
0.348896 0.348896 0.348896
0.364977 0.364977 0.364977
0.381106 0.381106 0.381106
0.397244 0.397244 0.397244
0.413349 0.413349 0.413349
0.429382 0.429382 0.429382
0.445302 0.445302 0.445302
0.461076 0.461076 0.461076
0.476744 0.476744 0.476744
0.105562 0.105562 0.105562
0.111055 0.111055 0.111055
0.116669 0.116669 0.116669
0.122391 0.122391 0.122391
0.128234 0.128234 0.128234
0.134180 0.134180 0.134180
0.140232 0.140232 0.140232
0.146389 0.146389 0.146389
0.152637 0.152637 0.152637
0.158989 0.158989 0.158989
0.165426 0.165426 0.165426
0.171951 0.171951 0.171951
0.178559 0.178559 0.178559
0.191999 0.191999 0.191999
0.205710 0.205710 0.205710
0.219651 0.219651 0.219651
0.233803 0.233803 0.233803
0.248285 0.248285 0.248285
0.263097 0.263097 0.263097
0.278205 0.278205 0.278205
0.293575 0.293575 0.293575
0.309170 0.309170 0.309170
0.324955 0.324955 0.324955
0.340888 0.340888 0.340888
0.356929 0.356929 0.356929
0.373038 0.373038 0.373038
0.389177 0.389177 0.389177
0.405303 0.405303 0.405303
0.421376 0.421376 0.421376
0.437357 0.437357 0.437357
0.453208 0.453208 0.453208
0.468922 0.468922 0.468922
0.484543 0.484543 0.484543
0.116669 0.116669 0.116669
0.122391 0.122391 0.122391
0.128234 0.128234 0.128234
0.134180 0.134180 0.134180
0.140232 0.140232 0.140232
0.146389 0.146389 0.146389
0.152637 0.152637 0.152637
0.158989 0.158989 0.158989
0.165426 0.165426 0.165426
0.171951 0.171951 0.171951
0.178559 0.178559 0.178559
0.185240 0.185240 0.185240
0.191999 0.191999 0.191999
0.198822 0.198822 0.198822
0.212655 0.212655 0.212655
0.226697 0.226697 0.226697
0.241001 0.241001 0.241001
0.255650 0.255650 0.255650
0.270614 0.270614 0.270614
0.285860 0.285860 0.285860
0.301348 0.301348 0.301348
0.317043 0.317043 0.317043
0.332905 0.332905 0.332905
0.348896 0.348896 0.348896
0.364977 0.364977 0.364977
0.381106 0.381106 0.381106
0.397244 0.397244 0.397244
0.413349 0.413349 0.413349
0.429382 0.429382 0.429382
0.445302 0.445302 0.445302
0.461076 0.461076 0.461076
0.476744 0.476744 0.476744
0.492311 0.492311 0.492311
0.128234 0.128234 0.128234
0.134180 0.134180 0.134180
0.140232 0.140232 0.140232
0.146389 0.146389 0.146389
0.152637 0.152637 0.152637
0.158989 0.158989 0.158989
0.165426 0.165426 0.165426
0.171951 0.171951 0.171951
0.178559 0.178559 0.178559
0.185240 0.185240 0.185240
0.191999 0.191999 0.191999
0.198822 0.198822 0.198822
0.205710 0.205710 0.205710
0.212655 0.212655 0.212655
0.219651 0.219651 0.219651
0.233803 0.233803 0.233803
0.248285 0.248285 0.248285
0.263097 0.263097 0.263097
0.278205 0.278205 0.278205
0.293575 0.293575 0.293575
0.309170 0.309170 0.309170
0.324955 0.324955 0.324955
0.340888 0.340888 0.340888
0.356929 0.356929 0.356929
0.373038 0.373038 0.373038
0.389177 0.389177 0.389177
0.405303 0.405303 0.405303
0.421376 0.421376 0.421376
0.437357 0.437357 0.437357
0.453208 0.453208 0.453208
0.468922 0.468922 0.468922
0.484543 0.484543 0.484543
0.500047 0.500047 0.500047
0.140232 0.140232 0.140232
0.146389 0.146389 0.146389
0.152637 0.152637 0.152637
0.158989 0.158989 0.158989
0.165426 0.165426 0.165426
0.171951 0.171951 0.171951
0.178559 0.178559 0.178559
0.185240 0.185240 0.185240
0.191999 0.191999 0.191999
0.198822 0.198822 0.198822
0.205710 0.205710 0.205710
0.212655 0.212655 0.212655
0.219651 0.219651 0.219651
0.226697 0.226697 0.226697
0.233803 0.233803 0.233803
0.241001 0.241001 0.241001
0.255650 0.255650 0.255650
0.270614 0.270614 0.270614
0.285860 0.285860 0.285860
0.301348 0.301348 0.301348
0.317043 0.317043 0.317043
0.332905 0.332905 0.332905
0.348896 0.348896 0.348896
0.364977 0.364977 0.364977
0.381106 0.381106 0.381106
0.397244 0.397244 0.397244
0.413349 0.413349 0.413349
0.429382 0.429382 0.429382
0.445302 0.445302 0.445302
0.461076 0.461076 0.461076
0.476744 0.476744 0.476744
0.492311 0.492311 0.492311
0.507748 0.507748 0.507748
0.152637 0.152637 0.152637
0.158989 0.158989 0.158989
0.165426 0.165426 0.165426
0.171951 0.171951 0.171951
0.178559 0.178559 0.178559
0.185240 0.185240 0.185240
0.191999 0.191999 0.191999
0.198822 0.198822 0.198822
0.205710 0.205710 0.205710
0.212655 0.212655 0.212655
0.219651 0.219651 0.219651
0.226697 0.226697 0.226697
0.233803 0.233803 0.233803
0.241001 0.241001 0.241001
0.248285 0.248285 0.248285
0.255650 0.255650 0.255650
0.263097 0.263097 0.263097
0.278205 0.278205 0.278205
0.293575 0.293575 0.293575
0.309170 0.309170 0.309170
0.324955 0.324955 0.324955
0.340888 0.340888 0.340888
0.356929 0.356929 0.356929
0.373038 0.373038 0.373038
0.389177 0.389177 0.389177
0.405303 0.405303 0.405303
0.421376 0.421376 0.421376
0.437357 0.437357 0.437357
0.453208 0.453208 0.453208
0.468922 0.468922 0.468922
0.484543 0.484543 0.484543
0.500047 0.500047 0.500047
0.515407 0.515407 0.515407
0.165426 0.165426 0.165426
0.171951 0.171951 0.171951
0.178559 0.178559 0.178559
0.185240 0.185240 0.185240
0.191999 0.191999 0.191999
0.198822 0.198822 0.198822
0.205710 0.205710 0.205710
0.212655 0.212655 0.212655
0.219651 0.219651 0.219651
0.226697 0.226697 0.226697
0.233803 0.233803 0.233803
0.241001 0.241001 0.241001
0.248285 0.248285 0.248285
0.255650 0.255650 0.255650
0.263097 0.263097 0.263097
0.270614 0.270614 0.270614
0.278205 0.278205 0.278205
0.285860 0.285860 0.285860
0.301348 0.301348 0.301348
0.317043 0.317043 0.317043
0.332905 0.332905 0.332905
0.348896 0.348896 0.348896
0.364977 0.364977 0.364977
0.381106 0.381106 0.381106
0.397244 0.397244 0.397244
0.413349 0.413349 0.413349
0.429382 0.429382 0.429382
0.445302 0.445302 0.445302
0.461076 0.461076 0.461076
0.476744 0.476744 0.476744
0.492311 0.492311 0.492311
0.507748 0.507748 0.507748
0.523049 0.523049 0.523049
0.178559 0.178559 0.178559
0.185240 0.185240 0.185240
0.191999 0.191999 0.191999
0.198822 0.198822 0.198822
0.205710 0.205710 0.205710
0.212655 0.212655 0.212655
0.219651 0.219651 0.219651
0.226697 0.226697 0.226697
0.233803 0.233803 0.233803
0.241001 0.241001 0.241001
0.248285 0.248285 0.248285
0.255650 0.255650 0.255650
0.263097 0.263097 0.263097
0.270614 0.270614 0.270614
0.278205 0.278205 0.278205
0.285860 0.285860 0.285860
0.293575 0.293575 0.293575
0.301348 0.301348 0.301348
0.309170 0.309170 0.309170
0.324955 0.324955 0.324955
0.340888 0.340888 0.340888
0.356929 0.356929 0.356929
0.373038 0.373038 0.373038
0.389177 0.389177 0.389177
0.405303 0.405303 0.405303
0.421376 0.421376 0.421376
0.437357 0.437357 0.437357
0.453208 0.453208 0.453208
0.468922 0.468922 0.468922
0.484543 0.484543 0.484543
0.500047 0.500047 0.500047
0.515407 0.515407 0.515407
0.530726 0.530726 0.530726
0.191999 0.191999 0.191999
0.198822 0.198822 0.198822
0.205710 0.205710 0.205710
0.212655 0.212655 0.212655
0.219651 0.219651 0.219651
0.226697 0.226697 0.226697
0.233803 0.233803 0.233803
0.241001 0.241001 0.241001
0.248285 0.248285 0.248285
0.255650 0.255650 0.255650
0.263097 0.263097 0.263097
0.270614 0.270614 0.270614
0.278205 0.278205 0.278205
0.285860 0.285860 0.285860
0.293575 0.293575 0.293575
0.301348 0.301348 0.301348
0.309170 0.309170 0.309170
0.317043 0.317043 0.317043
0.324955 0.324955 0.324955
0.332905 0.332905 0.332905
0.348896 0.348896 0.348896
0.364977 0.364977 0.364977
0.381106 0.381106 0.381106
0.397244 0.397244 0.397244
0.413349 0.413349 0.413349
0.429382 0.429382 0.429382
0.445302 0.445302 0.445302
0.461076 0.461076 0.461076
0.476744 0.476744 0.476744
0.492311 0.492311 0.492311
0.507748 0.507748 0.507748
0.523049 0.523049 0.523049
0.538437 0.538437 0.538437
0.205710 0.205710 0.205710
0.212655 0.212655 0.212655
0.219651 0.219651 0.219651
0.226697 0.226697 0.226697
0.233803 0.233803 0.233803
0.241001 0.241001 0.241001
0.248285 0.248285 0.248285
0.255650 0.255650 0.255650
0.263097 0.263097 0.263097
0.270614 0.270614 0.270614
0.278205 0.278205 0.278205
0.285860 0.285860 0.285860
0.293575 0.293575 0.293575
0.301348 0.301348 0.301348
0.309170 0.309170 0.309170
0.317043 0.317043 0.317043
0.324955 0.324955 0.324955
0.332905 0.332905 0.332905
0.340888 0.340888 0.340888
0.348896 0.348896 0.348896
0.356929 0.356929 0.356929
0.373038 0.373038 0.373038
0.389177 0.389177 0.389177
0.405303 0.405303 0.405303
0.421376 0.421376 0.421376
0.437357 0.437357 0.437357
0.453208 0.453208 0.453208
0.468922 0.468922 0.468922
0.484543 0.484543 0.484543
0.500047 0.500047 0.500047
0.515407 0.515407 0.515407
0.530726 0.530726 0.530726
0.546181 0.546181 0.546181
0.219651 0.219651 0.219651
0.226697 0.226697 0.226697
0.233803 0.233803 0.233803
0.241001 0.241001 0.241001
0.248285 0.248285 0.248285
0.255650 0.255650 0.255650
0.263097 0.263097 0.263097
0.270614 0.270614 0.270614
0.278205 0.278205 0.278205
0.285860 0.285860 0.285860
0.293575 0.293575 0.293575
0.301348 0.301348 0.301348
0.309170 0.309170 0.309170
0.317043 0.317043 0.317043
0.324955 0.324955 0.324955
0.332905 0.332905 0.332905
0.340888 0.340888 0.340888
0.348896 0.348896 0.348896
0.356929 0.356929 0.356929
0.364977 0.364977 0.364977
0.373038 0.373038 0.373038
0.381106 0.381106 0.381106
0.397244 0.397244 0.397244
0.413349 0.413349 0.413349
0.429382 0.429382 0.429382
0.445302 0.445302 0.445302
0.461076 0.461076 0.461076
0.476744 0.476744 0.476744
0.492311 0.492311 0.492311
0.507748 0.507748 0.507748
0.523049 0.523049 0.523049
0.538437 0.538437 0.538437
0.553953 0.553953 0.553953
0.233803 0.233803 0.233803
0.241001 0.241001 0.241001
0.248285 0.248285 0.248285
0.255650 0.255650 0.255650
0.263097 0.263097 0.263097
0.270614 0.270614 0.270614
0.278205 0.278205 0.278205
0.285860 0.285860 0.285860
0.293575 0.293575 0.293575
0.301348 0.301348 0.301348
0.309170 0.309170 0.309170
0.317043 0.317043 0.317043
0.324955 0.324955 0.324955
0.332905 0.332905 0.332905
0.340888 0.340888 0.340888
0.348896 0.348896 0.348896
0.356929 0.356929 0.356929
0.364977 0.364977 0.364977
0.373038 0.373038 0.373038
0.381106 0.381106 0.381106
0.389177 0.389177 0.389177
0.397244 0.397244 0.397244
0.405303 0.405303 0.405303
0.421376 0.421376 0.421376
0.437357 0.437357 0.437357
0.453208 0.453208 0.453208
0.468922 0.468922 0.468922
0.484543 0.484543 0.484543
0.500047 0.500047 0.500047
0.515407 0.515407 0.515407
0.530726 0.530726 0.530726
0.546181 0.546181 0.546181
0.561746 0.561746 0.561746
0.248285 0.248285 0.248285
0.255650 0.255650 0.255650
0.263097 0.263097 0.263097
0.270614 0.270614 0.270614
0.278205 0.278205 0.278205
0.285860 0.285860 0.285860
0.293575 0.293575 0.293575
0.301348 0.301348 0.301348
0.309170 0.309170 0.309170
0.317043 0.317043 0.317043
0.324955 0.324955 0.324955
0.332905 0.332905 0.332905
0.340888 0.340888 0.340888
0.348896 0.348896 0.348896
0.356929 0.356929 0.356929
0.364977 0.364977 0.364977
0.373038 0.373038 0.373038
0.381106 0.381106 0.381106
0.389177 0.389177 0.389177
0.397244 0.397244 0.397244
0.405303 0.405303 0.405303
0.413349 0.413349 0.413349
0.421376 0.421376 0.421376
0.429382 0.429382 0.429382
0.445302 0.445302 0.445302
0.461076 0.461076 0.461076
0.476744 0.476744 0.476744
0.492311 0.492311 0.492311
0.507748 0.507748 0.507748
0.523049 0.523049 0.523049
0.538437 0.538437 0.538437
0.553953 0.553953 0.553953
0.569559 0.569559 0.569559
0.263097 0.263097 0.263097
0.270614 0.270614 0.270614
0.278205 0.278205 0.278205
0.285860 0.285860 0.285860
0.293575 0.293575 0.293575
0.301348 0.301348 0.301348
0.309170 0.309170 0.309170
0.317043 0.317043 0.317043
0.324955 0.324955 0.324955
0.332905 0.332905 0.332905
0.340888 0.340888 0.340888
0.348896 0.348896 0.348896
0.356929 0.356929 0.356929
0.364977 0.364977 0.364977
0.373038 0.373038 0.373038
0.381106 0.381106 0.381106
0.389177 0.389177 0.389177
0.397244 0.397244 0.397244
0.405303 0.405303 0.405303
0.413349 0.413349 0.413349
0.421376 0.421376 0.421376
0.429382 0.429382 0.429382
0.437357 0.437357 0.437357
0.445302 0.445302 0.445302
0.453208 0.453208 0.453208
0.468922 0.468922 0.468922
0.484543 0.484543 0.484543
0.500047 0.500047 0.500047
0.515407 0.515407 0.515407
0.530726 0.530726 0.530726
0.546181 0.546181 0.546181
0.561746 0.561746 0.561746
0.577388 0.577388 0.577388
0.278205 0.278205 0.278205
0.285860 0.285860 0.285860
0.293575 0.293575 0.293575
0.301348 0.301348 0.301348
0.309170 0.309170 0.309170
0.317043 0.317043 0.317043
0.324955 0.324955 0.324955
0.332905 0.332905 0.332905
0.340888 0.340888 0.340888
0.348896 0.348896 0.348896
0.356929 0.356929 0.356929
0.364977 0.364977 0.364977
0.373038 0.373038 0.373038
0.381106 0.381106 0.381106
0.389177 0.389177 0.389177
0.397244 0.397244 0.397244
0.405303 0.405303 0.405303
0.413349 0.413349 0.413349
0.421376 0.421376 0.421376
0.429382 0.429382 0.429382
0.437357 0.437357 0.437357
0.445302 0.445302 0.445302
0.453208 0.453208 0.453208
0.461076 0.461076 0.461076
0.468922 0.468922 0.468922
0.476744 0.476744 0.476744
0.492311 0.492311 0.492311
0.507748 0.507748 0.507748
0.523049 0.523049 0.523049
0.538437 0.538437 0.538437
0.553953 0.553953 0.553953
0.569559 0.569559 0.569559
0.585236 0.585236 0.585236
0.293575 0.293575 0.293575
0.301348 0.301348 0.301348
0.309170 0.309170 0.309170
0.317043 0.317043 0.317043
0.324955 0.324955 0.324955
0.332905 0.332905 0.332905
0.340888 0.340888 0.340888
0.348896 0.348896 0.348896
0.356929 0.356929 0.356929
0.364977 0.364977 0.364977
0.373038 0.373038 0.373038
0.381106 0.381106 0.381106
0.389177 0.389177 0.389177
0.397244 0.397244 0.397244
0.405303 0.405303 0.405303
0.413349 0.413349 0.413349
0.421376 0.421376 0.421376
0.429382 0.429382 0.429382
0.437357 0.437357 0.437357
0.445302 0.445302 0.445302
0.453208 0.453208 0.453208
0.461076 0.461076 0.461076
