ricette/lut/Strada-400-33.cube
# LUT generata da Camera Oscura BN
# Ricetta: Strada 400
# Pellicola: trix400
# Nota: grana, vignetta e interventi locali non sono inclusi nella LUT.
TITLE "Strada 400"
LUT_3D_SIZE 5
DOMAIN_MIN 0.0 0.0 0.0
DOMAIN_MAX 1.0 1.0 1.0
0.000000 0.000000 0.000000
0.065842 0.065842 0.065842
0.152637 0.152637 0.152637
0.263097 0.263097 0.263097
0.389177 0.389177 0.389177
0.065842 0.065842 0.065842
0.105562 0.105562 0.105562
0.205710 0.205710 0.205710
0.324955 0.324955 0.324955
0.453208 0.453208 0.453208
0.152637 0.152637 0.152637
0.205710 0.205710 0.205710
0.263097 0.263097 0.263097
0.389177 0.389177 0.389177
0.515407 0.515407 0.515407
0.263097 0.263097 0.263097
0.324955 0.324955 0.324955
0.389177 0.389177 0.389177
0.453208 0.453208 0.453208
0.577388 0.577388 0.577388
0.389177 0.389177 0.389177
0.453208 0.453208 0.453208
0.515407 0.515407 0.515407
0.577388 0.577388 0.577388
0.640377 0.640377 0.640377
0.031520 0.031520 0.031520
0.152637 0.152637 0.152637
0.263097 0.263097 0.263097
0.389177 0.389177 0.389177
0.515407 0.515407 0.515407
0.105562 0.105562 0.105562
0.205710 0.205710 0.205710
0.324955 0.324955 0.324955
0.453208 0.453208 0.453208
0.577388 0.577388 0.577388
0.205710 0.205710 0.205710
0.324955 0.324955 0.324955
0.389177 0.389177 0.389177
0.515407 0.515407 0.515407
0.640377 0.640377 0.640377
0.324955 0.324955 0.324955
0.453208 0.453208 0.453208
0.515407 0.515407 0.515407
0.577388 0.577388 0.577388
0.702204 0.702204 0.702204
0.453208 0.453208 0.453208
0.577388 0.577388 0.577388
0.640377 0.640377 0.640377
0.702204 0.702204 0.702204
0.760347 0.760347 0.760347
0.065842 0.065842 0.065842
0.205710 0.205710 0.205710
0.389177 0.389177 0.389177
0.515407 0.515407 0.515407
0.640377 0.640377 0.640377
0.152637 0.152637 0.152637
0.263097 0.263097 0.263097
0.453208 0.453208 0.453208
0.577388 0.577388 0.577388
0.702204 0.702204 0.702204
0.263097 0.263097 0.263097
0.389177 0.389177 0.389177
0.515407 0.515407 0.515407
0.640377 0.640377 0.640377
0.760347 0.760347 0.760347
0.389177 0.389177 0.389177
0.515407 0.515407 0.515407
0.640377 0.640377 0.640377
0.702204 0.702204 0.702204
0.812636 0.812636 0.812636
0.515407 0.515407 0.515407
0.640377 0.640377 0.640377
0.760347 0.760347 0.760347
0.812636 0.812636 0.812636
0.859612 0.859612 0.859612
0.105562 0.105562 0.105562
0.263097 0.263097 0.263097
0.453208 0.453208 0.453208
0.640377 0.640377 0.640377
0.760347 0.760347 0.760347
0.205710 0.205710 0.205710
0.324955 0.324955 0.324955
0.515407 0.515407 0.515407
0.702204 0.702204 0.702204
0.812636 0.812636 0.812636
0.324955 0.324955 0.324955
0.453208 0.453208 0.453208
0.577388 0.577388 0.577388
0.760347 0.760347 0.760347
0.859612 0.859612 0.859612
0.453208 0.453208 0.453208
0.577388 0.577388 0.577388
0.702204 0.702204 0.702204
0.812636 0.812636 0.812636
0.900479 0.900479 0.900479
0.577388 0.577388 0.577388
0.702204 0.702204 0.702204
0.812636 0.812636 0.812636
0.900479 0.900479 0.900479
0.933980 0.933980 0.933980
0.152637 0.152637 0.152637
0.324955 0.324955 0.324955
0.515407 0.515407 0.515407
0.702204 0.702204 0.702204
0.859612 0.859612 0.859612
0.263097 0.263097 0.263097
0.389177 0.389177 0.389177
0.577388 0.577388 0.577388
0.760347 0.760347 0.760347
0.900479 0.900479 0.900479
0.389177 0.389177 0.389177
0.515407 0.515407 0.515407
0.640377 0.640377 0.640377
0.812636 0.812636 0.812636
0.933980 0.933980 0.933980
0.515407 0.515407 0.515407
0.640377 0.640377 0.640377
0.760347 0.760347 0.760347
0.859612 0.859612 0.859612
0.962031 0.962031 0.962031
0.640377 0.640377 0.640377
0.760347 0.760347 0.760347
0.859612 0.859612 0.859612
0.933980 0.933980 0.933980
0.988235 0.988235 0.988235
