ricette/lut/Strada-400-33.cube
# LUT generata da Camera Oscura BN
# Ricetta: Strada 400
# Pellicola: trix400
# Nota: grana, vignetta e interventi locali non sono inclusi nella LUT.
TITLE "Strada 400"
LUT_3D_SIZE 9
DOMAIN_MIN 0.0 0.0 0.0
DOMAIN_MAX 1.0 1.0 1.0
0.000000 0.000000 0.000000
0.031520 0.031520 0.031520
0.065842 0.065842 0.065842
0.105562 0.105562 0.105562
0.152637 0.152637 0.152637
0.205710 0.205710 0.205710
0.263097 0.263097 0.263097
0.324955 0.324955 0.324955
0.389177 0.389177 0.389177
0.031520 0.031520 0.031520
0.048193 0.048193 0.048193
0.084819 0.084819 0.084819
0.128234 0.128234 0.128234
0.178559 0.178559 0.178559
0.233803 0.233803 0.233803
0.293575 0.293575 0.293575
0.356929 0.356929 0.356929
0.421376 0.421376 0.421376
0.065842 0.065842 0.065842
0.084819 0.084819 0.084819
0.105562 0.105562 0.105562
0.152637 0.152637 0.152637
0.205710 0.205710 0.205710
0.263097 0.263097 0.263097
0.324955 0.324955 0.324955
0.389177 0.389177 0.389177
0.453208 0.453208 0.453208
0.105562 0.105562 0.105562
0.128234 0.128234 0.128234
0.152637 0.152637 0.152637
0.178559 0.178559 0.178559
0.233803 0.233803 0.233803
0.293575 0.293575 0.293575
0.356929 0.356929 0.356929
0.421376 0.421376 0.421376
0.484543 0.484543 0.484543
0.152637 0.152637 0.152637
0.178559 0.178559 0.178559
0.205710 0.205710 0.205710
0.233803 0.233803 0.233803
0.263097 0.263097 0.263097
0.324955 0.324955 0.324955
0.389177 0.389177 0.389177
0.453208 0.453208 0.453208
0.515407 0.515407 0.515407
0.205710 0.205710 0.205710
0.233803 0.233803 0.233803
0.263097 0.263097 0.263097
0.293575 0.293575 0.293575
0.324955 0.324955 0.324955
0.356929 0.356929 0.356929
0.421376 0.421376 0.421376
0.484543 0.484543 0.484543
0.546181 0.546181 0.546181
0.263097 0.263097 0.263097
0.293575 0.293575 0.293575
0.324955 0.324955 0.324955
0.356929 0.356929 0.356929
0.389177 0.389177 0.389177
0.421376 0.421376 0.421376
0.453208 0.453208 0.453208
0.515407 0.515407 0.515407
0.577388 0.577388 0.577388
0.324955 0.324955 0.324955
0.356929 0.356929 0.356929
0.389177 0.389177 0.389177
0.421376 0.421376 0.421376
0.453208 0.453208 0.453208
0.484543 0.484543 0.484543
0.515407 0.515407 0.515407
0.546181 0.546181 0.546181
0.608866 0.608866 0.608866
0.389177 0.389177 0.389177
0.421376 0.421376 0.421376
0.453208 0.453208 0.453208
0.484543 0.484543 0.484543
0.515407 0.515407 0.515407
0.546181 0.546181 0.546181
0.577388 0.577388 0.577388
0.608866 0.608866 0.608866
0.640377 0.640377 0.640377
0.015530 0.015530 0.015530
0.065842 0.065842 0.065842
0.105562 0.105562 0.105562
0.152637 0.152637 0.152637
0.205710 0.205710 0.205710
0.263097 0.263097 0.263097
0.324955 0.324955 0.324955
0.389177 0.389177 0.389177
0.453208 0.453208 0.453208
0.048193 0.048193 0.048193
0.084819 0.084819 0.084819
0.128234 0.128234 0.128234
0.178559 0.178559 0.178559
0.233803 0.233803 0.233803
0.293575 0.293575 0.293575
0.356929 0.356929 0.356929
0.421376 0.421376 0.421376
0.484543 0.484543 0.484543
0.084819 0.084819 0.084819
0.128234 0.128234 0.128234
0.152637 0.152637 0.152637
0.205710 0.205710 0.205710
0.263097 0.263097 0.263097
0.324955 0.324955 0.324955
0.389177 0.389177 0.389177
0.453208 0.453208 0.453208
0.515407 0.515407 0.515407
0.128234 0.128234 0.128234
0.178559 0.178559 0.178559
0.205710 0.205710 0.205710
0.233803 0.233803 0.233803
0.293575 0.293575 0.293575
0.356929 0.356929 0.356929
0.421376 0.421376 0.421376
0.484543 0.484543 0.484543
0.546181 0.546181 0.546181
0.178559 0.178559 0.178559
0.233803 0.233803 0.233803
0.263097 0.263097 0.263097
0.293575 0.293575 0.293575
0.324955 0.324955 0.324955
0.389177 0.389177 0.389177
0.453208 0.453208 0.453208
0.515407 0.515407 0.515407
0.577388 0.577388 0.577388
0.233803 0.233803 0.233803
0.293575 0.293575 0.293575
0.324955 0.324955 0.324955
0.356929 0.356929 0.356929
0.389177 0.389177 0.389177
0.421376 0.421376 0.421376
0.484543 0.484543 0.484543
0.546181 0.546181 0.546181
0.608866 0.608866 0.608866
0.293575 0.293575 0.293575
0.356929 0.356929 0.356929
0.389177 0.389177 0.389177
0.421376 0.421376 0.421376
0.453208 0.453208 0.453208
0.484543 0.484543 0.484543
0.515407 0.515407 0.515407
0.577388 0.577388 0.577388
0.640377 0.640377 0.640377
0.356929 0.356929 0.356929
0.421376 0.421376 0.421376
0.453208 0.453208 0.453208
0.484543 0.484543 0.484543
0.515407 0.515407 0.515407
0.546181 0.546181 0.546181
0.577388 0.577388 0.577388
0.608866 0.608866 0.608866
0.671596 0.671596 0.671596
0.421376 0.421376 0.421376
0.484543 0.484543 0.484543
0.515407 0.515407 0.515407
0.546181 0.546181 0.546181
0.577388 0.577388 0.577388
0.608866 0.608866 0.608866
0.640377 0.640377 0.640377
0.671596 0.671596 0.671596
0.702204 0.702204 0.702204
0.031520 0.031520 0.031520
0.084819 0.084819 0.084819
0.152637 0.152637 0.152637
0.205710 0.205710 0.205710
0.263097 0.263097 0.263097
0.324955 0.324955 0.324955
0.389177 0.389177 0.389177
0.453208 0.453208 0.453208
0.515407 0.515407 0.515407
0.065842 0.065842 0.065842
0.105562 0.105562 0.105562
0.178559 0.178559 0.178559
0.233803 0.233803 0.233803
0.293575 0.293575 0.293575
0.356929 0.356929 0.356929
0.421376 0.421376 0.421376
0.484543 0.484543 0.484543
0.546181 0.546181 0.546181
0.105562 0.105562 0.105562
0.152637 0.152637 0.152637
0.205710 0.205710 0.205710
0.263097 0.263097 0.263097
0.324955 0.324955 0.324955
0.389177 0.389177 0.389177
0.453208 0.453208 0.453208
0.515407 0.515407 0.515407
0.577388 0.577388 0.577388
0.152637 0.152637 0.152637
0.205710 0.205710 0.205710
0.263097 0.263097 0.263097
0.293575 0.293575 0.293575
0.356929 0.356929 0.356929
0.421376 0.421376 0.421376
0.484543 0.484543 0.484543
0.546181 0.546181 0.546181
0.608866 0.608866 0.608866
0.205710 0.205710 0.205710
0.263097 0.263097 0.263097
0.324955 0.324955 0.324955
0.356929 0.356929 0.356929
0.389177 0.389177 0.389177
0.453208 0.453208 0.453208
0.515407 0.515407 0.515407
0.577388 0.577388 0.577388
0.640377 0.640377 0.640377
0.263097 0.263097 0.263097
0.324955 0.324955 0.324955
0.389177 0.389177 0.389177
0.421376 0.421376 0.421376
0.453208 0.453208 0.453208
0.484543 0.484543 0.484543
0.546181 0.546181 0.546181
0.608866 0.608866 0.608866
0.671596 0.671596 0.671596
0.324955 0.324955 0.324955
0.389177 0.389177 0.389177
0.453208 0.453208 0.453208
0.484543 0.484543 0.484543
0.515407 0.515407 0.515407
0.546181 0.546181 0.546181
0.577388 0.577388 0.577388
0.640377 0.640377 0.640377
0.702204 0.702204 0.702204
0.389177 0.389177 0.389177
0.453208 0.453208 0.453208
0.515407 0.515407 0.515407
0.546181 0.546181 0.546181
0.577388 0.577388 0.577388
0.608866 0.608866 0.608866
0.640377 0.640377 0.640377
0.671596 0.671596 0.671596
0.731888 0.731888 0.731888
0.453208 0.453208 0.453208
0.515407 0.515407 0.515407
0.577388 0.577388 0.577388
0.608866 0.608866 0.608866
0.640377 0.640377 0.640377
0.671596 0.671596 0.671596
0.702204 0.702204 0.702204
0.731888 0.731888 0.731888
0.760347 0.760347 0.760347
0.048193 0.048193 0.048193
0.105562 0.105562 0.105562
0.178559 0.178559 0.178559
0.263097 0.263097 0.263097
0.324955 0.324955 0.324955
0.389177 0.389177 0.389177
0.453208 0.453208 0.453208
0.515407 0.515407 0.515407
0.577388 0.577388 0.577388
0.084819 0.084819 0.084819
0.128234 0.128234 0.128234
0.205710 0.205710 0.205710
0.293575 0.293575 0.293575
0.356929 0.356929 0.356929
0.421376 0.421376 0.421376
0.484543 0.484543 0.484543
0.546181 0.546181 0.546181
0.608866 0.608866 0.608866
0.128234 0.128234 0.128234
0.178559 0.178559 0.178559
0.233803 0.233803 0.233803
0.324955 0.324955 0.324955
0.389177 0.389177 0.389177
0.453208 0.453208 0.453208
0.515407 0.515407 0.515407
0.577388 0.577388 0.577388
0.640377 0.640377 0.640377
0.178559 0.178559 0.178559
0.233803 0.233803 0.233803
0.293575 0.293575 0.293575
0.356929 0.356929 0.356929
0.421376 0.421376 0.421376
0.484543 0.484543 0.484543
0.546181 0.546181 0.546181
0.608866 0.608866 0.608866
0.671596 0.671596 0.671596
0.233803 0.233803 0.233803
0.293575 0.293575 0.293575
0.356929 0.356929 0.356929
0.421376 0.421376 0.421376
0.453208 0.453208 0.453208
0.515407 0.515407 0.515407
0.577388 0.577388 0.577388
0.640377 0.640377 0.640377
0.702204 0.702204 0.702204
0.293575 0.293575 0.293575
0.356929 0.356929 0.356929
0.421376 0.421376 0.421376
0.484543 0.484543 0.484543
0.515407 0.515407 0.515407
0.546181 0.546181 0.546181
0.608866 0.608866 0.608866
0.671596 0.671596 0.671596
0.731888 0.731888 0.731888
0.356929 0.356929 0.356929
0.421376 0.421376 0.421376
0.484543 0.484543 0.484543
0.546181 0.546181 0.546181
0.577388 0.577388 0.577388
0.608866 0.608866 0.608866
0.640377 0.640377 0.640377
0.702204 0.702204 0.702204
0.760347 0.760347 0.760347
0.421376 0.421376 0.421376
0.484543 0.484543 0.484543
0.546181 0.546181 0.546181
0.608866 0.608866 0.608866
0.640377 0.640377 0.640377
0.671596 0.671596 0.671596
0.702204 0.702204 0.702204
0.731888 0.731888 0.731888
0.787311 0.787311 0.787311
0.484543 0.484543 0.484543
0.546181 0.546181 0.546181
0.608866 0.608866 0.608866
0.671596 0.671596 0.671596
0.702204 0.702204 0.702204
0.731888 0.731888 0.731888
0.760347 0.760347 0.760347
0.787311 0.787311 0.787311
0.812636 0.812636 0.812636
0.065842 0.065842 0.065842
0.128234 0.128234 0.128234
0.205710 0.205710 0.205710
0.293575 0.293575 0.293575
0.389177 0.389177 0.389177
0.453208 0.453208 0.453208
0.515407 0.515407 0.515407
0.577388 0.577388 0.577388
0.640377 0.640377 0.640377
0.105562 0.105562 0.105562
0.152637 0.152637 0.152637
0.233803 0.233803 0.233803
0.324955 0.324955 0.324955
0.421376 0.421376 0.421376
0.484543 0.484543 0.484543
0.546181 0.546181 0.546181
0.608866 0.608866 0.608866
0.671596 0.671596 0.671596
0.152637 0.152637 0.152637
0.205710 0.205710 0.205710
0.263097 0.263097 0.263097
0.356929 0.356929 0.356929
0.453208 0.453208 0.453208
0.515407 0.515407 0.515407
0.577388 0.577388 0.577388
0.640377 0.640377 0.640377
0.702204 0.702204 0.702204
0.205710 0.205710 0.205710
0.263097 0.263097 0.263097
0.324955 0.324955 0.324955
0.389177 0.389177 0.389177
0.484543 0.484543 0.484543
0.546181 0.546181 0.546181
0.608866 0.608866 0.608866
0.671596 0.671596 0.671596
0.731888 0.731888 0.731888
0.263097 0.263097 0.263097
0.324955 0.324955 0.324955
0.389177 0.389177 0.389177
0.453208 0.453208 0.453208
0.515407 0.515407 0.515407
0.577388 0.577388 0.577388
0.640377 0.640377 0.640377
0.702204 0.702204 0.702204
0.760347 0.760347 0.760347
0.324955 0.324955 0.324955
0.389177 0.389177 0.389177
0.453208 0.453208 0.453208
0.515407 0.515407 0.515407
0.577388 0.577388 0.577388
0.608866 0.608866 0.608866
0.671596 0.671596 0.671596
0.731888 0.731888 0.731888
0.787311 0.787311 0.787311
0.389177 0.389177 0.389177
0.453208 0.453208 0.453208
0.515407 0.515407 0.515407
0.577388 0.577388 0.577388
0.640377 0.640377 0.640377
0.671596 0.671596 0.671596
0.702204 0.702204 0.702204
0.760347 0.760347 0.760347
0.812636 0.812636 0.812636
0.453208 0.453208 0.453208
0.515407 0.515407 0.515407
0.577388 0.577388 0.577388
0.640377 0.640377 0.640377
0.702204 0.702204 0.702204
0.731888 0.731888 0.731888
0.760347 0.760347 0.760347
0.787311 0.787311 0.787311
0.836779 0.836779 0.836779
0.515407 0.515407 0.515407
0.577388 0.577388 0.577388
0.640377 0.640377 0.640377
0.702204 0.702204 0.702204
0.760347 0.760347 0.760347
0.787311 0.787311 0.787311
0.812636 0.812636 0.812636
0.836779 0.836779 0.836779
0.859612 0.859612 0.859612
0.084819 0.084819 0.084819
0.152637 0.152637 0.152637
0.233803 0.233803 0.233803
0.324955 0.324955 0.324955
0.421376 0.421376 0.421376
0.515407 0.515407 0.515407
0.577388 0.577388 0.577388
0.640377 0.640377 0.640377
0.702204 0.702204 0.702204
0.128234 0.128234 0.128234
0.178559 0.178559 0.178559
0.263097 0.263097 0.263097
0.356929 0.356929 0.356929
0.453208 0.453208 0.453208
0.546181 0.546181 0.546181
0.608866 0.608866 0.608866
0.671596 0.671596 0.671596
0.731888 0.731888 0.731888
0.178559 0.178559 0.178559
0.233803 0.233803 0.233803
0.293575 0.293575 0.293575
0.389177 0.389177 0.389177
0.484543 0.484543 0.484543
0.577388 0.577388 0.577388
0.640377 0.640377 0.640377
0.702204 0.702204 0.702204
0.760347 0.760347 0.760347
0.233803 0.233803 0.233803
0.293575 0.293575 0.293575
0.356929 0.356929 0.356929
0.421376 0.421376 0.421376
0.515407 0.515407 0.515407
0.608866 0.608866 0.608866
0.671596 0.671596 0.671596
0.731888 0.731888 0.731888
0.787311 0.787311 0.787311
0.293575 0.293575 0.293575
0.356929 0.356929 0.356929
0.421376 0.421376 0.421376
0.484543 0.484543 0.484543
0.546181 0.546181 0.546181
0.640377 0.640377 0.640377
0.702204 0.702204 0.702204
0.760347 0.760347 0.760347
0.812636 0.812636 0.812636
0.356929 0.356929 0.356929
0.421376 0.421376 0.421376
0.484543 0.484543 0.484543
0.546181 0.546181 0.546181
0.608866 0.608866 0.608866
0.671596 0.671596 0.671596
0.731888 0.731888 0.731888
0.787311 0.787311 0.787311
0.836779 0.836779 0.836779
0.421376 0.421376 0.421376
0.484543 0.484543 0.484543
0.546181 0.546181 0.546181
0.608866 0.608866 0.608866
0.671596 0.671596 0.671596
0.731888 0.731888 0.731888
0.760347 0.760347 0.760347
0.812636 0.812636 0.812636
0.859612 0.859612 0.859612
0.484543 0.484543 0.484543
0.546181 0.546181 0.546181
0.608866 0.608866 0.608866
0.671596 0.671596 0.671596
0.731888 0.731888 0.731888
0.787311 0.787311 0.787311
0.812636 0.812636 0.812636
0.836779 0.836779 0.836779
0.880903 0.880903 0.880903
0.546181 0.546181 0.546181
0.608866 0.608866 0.608866
0.671596 0.671596 0.671596
0.731888 0.731888 0.731888
0.787311 0.787311 0.787311
0.836779 0.836779 0.836779
0.859612 0.859612 0.859612
0.880903 0.880903 0.880903
0.900479 0.900479 0.900479
0.105562 0.105562 0.105562
0.178559 0.178559 0.178559
0.263097 0.263097 0.263097
0.356929 0.356929 0.356929
0.453208 0.453208 0.453208
0.546181 0.546181 0.546181
0.640377 0.640377 0.640377
0.702204 0.702204 0.702204
0.760347 0.760347 0.760347
0.152637 0.152637 0.152637
0.205710 0.205710 0.205710
0.293575 0.293575 0.293575
0.389177 0.389177 0.389177
0.484543 0.484543 0.484543
0.577388 0.577388 0.577388
0.671596 0.671596 0.671596
0.731888 0.731888 0.731888
0.787311 0.787311 0.787311
0.205710 0.205710 0.205710
0.263097 0.263097 0.263097
0.324955 0.324955 0.324955
0.421376 0.421376 0.421376
0.515407 0.515407 0.515407
0.608866 0.608866 0.608866
0.702204 0.702204 0.702204
0.760347 0.760347 0.760347
0.812636 0.812636 0.812636
0.263097 0.263097 0.263097
0.324955 0.324955 0.324955
0.389177 0.389177 0.389177
0.453208 0.453208 0.453208
0.546181 0.546181 0.546181
0.640377 0.640377 0.640377
0.731888 0.731888 0.731888
0.787311 0.787311 0.787311
0.836779 0.836779 0.836779
0.324955 0.324955 0.324955
0.389177 0.389177 0.389177
0.453208 0.453208 0.453208
0.515407 0.515407 0.515407
0.577388 0.577388 0.577388
0.671596 0.671596 0.671596
0.760347 0.760347 0.760347
0.812636 0.812636 0.812636
0.859612 0.859612 0.859612
0.389177 0.389177 0.389177
0.453208 0.453208 0.453208
0.515407 0.515407 0.515407
0.577388 0.577388 0.577388
0.640377 0.640377 0.640377
0.702204 0.702204 0.702204
0.787311 0.787311 0.787311
0.836779 0.836779 0.836779
0.880903 0.880903 0.880903
0.453208 0.453208 0.453208
0.515407 0.515407 0.515407
0.577388 0.577388 0.577388
0.640377 0.640377 0.640377
0.702204 0.702204 0.702204
0.760347 0.760347 0.760347
0.812636 0.812636 0.812636
0.859612 0.859612 0.859612
0.900479 0.900479 0.900479
0.515407 0.515407 0.515407
0.577388 0.577388 0.577388
0.640377 0.640377 0.640377
0.702204 0.702204 0.702204
0.760347 0.760347 0.760347
0.812636 0.812636 0.812636
0.859612 0.859612 0.859612
0.880903 0.880903 0.880903
0.918166 0.918166 0.918166
0.577388 0.577388 0.577388
0.640377 0.640377 0.640377
0.702204 0.702204 0.702204
0.760347 0.760347 0.760347
0.812636 0.812636 0.812636
0.859612 0.859612 0.859612
0.900479 0.900479 0.900479
0.918166 0.918166 0.918166
0.933980 0.933980 0.933980
0.128234 0.128234 0.128234
0.205710 0.205710 0.205710
0.293575 0.293575 0.293575
0.389177 0.389177 0.389177
0.484543 0.484543 0.484543
0.577388 0.577388 0.577388
0.671596 0.671596 0.671596
0.760347 0.760347 0.760347
0.812636 0.812636 0.812636
0.178559 0.178559 0.178559
0.233803 0.233803 0.233803
0.324955 0.324955 0.324955
0.421376 0.421376 0.421376
0.515407 0.515407 0.515407
0.608866 0.608866 0.608866
0.702204 0.702204 0.702204
0.787311 0.787311 0.787311
0.836779 0.836779 0.836779
0.233803 0.233803 0.233803
0.293575 0.293575 0.293575
0.356929 0.356929 0.356929
0.453208 0.453208 0.453208
0.546181 0.546181 0.546181
0.640377 0.640377 0.640377
0.731888 0.731888 0.731888
0.812636 0.812636 0.812636
0.859612 0.859612 0.859612
0.293575 0.293575 0.293575
0.356929 0.356929 0.356929
0.421376 0.421376 0.421376
0.484543 0.484543 0.484543
0.577388 0.577388 0.577388
0.671596 0.671596 0.671596
0.760347 0.760347 0.760347
0.836779 0.836779 0.836779
0.880903 0.880903 0.880903
0.356929 0.356929 0.356929
0.421376 0.421376 0.421376
0.484543 0.484543 0.484543
0.546181 0.546181 0.546181
0.608866 0.608866 0.608866
0.702204 0.702204 0.702204
0.787311 0.787311 0.787311
0.859612 0.859612 0.859612
0.900479 0.900479 0.900479
0.421376 0.421376 0.421376
0.484543 0.484543 0.484543
0.546181 0.546181 0.546181
0.608866 0.608866 0.608866
0.671596 0.671596 0.671596
0.731888 0.731888 0.731888
0.812636 0.812636 0.812636
0.880903 0.880903 0.880903
0.918166 0.918166 0.918166
0.484543 0.484543 0.484543
0.546181 0.546181 0.546181
0.608866 0.608866 0.608866
0.671596 0.671596 0.671596
0.731888 0.731888 0.731888
0.787311 0.787311 0.787311
0.836779 0.836779 0.836779
0.900479 0.900479 0.900479
0.933980 0.933980 0.933980
0.546181 0.546181 0.546181
0.608866 0.608866 0.608866
0.671596 0.671596 0.671596
0.731888 0.731888 0.731888
0.787311 0.787311 0.787311
0.836779 0.836779 0.836779
0.880903 0.880903 0.880903
0.918166 0.918166 0.918166
0.948440 0.948440 0.948440
0.608866 0.608866 0.608866
0.671596 0.671596 0.671596
0.731888 0.731888 0.731888
0.787311 0.787311 0.787311
0.836779 0.836779 0.836779
0.880903 0.880903 0.880903
0.918166 0.918166 0.918166
0.948440 0.948440 0.948440
0.962031 0.962031 0.962031
0.152637 0.152637 0.152637
0.233803 0.233803 0.233803
0.324955 0.324955 0.324955
0.421376 0.421376 0.421376
0.515407 0.515407 0.515407
0.608866 0.608866 0.608866
0.702204 0.702204 0.702204
0.787311 0.787311 0.787311
0.859612 0.859612 0.859612
0.205710 0.205710 0.205710
0.263097 0.263097 0.263097
0.356929 0.356929 0.356929
0.453208 0.453208 0.453208
0.546181 0.546181 0.546181
0.640377 0.640377 0.640377
0.731888 0.731888 0.731888
0.812636 0.812636 0.812636
0.880903 0.880903 0.880903
0.263097 0.263097 0.263097
0.324955 0.324955 0.324955
0.389177 0.389177 0.389177
0.484543 0.484543 0.484543
0.577388 0.577388 0.577388
0.671596 0.671596 0.671596
0.760347 0.760347 0.760347
0.836779 0.836779 0.836779
0.900479 0.900479 0.900479
0.324955 0.324955 0.324955
0.389177 0.389177 0.389177
0.453208 0.453208 0.453208
0.515407 0.515407 0.515407
0.608866 0.608866 0.608866
0.702204 0.702204 0.702204
0.787311 0.787311 0.787311
0.859612 0.859612 0.859612
0.918166 0.918166 0.918166
0.389177 0.389177 0.389177
0.453208 0.453208 0.453208
0.515407 0.515407 0.515407
0.577388 0.577388 0.577388
0.640377 0.640377 0.640377
0.731888 0.731888 0.731888
0.812636 0.812636 0.812636
0.880903 0.880903 0.880903
0.933980 0.933980 0.933980
0.453208 0.453208 0.453208
0.515407 0.515407 0.515407
0.577388 0.577388 0.577388
0.640377 0.640377 0.640377
0.702204 0.702204 0.702204
0.760347 0.760347 0.760347
0.836779 0.836779 0.836779
0.900479 0.900479 0.900479
0.948440 0.948440 0.948440
0.515407 0.515407 0.515407
0.577388 0.577388 0.577388
0.640377 0.640377 0.640377
0.702204 0.702204 0.702204
0.760347 0.760347 0.760347
0.812636 0.812636 0.812636
0.859612 0.859612 0.859612
0.918166 0.918166 0.918166
0.962031 0.962031 0.962031
0.577388 0.577388 0.577388
0.640377 0.640377 0.640377
0.702204 0.702204 0.702204
0.760347 0.760347 0.760347
0.812636 0.812636 0.812636
0.859612 0.859612 0.859612
0.900479 0.900479 0.900479
0.933980 0.933980 0.933980
0.975180 0.975180 0.975180
0.640377 0.640377 0.640377
0.702204 0.702204 0.702204
0.760347 0.760347 0.760347
0.812636 0.812636 0.812636
0.859612 0.859612 0.859612
0.900479 0.900479 0.900479
0.933980 0.933980 0.933980
0.962031 0.962031 0.962031
0.988235 0.988235 0.988235
