ricette/lut/Tabulare-400-33.cube
# LUT generata da Camera Oscura BN
# Ricetta: Tabulare 400
# Pellicola: tmax400
# Nota: grana, vignetta e interventi locali non sono inclusi nella LUT.
TITLE "Tabulare 400"
LUT_3D_SIZE 9
DOMAIN_MIN 0.0 0.0 0.0
DOMAIN_MAX 1.0 1.0 1.0
0.000000 0.000000 0.000000
0.034072 0.034072 0.034072
0.070712 0.070712 0.070712
0.112617 0.112617 0.112617
0.160622 0.160622 0.160622
0.213511 0.213511 0.213511
0.270230 0.270230 0.270230
0.329466 0.329466 0.329466
0.389723 0.389723 0.389723
0.034072 0.034072 0.034072
0.051922 0.051922 0.051922
0.090807 0.090807 0.090807
0.135959 0.135959 0.135959
0.186517 0.186517 0.186517
0.241467 0.241467 0.241467
0.299623 0.299623 0.299623
0.359565 0.359565 0.359565
0.419739 0.419739 0.419739
0.070712 0.070712 0.070712
0.090807 0.090807 0.090807
0.112617 0.112617 0.112617
0.160622 0.160622 0.160622
0.213511 0.213511 0.213511
0.270230 0.270230 0.270230
0.329466 0.329466 0.329466
0.389723 0.389723 0.389723
0.449419 0.449419 0.449419
0.112617 0.112617 0.112617
0.135959 0.135959 0.135959
0.160622 0.160622 0.160622
0.186517 0.186517 0.186517
0.241467 0.241467 0.241467
0.299623 0.299623 0.299623
0.359565 0.359565 0.359565
0.419739 0.419739 0.419739
0.478712 0.478712 0.478712
0.160622 0.160622 0.160622
0.186517 0.186517 0.186517
0.213511 0.213511 0.213511
0.241467 0.241467 0.241467
0.270230 0.270230 0.270230
0.329466 0.329466 0.329466
0.389723 0.389723 0.389723
0.449419 0.449419 0.449419
0.507676 0.507676 0.507676
0.213511 0.213511 0.213511
0.241467 0.241467 0.241467
0.270230 0.270230 0.270230
0.299623 0.299623 0.299623
0.329466 0.329466 0.329466
0.359565 0.359565 0.359565
0.419739 0.419739 0.419739
0.478712 0.478712 0.478712
0.536732 0.536732 0.536732
0.270230 0.270230 0.270230
0.299623 0.299623 0.299623
0.329466 0.329466 0.329466
0.359565 0.359565 0.359565
0.389723 0.389723 0.389723
0.419739 0.419739 0.419739
0.449419 0.449419 0.449419
0.507676 0.507676 0.507676
0.566378 0.566378 0.566378
0.329466 0.329466 0.329466
0.359565 0.359565 0.359565
0.389723 0.389723 0.389723
0.419739 0.419739 0.419739
0.449419 0.449419 0.449419
0.478712 0.478712 0.478712
0.507676 0.507676 0.507676
0.536732 0.536732 0.536732
0.596447 0.596447 0.596447
0.389723 0.389723 0.389723
0.419739 0.419739 0.419739
0.449419 0.449419 0.449419
0.478712 0.478712 0.478712
0.507676 0.507676 0.507676
0.536732 0.536732 0.536732
0.566378 0.566378 0.566378
0.596447 0.596447 0.596447
0.626709 0.626709 0.626709
0.016847 0.016847 0.016847
0.070712 0.070712 0.070712
0.112617 0.112617 0.112617
0.160622 0.160622 0.160622
0.213511 0.213511 0.213511
0.270230 0.270230 0.270230
0.329466 0.329466 0.329466
0.389723 0.389723 0.389723
0.449419 0.449419 0.449419
0.051922 0.051922 0.051922
0.090807 0.090807 0.090807
0.135959 0.135959 0.135959
0.186517 0.186517 0.186517
0.241467 0.241467 0.241467
0.299623 0.299623 0.299623
0.359565 0.359565 0.359565
0.419739 0.419739 0.419739
0.478712 0.478712 0.478712
0.090807 0.090807 0.090807
0.135959 0.135959 0.135959
0.160622 0.160622 0.160622
0.213511 0.213511 0.213511
0.270230 0.270230 0.270230
0.329466 0.329466 0.329466
0.389723 0.389723 0.389723
0.449419 0.449419 0.449419
0.507676 0.507676 0.507676
0.135959 0.135959 0.135959
0.186517 0.186517 0.186517
0.213511 0.213511 0.213511
0.241467 0.241467 0.241467
0.299623 0.299623 0.299623
0.359565 0.359565 0.359565
0.419739 0.419739 0.419739
0.478712 0.478712 0.478712
0.536732 0.536732 0.536732
0.186517 0.186517 0.186517
0.241467 0.241467 0.241467
0.270230 0.270230 0.270230
0.299623 0.299623 0.299623
0.329466 0.329466 0.329466
0.389723 0.389723 0.389723
0.449419 0.449419 0.449419
0.507676 0.507676 0.507676
0.566378 0.566378 0.566378
0.241467 0.241467 0.241467
0.299623 0.299623 0.299623
0.329466 0.329466 0.329466
0.359565 0.359565 0.359565
0.389723 0.389723 0.389723
0.419739 0.419739 0.419739
0.478712 0.478712 0.478712
0.536732 0.536732 0.536732
0.596447 0.596447 0.596447
0.299623 0.299623 0.299623
0.359565 0.359565 0.359565
0.389723 0.389723 0.389723
0.419739 0.419739 0.419739
0.449419 0.449419 0.449419
0.478712 0.478712 0.478712
0.507676 0.507676 0.507676
0.566378 0.566378 0.566378
0.626709 0.626709 0.626709
0.359565 0.359565 0.359565
0.419739 0.419739 0.419739
0.449419 0.449419 0.449419
0.478712 0.478712 0.478712
0.507676 0.507676 0.507676
0.536732 0.536732 0.536732
0.566378 0.566378 0.566378
0.596447 0.596447 0.596447
0.656846 0.656846 0.656846
0.419739 0.419739 0.419739
0.478712 0.478712 0.478712
0.507676 0.507676 0.507676
0.536732 0.536732 0.536732
0.566378 0.566378 0.566378
0.596447 0.596447 0.596447
0.626709 0.626709 0.626709
0.656846 0.656846 0.656846
0.686544 0.686544 0.686544
0.034072 0.034072 0.034072
0.090807 0.090807 0.090807
0.160622 0.160622 0.160622
0.213511 0.213511 0.213511
0.270230 0.270230 0.270230
0.329466 0.329466 0.329466
0.389723 0.389723 0.389723
0.449419 0.449419 0.449419
0.507676 0.507676 0.507676
0.070712 0.070712 0.070712
0.112617 0.112617 0.112617
0.186517 0.186517 0.186517
0.241467 0.241467 0.241467
0.299623 0.299623 0.299623
0.359565 0.359565 0.359565
0.419739 0.419739 0.419739
0.478712 0.478712 0.478712
0.536732 0.536732 0.536732
0.112617 0.112617 0.112617
0.160622 0.160622 0.160622
0.213511 0.213511 0.213511
0.270230 0.270230 0.270230
0.329466 0.329466 0.329466
0.389723 0.389723 0.389723
0.449419 0.449419 0.449419
0.507676 0.507676 0.507676
0.566378 0.566378 0.566378
0.160622 0.160622 0.160622
0.213511 0.213511 0.213511
0.270230 0.270230 0.270230
0.299623 0.299623 0.299623
0.359565 0.359565 0.359565
0.419739 0.419739 0.419739
0.478712 0.478712 0.478712
0.536732 0.536732 0.536732
0.596447 0.596447 0.596447
0.213511 0.213511 0.213511
0.270230 0.270230 0.270230
0.329466 0.329466 0.329466
0.359565 0.359565 0.359565
0.389723 0.389723 0.389723
0.449419 0.449419 0.449419
0.507676 0.507676 0.507676
0.566378 0.566378 0.566378
0.626709 0.626709 0.626709
0.270230 0.270230 0.270230
0.329466 0.329466 0.329466
0.389723 0.389723 0.389723
0.419739 0.419739 0.419739
0.449419 0.449419 0.449419
0.478712 0.478712 0.478712
0.536732 0.536732 0.536732
0.596447 0.596447 0.596447
0.656846 0.656846 0.656846
0.329466 0.329466 0.329466
0.389723 0.389723 0.389723
0.449419 0.449419 0.449419
0.478712 0.478712 0.478712
0.507676 0.507676 0.507676
0.536732 0.536732 0.536732
0.566378 0.566378 0.566378
0.626709 0.626709 0.626709
0.686544 0.686544 0.686544
0.389723 0.389723 0.389723
0.449419 0.449419 0.449419
0.507676 0.507676 0.507676
0.536732 0.536732 0.536732
0.566378 0.566378 0.566378
0.596447 0.596447 0.596447
0.626709 0.626709 0.626709
0.656846 0.656846 0.656846
0.715493 0.715493 0.715493
0.449419 0.449419 0.449419
0.507676 0.507676 0.507676
0.566378 0.566378 0.566378
0.596447 0.596447 0.596447
0.626709 0.626709 0.626709
0.656846 0.656846 0.656846
0.686544 0.686544 0.686544
0.715493 0.715493 0.715493
0.743389 0.743389 0.743389
0.051922 0.051922 0.051922
0.112617 0.112617 0.112617
0.186517 0.186517 0.186517
0.270230 0.270230 0.270230
0.329466 0.329466 0.329466
0.389723 0.389723 0.389723
0.449419 0.449419 0.449419
0.507676 0.507676 0.507676
0.566378 0.566378 0.566378
0.090807 0.090807 0.090807
0.135959 0.135959 0.135959
0.213511 0.213511 0.213511
0.299623 0.299623 0.299623
0.359565 0.359565 0.359565
0.419739 0.419739 0.419739
0.478712 0.478712 0.478712
0.536732 0.536732 0.536732
0.596447 0.596447 0.596447
0.135959 0.135959 0.135959
0.186517 0.186517 0.186517
0.241467 0.241467 0.241467
0.329466 0.329466 0.329466
0.389723 0.389723 0.389723
0.449419 0.449419 0.449419
0.507676 0.507676 0.507676
0.566378 0.566378 0.566378
0.626709 0.626709 0.626709
0.186517 0.186517 0.186517
0.241467 0.241467 0.241467
0.299623 0.299623 0.299623
0.359565 0.359565 0.359565
0.419739 0.419739 0.419739
0.478712 0.478712 0.478712
0.536732 0.536732 0.536732
0.596447 0.596447 0.596447
0.656846 0.656846 0.656846
0.241467 0.241467 0.241467
0.299623 0.299623 0.299623
0.359565 0.359565 0.359565
0.419739 0.419739 0.419739
0.449419 0.449419 0.449419
0.507676 0.507676 0.507676
0.566378 0.566378 0.566378
0.626709 0.626709 0.626709
0.686544 0.686544 0.686544
0.299623 0.299623 0.299623
0.359565 0.359565 0.359565
0.419739 0.419739 0.419739
0.478712 0.478712 0.478712
0.507676 0.507676 0.507676
0.536732 0.536732 0.536732
0.596447 0.596447 0.596447
0.656846 0.656846 0.656846
0.715493 0.715493 0.715493
0.359565 0.359565 0.359565
0.419739 0.419739 0.419739
0.478712 0.478712 0.478712
0.536732 0.536732 0.536732
0.566378 0.566378 0.566378
0.596447 0.596447 0.596447
0.626709 0.626709 0.626709
0.686544 0.686544 0.686544
0.743389 0.743389 0.743389
0.419739 0.419739 0.419739
0.478712 0.478712 0.478712
0.536732 0.536732 0.536732
0.596447 0.596447 0.596447
0.626709 0.626709 0.626709
0.656846 0.656846 0.656846
0.686544 0.686544 0.686544
0.715493 0.715493 0.715493
0.769959 0.769959 0.769959
0.478712 0.478712 0.478712
0.536732 0.536732 0.536732
0.596447 0.596447 0.596447
0.656846 0.656846 0.656846
0.686544 0.686544 0.686544
0.715493 0.715493 0.715493
0.743389 0.743389 0.743389
0.769959 0.769959 0.769959
0.794971 0.794971 0.794971
0.070712 0.070712 0.070712
0.135959 0.135959 0.135959
0.213511 0.213511 0.213511
0.299623 0.299623 0.299623
0.389723 0.389723 0.389723
0.449419 0.449419 0.449419
0.507676 0.507676 0.507676
0.566378 0.566378 0.566378
0.626709 0.626709 0.626709
0.112617 0.112617 0.112617
0.160622 0.160622 0.160622
0.241467 0.241467 0.241467
0.329466 0.329466 0.329466
0.419739 0.419739 0.419739
0.478712 0.478712 0.478712
0.536732 0.536732 0.536732
0.596447 0.596447 0.596447
0.656846 0.656846 0.656846
0.160622 0.160622 0.160622
0.213511 0.213511 0.213511
0.270230 0.270230 0.270230
0.359565 0.359565 0.359565
0.449419 0.449419 0.449419
0.507676 0.507676 0.507676
0.566378 0.566378 0.566378
0.626709 0.626709 0.626709
0.686544 0.686544 0.686544
0.213511 0.213511 0.213511
0.270230 0.270230 0.270230
0.329466 0.329466 0.329466
0.389723 0.389723 0.389723
0.478712 0.478712 0.478712
0.536732 0.536732 0.536732
0.596447 0.596447 0.596447
0.656846 0.656846 0.656846
0.715493 0.715493 0.715493
0.270230 0.270230 0.270230
0.329466 0.329466 0.329466
0.389723 0.389723 0.389723
0.449419 0.449419 0.449419
0.507676 0.507676 0.507676
0.566378 0.566378 0.566378
0.626709 0.626709 0.626709
0.686544 0.686544 0.686544
0.743389 0.743389 0.743389
0.329466 0.329466 0.329466
0.389723 0.389723 0.389723
0.449419 0.449419 0.449419
0.507676 0.507676 0.507676
0.566378 0.566378 0.566378
0.596447 0.596447 0.596447
0.656846 0.656846 0.656846
0.715493 0.715493 0.715493
0.769959 0.769959 0.769959
0.389723 0.389723 0.389723
0.449419 0.449419 0.449419
0.507676 0.507676 0.507676
0.566378 0.566378 0.566378
0.626709 0.626709 0.626709
0.656846 0.656846 0.656846
0.686544 0.686544 0.686544
0.743389 0.743389 0.743389
0.794971 0.794971 0.794971
0.449419 0.449419 0.449419
0.507676 0.507676 0.507676
0.566378 0.566378 0.566378
0.626709 0.626709 0.626709
0.686544 0.686544 0.686544
0.715493 0.715493 0.715493
0.743389 0.743389 0.743389
0.769959 0.769959 0.769959
0.818626 0.818626 0.818626
0.507676 0.507676 0.507676
0.566378 0.566378 0.566378
0.626709 0.626709 0.626709
0.686544 0.686544 0.686544
0.743389 0.743389 0.743389
0.769959 0.769959 0.769959
0.794971 0.794971 0.794971
0.818626 0.818626 0.818626
0.841132 0.841132 0.841132
0.090807 0.090807 0.090807
0.160622 0.160622 0.160622
0.241467 0.241467 0.241467
0.329466 0.329466 0.329466
0.419739 0.419739 0.419739
0.507676 0.507676 0.507676
0.566378 0.566378 0.566378
0.626709 0.626709 0.626709
0.686544 0.686544 0.686544
0.135959 0.135959 0.135959
0.186517 0.186517 0.186517
0.270230 0.270230 0.270230
0.359565 0.359565 0.359565
0.449419 0.449419 0.449419
0.536732 0.536732 0.536732
0.596447 0.596447 0.596447
0.656846 0.656846 0.656846
0.715493 0.715493 0.715493
0.186517 0.186517 0.186517
0.241467 0.241467 0.241467
0.299623 0.299623 0.299623
0.389723 0.389723 0.389723
0.478712 0.478712 0.478712
0.566378 0.566378 0.566378
0.626709 0.626709 0.626709
0.686544 0.686544 0.686544
0.743389 0.743389 0.743389
0.241467 0.241467 0.241467
0.299623 0.299623 0.299623
0.359565 0.359565 0.359565
0.419739 0.419739 0.419739
0.507676 0.507676 0.507676
0.596447 0.596447 0.596447
0.656846 0.656846 0.656846
0.715493 0.715493 0.715493
0.769959 0.769959 0.769959
0.299623 0.299623 0.299623
0.359565 0.359565 0.359565
0.419739 0.419739 0.419739
0.478712 0.478712 0.478712
0.536732 0.536732 0.536732
0.626709 0.626709 0.626709
0.686544 0.686544 0.686544
0.743389 0.743389 0.743389
0.794971 0.794971 0.794971
0.359565 0.359565 0.359565
0.419739 0.419739 0.419739
0.478712 0.478712 0.478712
0.536732 0.536732 0.536732
0.596447 0.596447 0.596447
0.656846 0.656846 0.656846
0.715493 0.715493 0.715493
0.769959 0.769959 0.769959
0.818626 0.818626 0.818626
0.419739 0.419739 0.419739
0.478712 0.478712 0.478712
0.536732 0.536732 0.536732
0.596447 0.596447 0.596447
0.656846 0.656846 0.656846
0.715493 0.715493 0.715493
0.743389 0.743389 0.743389
0.794971 0.794971 0.794971
0.841132 0.841132 0.841132
0.478712 0.478712 0.478712
0.536732 0.536732 0.536732
0.596447 0.596447 0.596447
0.656846 0.656846 0.656846
0.715493 0.715493 0.715493
0.769959 0.769959 0.769959
0.794971 0.794971 0.794971
0.818626 0.818626 0.818626
0.862637 0.862637 0.862637
0.536732 0.536732 0.536732
0.596447 0.596447 0.596447
0.656846 0.656846 0.656846
0.715493 0.715493 0.715493
0.769959 0.769959 0.769959
0.818626 0.818626 0.818626
0.841132 0.841132 0.841132
0.862637 0.862637 0.862637
0.883297 0.883297 0.883297
0.112617 0.112617 0.112617
0.186517 0.186517 0.186517
0.270230 0.270230 0.270230
0.359565 0.359565 0.359565
0.449419 0.449419 0.449419
0.536732 0.536732 0.536732
0.626709 0.626709 0.626709
0.686544 0.686544 0.686544
0.743389 0.743389 0.743389
0.160622 0.160622 0.160622
0.213511 0.213511 0.213511
0.299623 0.299623 0.299623
0.389723 0.389723 0.389723
0.478712 0.478712 0.478712
0.566378 0.566378 0.566378
0.656846 0.656846 0.656846
0.715493 0.715493 0.715493
0.769959 0.769959 0.769959
0.213511 0.213511 0.213511
0.270230 0.270230 0.270230
0.329466 0.329466 0.329466
0.419739 0.419739 0.419739
0.507676 0.507676 0.507676
0.596447 0.596447 0.596447
0.686544 0.686544 0.686544
0.743389 0.743389 0.743389
0.794971 0.794971 0.794971
0.270230 0.270230 0.270230
0.329466 0.329466 0.329466
0.389723 0.389723 0.389723
0.449419 0.449419 0.449419
0.536732 0.536732 0.536732
0.626709 0.626709 0.626709
0.715493 0.715493 0.715493
0.769959 0.769959 0.769959
0.818626 0.818626 0.818626
0.329466 0.329466 0.329466
0.389723 0.389723 0.389723
0.449419 0.449419 0.449419
0.507676 0.507676 0.507676
0.566378 0.566378 0.566378
0.656846 0.656846 0.656846
0.743389 0.743389 0.743389
0.794971 0.794971 0.794971
0.841132 0.841132 0.841132
0.389723 0.389723 0.389723
0.449419 0.449419 0.449419
0.507676 0.507676 0.507676
0.566378 0.566378 0.566378
0.626709 0.626709 0.626709
0.686544 0.686544 0.686544
0.769959 0.769959 0.769959
0.818626 0.818626 0.818626
0.862637 0.862637 0.862637
0.449419 0.449419 0.449419
0.507676 0.507676 0.507676
0.566378 0.566378 0.566378
0.626709 0.626709 0.626709
0.686544 0.686544 0.686544
0.743389 0.743389 0.743389
0.794971 0.794971 0.794971
0.841132 0.841132 0.841132
0.883297 0.883297 0.883297
0.507676 0.507676 0.507676
0.566378 0.566378 0.566378
0.626709 0.626709 0.626709
0.686544 0.686544 0.686544
0.743389 0.743389 0.743389
0.794971 0.794971 0.794971
0.841132 0.841132 0.841132
0.862637 0.862637 0.862637
0.903244 0.903244 0.903244
0.566378 0.566378 0.566378
0.626709 0.626709 0.626709
0.686544 0.686544 0.686544
0.743389 0.743389 0.743389
0.794971 0.794971 0.794971
0.841132 0.841132 0.841132
0.883297 0.883297 0.883297
0.903244 0.903244 0.903244
0.922601 0.922601 0.922601
0.135959 0.135959 0.135959
0.213511 0.213511 0.213511
0.299623 0.299623 0.299623
0.389723 0.389723 0.389723
0.478712 0.478712 0.478712
0.566378 0.566378 0.566378
0.656846 0.656846 0.656846
0.743389 0.743389 0.743389
0.794971 0.794971 0.794971
0.186517 0.186517 0.186517
0.241467 0.241467 0.241467
0.329466 0.329466 0.329466
0.419739 0.419739 0.419739
0.507676 0.507676 0.507676
0.596447 0.596447 0.596447
0.686544 0.686544 0.686544
0.769959 0.769959 0.769959
0.818626 0.818626 0.818626
0.241467 0.241467 0.241467
0.299623 0.299623 0.299623
0.359565 0.359565 0.359565
0.449419 0.449419 0.449419
0.536732 0.536732 0.536732
0.626709 0.626709 0.626709
0.715493 0.715493 0.715493
0.794971 0.794971 0.794971
0.841132 0.841132 0.841132
0.299623 0.299623 0.299623
0.359565 0.359565 0.359565
0.419739 0.419739 0.419739
0.478712 0.478712 0.478712
0.566378 0.566378 0.566378
0.656846 0.656846 0.656846
0.743389 0.743389 0.743389
0.818626 0.818626 0.818626
0.862637 0.862637 0.862637
0.359565 0.359565 0.359565
0.419739 0.419739 0.419739
0.478712 0.478712 0.478712
0.536732 0.536732 0.536732
0.596447 0.596447 0.596447
0.686544 0.686544 0.686544
0.769959 0.769959 0.769959
0.841132 0.841132 0.841132
0.883297 0.883297 0.883297
0.419739 0.419739 0.419739
0.478712 0.478712 0.478712
0.536732 0.536732 0.536732
0.596447 0.596447 0.596447
0.656846 0.656846 0.656846
0.715493 0.715493 0.715493
0.794971 0.794971 0.794971
0.862637 0.862637 0.862637
0.903244 0.903244 0.903244
0.478712 0.478712 0.478712
0.536732 0.536732 0.536732
0.596447 0.596447 0.596447
0.656846 0.656846 0.656846
0.715493 0.715493 0.715493
0.769959 0.769959 0.769959
0.818626 0.818626 0.818626
0.883297 0.883297 0.883297
0.922601 0.922601 0.922601
0.536732 0.536732 0.536732
0.596447 0.596447 0.596447
0.656846 0.656846 0.656846
0.715493 0.715493 0.715493
0.769959 0.769959 0.769959
0.818626 0.818626 0.818626
0.862637 0.862637 0.862637
0.903244 0.903244 0.903244
0.941480 0.941480 0.941480
0.596447 0.596447 0.596447
0.656846 0.656846 0.656846
0.715493 0.715493 0.715493
0.769959 0.769959 0.769959
0.818626 0.818626 0.818626
0.862637 0.862637 0.862637
0.903244 0.903244 0.903244
0.941480 0.941480 0.941480
0.959969 0.959969 0.959969
0.160622 0.160622 0.160622
0.241467 0.241467 0.241467
0.329466 0.329466 0.329466
0.419739 0.419739 0.419739
0.507676 0.507676 0.507676
0.596447 0.596447 0.596447
0.686544 0.686544 0.686544
0.769959 0.769959 0.769959
0.841132 0.841132 0.841132
0.213511 0.213511 0.213511
0.270230 0.270230 0.270230
0.359565 0.359565 0.359565
0.449419 0.449419 0.449419
0.536732 0.536732 0.536732
0.626709 0.626709 0.626709
0.715493 0.715493 0.715493
0.794971 0.794971 0.794971
0.862637 0.862637 0.862637
0.270230 0.270230 0.270230
0.329466 0.329466 0.329466
0.389723 0.389723 0.389723
0.478712 0.478712 0.478712
0.566378 0.566378 0.566378
0.656846 0.656846 0.656846
0.743389 0.743389 0.743389
0.818626 0.818626 0.818626
0.883297 0.883297 0.883297
0.329466 0.329466 0.329466
0.389723 0.389723 0.389723
0.449419 0.449419 0.449419
0.507676 0.507676 0.507676
0.596447 0.596447 0.596447
0.686544 0.686544 0.686544
0.769959 0.769959 0.769959
0.841132 0.841132 0.841132
0.903244 0.903244 0.903244
0.389723 0.389723 0.389723
0.449419 0.449419 0.449419
0.507676 0.507676 0.507676
0.566378 0.566378 0.566378
0.626709 0.626709 0.626709
0.715493 0.715493 0.715493
0.794971 0.794971 0.794971
0.862637 0.862637 0.862637
0.922601 0.922601 0.922601
0.449419 0.449419 0.449419
0.507676 0.507676 0.507676
0.566378 0.566378 0.566378
0.626709 0.626709 0.626709
0.686544 0.686544 0.686544
0.743389 0.743389 0.743389
0.818626 0.818626 0.818626
0.883297 0.883297 0.883297
0.941480 0.941480 0.941480
0.507676 0.507676 0.507676
0.566378 0.566378 0.566378
0.626709 0.626709 0.626709
0.686544 0.686544 0.686544
0.743389 0.743389 0.743389
0.794971 0.794971 0.794971
0.841132 0.841132 0.841132
0.903244 0.903244 0.903244
0.959969 0.959969 0.959969
0.566378 0.566378 0.566378
0.626709 0.626709 0.626709
0.686544 0.686544 0.686544
0.743389 0.743389 0.743389
0.794971 0.794971 0.794971
0.841132 0.841132 0.841132
0.883297 0.883297 0.883297
0.922601 0.922601 0.922601
0.978149 0.978149 0.978149
0.626709 0.626709 0.626709
0.686544 0.686544 0.686544
0.743389 0.743389 0.743389
0.794971 0.794971 0.794971
0.841132 0.841132 0.841132
0.883297 0.883297 0.883297
0.922601 0.922601 0.922601
0.959969 0.959969 0.959969
0.996078 0.996078 0.996078
