ricette/lut/Tabulare-400-33.cube
# LUT generata da Camera Oscura BN
# Ricetta: Tabulare 400
# Pellicola: tmax400
# Nota: grana, vignetta e interventi locali non sono inclusi nella LUT.
TITLE "Tabulare 400"
LUT_3D_SIZE 33
DOMAIN_MIN 0.0 0.0 0.0
DOMAIN_MAX 1.0 1.0 1.0
0.000000 0.000000 0.000000
0.008390 0.008390 0.008390
0.016847 0.016847 0.016847
0.025398 0.025398 0.025398
0.034072 0.034072 0.034072
0.042900 0.042900 0.042900
0.051922 0.051922 0.051922
0.061178 0.061178 0.061178
0.070712 0.070712 0.070712
0.080571 0.080571 0.080571
0.090807 0.090807 0.090807
0.101479 0.101479 0.101479
0.112617 0.112617 0.112617
0.124117 0.124117 0.124117
0.135959 0.135959 0.135959
0.148131 0.148131 0.148131
0.160622 0.160622 0.160622
0.173424 0.173424 0.173424
0.186517 0.186517 0.186517
0.199885 0.199885 0.199885
0.213511 0.213511 0.213511
0.227377 0.227377 0.227377
0.241467 0.241467 0.241467
0.255758 0.255758 0.255758
0.270230 0.270230 0.270230
0.284859 0.284859 0.284859
0.299623 0.299623 0.299623
0.314500 0.314500 0.314500
0.329466 0.329466 0.329466
0.344496 0.344496 0.344496
0.359565 0.359565 0.359565
0.374649 0.374649 0.374649
0.389723 0.389723 0.389723
0.008390 0.008390 0.008390
0.012608 0.012608 0.012608
0.021108 0.021108 0.021108
0.029717 0.029717 0.029717
0.038465 0.038465 0.038465
0.047386 0.047386 0.047386
0.056519 0.056519 0.056519
0.065905 0.065905 0.065905
0.075595 0.075595 0.075595
0.085639 0.085639 0.085639
0.096089 0.096089 0.096089
0.106999 0.106999 0.106999
0.118322 0.118322 0.118322
0.129992 0.129992 0.129992
0.142004 0.142004 0.142004
0.154340 0.154340 0.154340
0.166988 0.166988 0.166988
0.179935 0.179935 0.179935
0.193164 0.193164 0.193164
0.206665 0.206665 0.206665
0.220416 0.220416 0.220416
0.234397 0.234397 0.234397
0.248589 0.248589 0.248589
0.262972 0.262972 0.262972
0.277525 0.277525 0.277525
0.292226 0.292226 0.292226
0.307050 0.307050 0.307050
0.321974 0.321974 0.321974
0.336975 0.336975 0.336975
0.352027 0.352027 0.352027
0.367107 0.367107 0.367107
0.382189 0.382189 0.382189
0.397248 0.397248 0.397248
0.016847 0.016847 0.016847
0.021108 0.021108 0.021108
0.025398 0.025398 0.025398
0.034072 0.034072 0.034072
0.042900 0.042900 0.042900
0.051922 0.051922 0.051922
0.061178 0.061178 0.061178
0.070712 0.070712 0.070712
0.080571 0.080571 0.080571
0.090807 0.090807 0.090807
0.101479 0.101479 0.101479
0.112617 0.112617 0.112617
0.124117 0.124117 0.124117
0.135959 0.135959 0.135959
0.148131 0.148131 0.148131
0.160622 0.160622 0.160622
0.173424 0.173424 0.173424
0.186517 0.186517 0.186517
0.199885 0.199885 0.199885
0.213511 0.213511 0.213511
0.227377 0.227377 0.227377
0.241467 0.241467 0.241467
0.255758 0.255758 0.255758
0.270230 0.270230 0.270230
0.284859 0.284859 0.284859
0.299623 0.299623 0.299623
0.314500 0.314500 0.314500
0.329466 0.329466 0.329466
0.344496 0.344496 0.344496
0.359565 0.359565 0.359565
0.374649 0.374649 0.374649
0.389723 0.389723 0.389723
0.404761 0.404761 0.404761
0.025398 0.025398 0.025398
0.029717 0.029717 0.029717
0.034072 0.034072 0.034072
0.038465 0.038465 0.038465
0.047386 0.047386 0.047386
0.056519 0.056519 0.056519
0.065905 0.065905 0.065905
0.075595 0.075595 0.075595
0.085639 0.085639 0.085639
0.096089 0.096089 0.096089
0.106999 0.106999 0.106999
0.118322 0.118322 0.118322
0.129992 0.129992 0.129992
0.142004 0.142004 0.142004
0.154340 0.154340 0.154340
0.166988 0.166988 0.166988
0.179935 0.179935 0.179935
0.193164 0.193164 0.193164
0.206665 0.206665 0.206665
0.220416 0.220416 0.220416
0.234397 0.234397 0.234397
0.248589 0.248589 0.248589
0.262972 0.262972 0.262972
0.277525 0.277525 0.277525
0.292226 0.292226 0.292226
0.307050 0.307050 0.307050
0.321974 0.321974 0.321974
0.336975 0.336975 0.336975
0.352027 0.352027 0.352027
0.367107 0.367107 0.367107
0.382189 0.382189 0.382189
0.397248 0.397248 0.397248
0.412259 0.412259 0.412259
0.034072 0.034072 0.034072
0.038465 0.038465 0.038465
0.042900 0.042900 0.042900
0.047386 0.047386 0.047386
0.051922 0.051922 0.051922
0.061178 0.061178 0.061178
0.070712 0.070712 0.070712
0.080571 0.080571 0.080571
0.090807 0.090807 0.090807
0.101479 0.101479 0.101479
0.112617 0.112617 0.112617
0.124117 0.124117 0.124117
0.135959 0.135959 0.135959
0.148131 0.148131 0.148131
0.160622 0.160622 0.160622
0.173424 0.173424 0.173424
0.186517 0.186517 0.186517
0.199885 0.199885 0.199885
0.213511 0.213511 0.213511
0.227377 0.227377 0.227377
0.241467 0.241467 0.241467
0.255758 0.255758 0.255758
0.270230 0.270230 0.270230
0.284859 0.284859 0.284859
0.299623 0.299623 0.299623
0.314500 0.314500 0.314500
0.329466 0.329466 0.329466
0.344496 0.344496 0.344496
0.359565 0.359565 0.359565
0.374649 0.374649 0.374649
0.389723 0.389723 0.389723
0.404761 0.404761 0.404761
0.419739 0.419739 0.419739
0.042900 0.042900 0.042900
0.047386 0.047386 0.047386
0.051922 0.051922 0.051922
0.056519 0.056519 0.056519
0.061178 0.061178 0.061178
0.065905 0.065905 0.065905
0.075595 0.075595 0.075595
0.085639 0.085639 0.085639
0.096089 0.096089 0.096089
0.106999 0.106999 0.106999
0.118322 0.118322 0.118322
0.129992 0.129992 0.129992
0.142004 0.142004 0.142004
0.154340 0.154340 0.154340
0.166988 0.166988 0.166988
0.179935 0.179935 0.179935
0.193164 0.193164 0.193164
0.206665 0.206665 0.206665
0.220416 0.220416 0.220416
0.234397 0.234397 0.234397
0.248589 0.248589 0.248589
0.262972 0.262972 0.262972
0.277525 0.277525 0.277525
0.292226 0.292226 0.292226
0.307050 0.307050 0.307050
0.321974 0.321974 0.321974
0.336975 0.336975 0.336975
0.352027 0.352027 0.352027
0.367107 0.367107 0.367107
0.382189 0.382189 0.382189
0.397248 0.397248 0.397248
0.412259 0.412259 0.412259
0.427199 0.427199 0.427199
0.051922 0.051922 0.051922
0.056519 0.056519 0.056519
0.061178 0.061178 0.061178
0.065905 0.065905 0.065905
0.070712 0.070712 0.070712
0.075595 0.075595 0.075595
0.080571 0.080571 0.080571
0.090807 0.090807 0.090807
0.101479 0.101479 0.101479
0.112617 0.112617 0.112617
0.124117 0.124117 0.124117
0.135959 0.135959 0.135959
0.148131 0.148131 0.148131
0.160622 0.160622 0.160622
0.173424 0.173424 0.173424
0.186517 0.186517 0.186517
0.199885 0.199885 0.199885
0.213511 0.213511 0.213511
0.227377 0.227377 0.227377
0.241467 0.241467 0.241467
0.255758 0.255758 0.255758
0.270230 0.270230 0.270230
0.284859 0.284859 0.284859
0.299623 0.299623 0.299623
0.314500 0.314500 0.314500
0.329466 0.329466 0.329466
0.344496 0.344496 0.344496
0.359565 0.359565 0.359565
0.374649 0.374649 0.374649
0.389723 0.389723 0.389723
0.404761 0.404761 0.404761
0.419739 0.419739 0.419739
0.434633 0.434633 0.434633
0.061178 0.061178 0.061178
0.065905 0.065905 0.065905
0.070712 0.070712 0.070712
0.075595 0.075595 0.075595
0.080571 0.080571 0.080571
0.085639 0.085639 0.085639
0.090807 0.090807 0.090807
0.096089 0.096089 0.096089
0.106999 0.106999 0.106999
0.118322 0.118322 0.118322
0.129992 0.129992 0.129992
0.142004 0.142004 0.142004
0.154340 0.154340 0.154340
0.166988 0.166988 0.166988
0.179935 0.179935 0.179935
0.193164 0.193164 0.193164
0.206665 0.206665 0.206665
0.220416 0.220416 0.220416
0.234397 0.234397 0.234397
0.248589 0.248589 0.248589
0.262972 0.262972 0.262972
0.277525 0.277525 0.277525
0.292226 0.292226 0.292226
0.307050 0.307050 0.307050
0.321974 0.321974 0.321974
0.336975 0.336975 0.336975
0.352027 0.352027 0.352027
0.367107 0.367107 0.367107
0.382189 0.382189 0.382189
0.397248 0.397248 0.397248
0.412259 0.412259 0.412259
0.427199 0.427199 0.427199
0.442041 0.442041 0.442041
0.070712 0.070712 0.070712
0.075595 0.075595 0.075595
0.080571 0.080571 0.080571
0.085639 0.085639 0.085639
0.090807 0.090807 0.090807
0.096089 0.096089 0.096089
0.101479 0.101479 0.101479
0.106999 0.106999 0.106999
0.112617 0.112617 0.112617
0.124117 0.124117 0.124117
0.135959 0.135959 0.135959
0.148131 0.148131 0.148131
0.160622 0.160622 0.160622
0.173424 0.173424 0.173424
0.186517 0.186517 0.186517
0.199885 0.199885 0.199885
0.213511 0.213511 0.213511
0.227377 0.227377 0.227377
0.241467 0.241467 0.241467
0.255758 0.255758 0.255758
0.270230 0.270230 0.270230
0.284859 0.284859 0.284859
0.299623 0.299623 0.299623
0.314500 0.314500 0.314500
0.329466 0.329466 0.329466
0.344496 0.344496 0.344496
0.359565 0.359565 0.359565
0.374649 0.374649 0.374649
0.389723 0.389723 0.389723
0.404761 0.404761 0.404761
0.419739 0.419739 0.419739
0.434633 0.434633 0.434633
0.449419 0.449419 0.449419
0.080571 0.080571 0.080571
0.085639 0.085639 0.085639
0.090807 0.090807 0.090807
0.096089 0.096089 0.096089
0.101479 0.101479 0.101479
0.106999 0.106999 0.106999
0.112617 0.112617 0.112617
0.118322 0.118322 0.118322
0.124117 0.124117 0.124117
0.129992 0.129992 0.129992
0.142004 0.142004 0.142004
0.154340 0.154340 0.154340
0.166988 0.166988 0.166988
0.179935 0.179935 0.179935
0.193164 0.193164 0.193164
0.206665 0.206665 0.206665
0.220416 0.220416 0.220416
0.234397 0.234397 0.234397
0.248589 0.248589 0.248589
0.262972 0.262972 0.262972
0.277525 0.277525 0.277525
0.292226 0.292226 0.292226
0.307050 0.307050 0.307050
0.321974 0.321974 0.321974
0.336975 0.336975 0.336975
0.352027 0.352027 0.352027
0.367107 0.367107 0.367107
0.382189 0.382189 0.382189
0.397248 0.397248 0.397248
0.412259 0.412259 0.412259
0.427199 0.427199 0.427199
0.442041 0.442041 0.442041
0.456767 0.456767 0.456767
0.090807 0.090807 0.090807
0.096089 0.096089 0.096089
0.101479 0.101479 0.101479
0.106999 0.106999 0.106999
0.112617 0.112617 0.112617
0.118322 0.118322 0.118322
0.124117 0.124117 0.124117
0.129992 0.129992 0.129992
0.135959 0.135959 0.135959
0.142004 0.142004 0.142004
0.148131 0.148131 0.148131
0.160622 0.160622 0.160622
0.173424 0.173424 0.173424
0.186517 0.186517 0.186517
0.199885 0.199885 0.199885
0.213511 0.213511 0.213511
0.227377 0.227377 0.227377
0.241467 0.241467 0.241467
0.255758 0.255758 0.255758
0.270230 0.270230 0.270230
0.284859 0.284859 0.284859
0.299623 0.299623 0.299623
0.314500 0.314500 0.314500
0.329466 0.329466 0.329466
0.344496 0.344496 0.344496
0.359565 0.359565 0.359565
0.374649 0.374649 0.374649
0.389723 0.389723 0.389723
0.404761 0.404761 0.404761
0.419739 0.419739 0.419739
0.434633 0.434633 0.434633
0.449419 0.449419 0.449419
0.464099 0.464099 0.464099
0.101479 0.101479 0.101479
0.106999 0.106999 0.106999
0.112617 0.112617 0.112617
0.118322 0.118322 0.118322
0.124117 0.124117 0.124117
0.129992 0.129992 0.129992
0.135959 0.135959 0.135959
0.142004 0.142004 0.142004
0.148131 0.148131 0.148131
0.154340 0.154340 0.154340
0.160622 0.160622 0.160622
0.166988 0.166988 0.166988
0.179935 0.179935 0.179935
0.193164 0.193164 0.193164
0.206665 0.206665 0.206665
0.220416 0.220416 0.220416
0.234397 0.234397 0.234397
0.248589 0.248589 0.248589
0.262972 0.262972 0.262972
0.277525 0.277525 0.277525
0.292226 0.292226 0.292226
0.307050 0.307050 0.307050
0.321974 0.321974 0.321974
0.336975 0.336975 0.336975
0.352027 0.352027 0.352027
0.367107 0.367107 0.367107
0.382189 0.382189 0.382189
0.397248 0.397248 0.397248
0.412259 0.412259 0.412259
0.427199 0.427199 0.427199
0.442041 0.442041 0.442041
0.456767 0.456767 0.456767
0.471414 0.471414 0.471414
0.112617 0.112617 0.112617
0.118322 0.118322 0.118322
0.124117 0.124117 0.124117
0.129992 0.129992 0.129992
0.135959 0.135959 0.135959
0.142004 0.142004 0.142004
0.148131 0.148131 0.148131
0.154340 0.154340 0.154340
0.160622 0.160622 0.160622
0.166988 0.166988 0.166988
0.173424 0.173424 0.173424
0.179935 0.179935 0.179935
0.186517 0.186517 0.186517
0.199885 0.199885 0.199885
0.213511 0.213511 0.213511
0.227377 0.227377 0.227377
0.241467 0.241467 0.241467
0.255758 0.255758 0.255758
0.270230 0.270230 0.270230
0.284859 0.284859 0.284859
0.299623 0.299623 0.299623
0.314500 0.314500 0.314500
0.329466 0.329466 0.329466
0.344496 0.344496 0.344496
0.359565 0.359565 0.359565
0.374649 0.374649 0.374649
0.389723 0.389723 0.389723
0.404761 0.404761 0.404761
0.419739 0.419739 0.419739
0.434633 0.434633 0.434633
0.449419 0.449419 0.449419
0.464099 0.464099 0.464099
0.478712 0.478712 0.478712
0.124117 0.124117 0.124117
0.129992 0.129992 0.129992
0.135959 0.135959 0.135959
0.142004 0.142004 0.142004
0.148131 0.148131 0.148131
0.154340 0.154340 0.154340
0.160622 0.160622 0.160622
0.166988 0.166988 0.166988
0.173424 0.173424 0.173424
0.179935 0.179935 0.179935
0.186517 0.186517 0.186517
0.193164 0.193164 0.193164
0.199885 0.199885 0.199885
0.206665 0.206665 0.206665
0.220416 0.220416 0.220416
0.234397 0.234397 0.234397
0.248589 0.248589 0.248589
0.262972 0.262972 0.262972
0.277525 0.277525 0.277525
0.292226 0.292226 0.292226
0.307050 0.307050 0.307050
0.321974 0.321974 0.321974
0.336975 0.336975 0.336975
0.352027 0.352027 0.352027
0.367107 0.367107 0.367107
0.382189 0.382189 0.382189
0.397248 0.397248 0.397248
0.412259 0.412259 0.412259
0.427199 0.427199 0.427199
0.442041 0.442041 0.442041
0.456767 0.456767 0.456767
0.471414 0.471414 0.471414
0.485988 0.485988 0.485988
0.135959 0.135959 0.135959
0.142004 0.142004 0.142004
0.148131 0.148131 0.148131
0.154340 0.154340 0.154340
0.160622 0.160622 0.160622
0.166988 0.166988 0.166988
0.173424 0.173424 0.173424
0.179935 0.179935 0.179935
0.186517 0.186517 0.186517
0.193164 0.193164 0.193164
0.199885 0.199885 0.199885
0.206665 0.206665 0.206665
0.213511 0.213511 0.213511
0.220416 0.220416 0.220416
0.227377 0.227377 0.227377
0.241467 0.241467 0.241467
0.255758 0.255758 0.255758
0.270230 0.270230 0.270230
0.284859 0.284859 0.284859
0.299623 0.299623 0.299623
0.314500 0.314500 0.314500
0.329466 0.329466 0.329466
0.344496 0.344496 0.344496
0.359565 0.359565 0.359565
0.374649 0.374649 0.374649
0.389723 0.389723 0.389723
0.404761 0.404761 0.404761
0.419739 0.419739 0.419739
0.434633 0.434633 0.434633
0.449419 0.449419 0.449419
0.464099 0.464099 0.464099
0.478712 0.478712 0.478712
0.493243 0.493243 0.493243
0.148131 0.148131 0.148131
0.154340 0.154340 0.154340
0.160622 0.160622 0.160622
0.166988 0.166988 0.166988
0.173424 0.173424 0.173424
0.179935 0.179935 0.179935
0.186517 0.186517 0.186517
0.193164 0.193164 0.193164
0.199885 0.199885 0.199885
0.206665 0.206665 0.206665
0.213511 0.213511 0.213511
0.220416 0.220416 0.220416
0.227377 0.227377 0.227377
0.234397 0.234397 0.234397
0.241467 0.241467 0.241467
0.248589 0.248589 0.248589
0.262972 0.262972 0.262972
0.277525 0.277525 0.277525
0.292226 0.292226 0.292226
0.307050 0.307050 0.307050
0.321974 0.321974 0.321974
0.336975 0.336975 0.336975
0.352027 0.352027 0.352027
0.367107 0.367107 0.367107
0.382189 0.382189 0.382189
0.397248 0.397248 0.397248
0.412259 0.412259 0.412259
0.427199 0.427199 0.427199
0.442041 0.442041 0.442041
0.456767 0.456767 0.456767
0.471414 0.471414 0.471414
0.485988 0.485988 0.485988
0.500473 0.500473 0.500473
0.160622 0.160622 0.160622
0.166988 0.166988 0.166988
0.173424 0.173424 0.173424
0.179935 0.179935 0.179935
0.186517 0.186517 0.186517
0.193164 0.193164 0.193164
0.199885 0.199885 0.199885
0.206665 0.206665 0.206665
0.213511 0.213511 0.213511
0.220416 0.220416 0.220416
0.227377 0.227377 0.227377
0.234397 0.234397 0.234397
0.241467 0.241467 0.241467
0.248589 0.248589 0.248589
0.255758 0.255758 0.255758
0.262972 0.262972 0.262972
0.270230 0.270230 0.270230
0.284859 0.284859 0.284859
0.299623 0.299623 0.299623
0.314500 0.314500 0.314500
0.329466 0.329466 0.329466
0.344496 0.344496 0.344496
0.359565 0.359565 0.359565
0.374649 0.374649 0.374649
0.389723 0.389723 0.389723
0.404761 0.404761 0.404761
0.419739 0.419739 0.419739
0.434633 0.434633 0.434633
0.449419 0.449419 0.449419
0.464099 0.464099 0.464099
0.478712 0.478712 0.478712
0.493243 0.493243 0.493243
0.507676 0.507676 0.507676
0.173424 0.173424 0.173424
0.179935 0.179935 0.179935
0.186517 0.186517 0.186517
0.193164 0.193164 0.193164
0.199885 0.199885 0.199885
0.206665 0.206665 0.206665
0.213511 0.213511 0.213511
0.220416 0.220416 0.220416
0.227377 0.227377 0.227377
0.234397 0.234397 0.234397
0.241467 0.241467 0.241467
0.248589 0.248589 0.248589
0.255758 0.255758 0.255758
0.262972 0.262972 0.262972
0.270230 0.270230 0.270230
0.277525 0.277525 0.277525
0.284859 0.284859 0.284859
0.292226 0.292226 0.292226
0.307050 0.307050 0.307050
0.321974 0.321974 0.321974
0.336975 0.336975 0.336975
0.352027 0.352027 0.352027
0.367107 0.367107 0.367107
0.382189 0.382189 0.382189
0.397248 0.397248 0.397248
0.412259 0.412259 0.412259
0.427199 0.427199 0.427199
0.442041 0.442041 0.442041
0.456767 0.456767 0.456767
0.471414 0.471414 0.471414
0.485988 0.485988 0.485988
0.500473 0.500473 0.500473
0.514873 0.514873 0.514873
0.186517 0.186517 0.186517
0.193164 0.193164 0.193164
0.199885 0.199885 0.199885
0.206665 0.206665 0.206665
0.213511 0.213511 0.213511
0.220416 0.220416 0.220416
0.227377 0.227377 0.227377
0.234397 0.234397 0.234397
0.241467 0.241467 0.241467
0.248589 0.248589 0.248589
0.255758 0.255758 0.255758
0.262972 0.262972 0.262972
0.270230 0.270230 0.270230
0.277525 0.277525 0.277525
0.284859 0.284859 0.284859
0.292226 0.292226 0.292226
0.299623 0.299623 0.299623
0.307050 0.307050 0.307050
0.314500 0.314500 0.314500
0.329466 0.329466 0.329466
0.344496 0.344496 0.344496
0.359565 0.359565 0.359565
0.374649 0.374649 0.374649
0.389723 0.389723 0.389723
0.404761 0.404761 0.404761
0.419739 0.419739 0.419739
0.434633 0.434633 0.434633
0.449419 0.449419 0.449419
0.464099 0.464099 0.464099
0.478712 0.478712 0.478712
0.493243 0.493243 0.493243
0.507676 0.507676 0.507676
0.522116 0.522116 0.522116
0.199885 0.199885 0.199885
0.206665 0.206665 0.206665
0.213511 0.213511 0.213511
0.220416 0.220416 0.220416
0.227377 0.227377 0.227377
0.234397 0.234397 0.234397
0.241467 0.241467 0.241467
0.248589 0.248589 0.248589
0.255758 0.255758 0.255758
0.262972 0.262972 0.262972
0.270230 0.270230 0.270230
0.277525 0.277525 0.277525
0.284859 0.284859 0.284859
0.292226 0.292226 0.292226
0.299623 0.299623 0.299623
0.307050 0.307050 0.307050
0.314500 0.314500 0.314500
0.321974 0.321974 0.321974
0.329466 0.329466 0.329466
0.336975 0.336975 0.336975
0.352027 0.352027 0.352027
0.367107 0.367107 0.367107
0.382189 0.382189 0.382189
0.397248 0.397248 0.397248
0.412259 0.412259 0.412259
0.427199 0.427199 0.427199
0.442041 0.442041 0.442041
0.456767 0.456767 0.456767
0.471414 0.471414 0.471414
0.485988 0.485988 0.485988
0.500473 0.500473 0.500473
0.514873 0.514873 0.514873
0.529404 0.529404 0.529404
0.213511 0.213511 0.213511
0.220416 0.220416 0.220416
0.227377 0.227377 0.227377
0.234397 0.234397 0.234397
0.241467 0.241467 0.241467
0.248589 0.248589 0.248589
0.255758 0.255758 0.255758
0.262972 0.262972 0.262972
0.270230 0.270230 0.270230
0.277525 0.277525 0.277525
0.284859 0.284859 0.284859
0.292226 0.292226 0.292226
0.299623 0.299623 0.299623
0.307050 0.307050 0.307050
0.314500 0.314500 0.314500
0.321974 0.321974 0.321974
0.329466 0.329466 0.329466
0.336975 0.336975 0.336975
0.344496 0.344496 0.344496
0.352027 0.352027 0.352027
0.359565 0.359565 0.359565
0.374649 0.374649 0.374649
0.389723 0.389723 0.389723
0.404761 0.404761 0.404761
0.419739 0.419739 0.419739
0.434633 0.434633 0.434633
0.449419 0.449419 0.449419
0.464099 0.464099 0.464099
0.478712 0.478712 0.478712
0.493243 0.493243 0.493243
0.507676 0.507676 0.507676
0.522116 0.522116 0.522116
0.536732 0.536732 0.536732
0.227377 0.227377 0.227377
0.234397 0.234397 0.234397
0.241467 0.241467 0.241467
0.248589 0.248589 0.248589
0.255758 0.255758 0.255758
0.262972 0.262972 0.262972
0.270230 0.270230 0.270230
0.277525 0.277525 0.277525
0.284859 0.284859 0.284859
0.292226 0.292226 0.292226
0.299623 0.299623 0.299623
0.307050 0.307050 0.307050
0.314500 0.314500 0.314500
0.321974 0.321974 0.321974
0.329466 0.329466 0.329466
0.336975 0.336975 0.336975
0.344496 0.344496 0.344496
0.352027 0.352027 0.352027
0.359565 0.359565 0.359565
0.367107 0.367107 0.367107
0.374649 0.374649 0.374649
0.382189 0.382189 0.382189
0.397248 0.397248 0.397248
0.412259 0.412259 0.412259
0.427199 0.427199 0.427199
0.442041 0.442041 0.442041
0.456767 0.456767 0.456767
0.471414 0.471414 0.471414
0.485988 0.485988 0.485988
0.500473 0.500473 0.500473
0.514873 0.514873 0.514873
0.529404 0.529404 0.529404
0.544099 0.544099 0.544099
0.241467 0.241467 0.241467
0.248589 0.248589 0.248589
0.255758 0.255758 0.255758
0.262972 0.262972 0.262972
0.270230 0.270230 0.270230
0.277525 0.277525 0.277525
0.284859 0.284859 0.284859
0.292226 0.292226 0.292226
0.299623 0.299623 0.299623
0.307050 0.307050 0.307050
0.314500 0.314500 0.314500
0.321974 0.321974 0.321974
0.329466 0.329466 0.329466
0.336975 0.336975 0.336975
0.344496 0.344496 0.344496
0.352027 0.352027 0.352027
0.359565 0.359565 0.359565
0.367107 0.367107 0.367107
0.374649 0.374649 0.374649
0.382189 0.382189 0.382189
0.389723 0.389723 0.389723
0.397248 0.397248 0.397248
0.404761 0.404761 0.404761
0.419739 0.419739 0.419739
0.434633 0.434633 0.434633
0.449419 0.449419 0.449419
0.464099 0.464099 0.464099
0.478712 0.478712 0.478712
0.493243 0.493243 0.493243
0.507676 0.507676 0.507676
0.522116 0.522116 0.522116
0.536732 0.536732 0.536732
0.551497 0.551497 0.551497
0.255758 0.255758 0.255758
0.262972 0.262972 0.262972
0.270230 0.270230 0.270230
0.277525 0.277525 0.277525
0.284859 0.284859 0.284859
0.292226 0.292226 0.292226
0.299623 0.299623 0.299623
0.307050 0.307050 0.307050
0.314500 0.314500 0.314500
0.321974 0.321974 0.321974
0.329466 0.329466 0.329466
0.336975 0.336975 0.336975
0.344496 0.344496 0.344496
0.352027 0.352027 0.352027
0.359565 0.359565 0.359565
0.367107 0.367107 0.367107
0.374649 0.374649 0.374649
0.382189 0.382189 0.382189
0.389723 0.389723 0.389723
0.397248 0.397248 0.397248
0.404761 0.404761 0.404761
0.412259 0.412259 0.412259
0.419739 0.419739 0.419739
0.427199 0.427199 0.427199
0.442041 0.442041 0.442041
0.456767 0.456767 0.456767
0.471414 0.471414 0.471414
0.485988 0.485988 0.485988
0.500473 0.500473 0.500473
0.514873 0.514873 0.514873
0.529404 0.529404 0.529404
0.544099 0.544099 0.544099
0.558925 0.558925 0.558925
0.270230 0.270230 0.270230
0.277525 0.277525 0.277525
0.284859 0.284859 0.284859
0.292226 0.292226 0.292226
0.299623 0.299623 0.299623
0.307050 0.307050 0.307050
0.314500 0.314500 0.314500
0.321974 0.321974 0.321974
0.329466 0.329466 0.329466
0.336975 0.336975 0.336975
0.344496 0.344496 0.344496
0.352027 0.352027 0.352027
0.359565 0.359565 0.359565
0.367107 0.367107 0.367107
0.374649 0.374649 0.374649
0.382189 0.382189 0.382189
0.389723 0.389723 0.389723
0.397248 0.397248 0.397248
0.404761 0.404761 0.404761
0.412259 0.412259 0.412259
0.419739 0.419739 0.419739
0.427199 0.427199 0.427199
0.434633 0.434633 0.434633
0.442041 0.442041 0.442041
0.449419 0.449419 0.449419
0.464099 0.464099 0.464099
0.478712 0.478712 0.478712
0.493243 0.493243 0.493243
0.507676 0.507676 0.507676
0.522116 0.522116 0.522116
0.536732 0.536732 0.536732
0.551497 0.551497 0.551497
0.566378 0.566378 0.566378
0.284859 0.284859 0.284859
0.292226 0.292226 0.292226
0.299623 0.299623 0.299623
0.307050 0.307050 0.307050
0.314500 0.314500 0.314500
0.321974 0.321974 0.321974
0.329466 0.329466 0.329466
0.336975 0.336975 0.336975
0.344496 0.344496 0.344496
0.352027 0.352027 0.352027
0.359565 0.359565 0.359565
0.367107 0.367107 0.367107
0.374649 0.374649 0.374649
0.382189 0.382189 0.382189
0.389723 0.389723 0.389723
0.397248 0.397248 0.397248
0.404761 0.404761 0.404761
0.412259 0.412259 0.412259
0.419739 0.419739 0.419739
0.427199 0.427199 0.427199
0.434633 0.434633 0.434633
0.442041 0.442041 0.442041
0.449419 0.449419 0.449419
0.456767 0.456767 0.456767
0.464099 0.464099 0.464099
0.471414 0.471414 0.471414
0.485988 0.485988 0.485988
0.500473 0.500473 0.500473
0.514873 0.514873 0.514873
0.529404 0.529404 0.529404
0.544099 0.544099 0.544099
0.558925 0.558925 0.558925
0.573860 0.573860 0.573860
0.299623 0.299623 0.299623
0.307050 0.307050 0.307050
0.314500 0.314500 0.314500
0.321974 0.321974 0.321974
0.329466 0.329466 0.329466
0.336975 0.336975 0.336975
0.344496 0.344496 0.344496
0.352027 0.352027 0.352027
0.359565 0.359565 0.359565
0.367107 0.367107 0.367107
0.374649 0.374649 0.374649
0.382189 0.382189 0.382189
0.389723 0.389723 0.389723
0.397248 0.397248 0.397248
0.404761 0.404761 0.404761
0.412259 0.412259 0.412259
0.419739 0.419739 0.419739
0.427199 0.427199 0.427199
0.434633 0.434633 0.434633
0.442041 0.442041 0.442041
0.449419 0.449419 0.449419
0.456767 0.456767 0.456767
