ricette/lut/Tabulare-400-33.cube
# LUT generata da Camera Oscura BN
# Ricetta: Tabulare 400
# Pellicola: tmax400
# Nota: grana, vignetta e interventi locali non sono inclusi nella LUT.
TITLE "Tabulare 400"
LUT_3D_SIZE 5
DOMAIN_MIN 0.0 0.0 0.0
DOMAIN_MAX 1.0 1.0 1.0
0.000000 0.000000 0.000000
0.070712 0.070712 0.070712
0.160622 0.160622 0.160622
0.270230 0.270230 0.270230
0.389723 0.389723 0.389723
0.070712 0.070712 0.070712
0.112617 0.112617 0.112617
0.213511 0.213511 0.213511
0.329466 0.329466 0.329466
0.449419 0.449419 0.449419
0.160622 0.160622 0.160622
0.213511 0.213511 0.213511
0.270230 0.270230 0.270230
0.389723 0.389723 0.389723
0.507676 0.507676 0.507676
0.270230 0.270230 0.270230
0.329466 0.329466 0.329466
0.389723 0.389723 0.389723
0.449419 0.449419 0.449419
0.566378 0.566378 0.566378
0.389723 0.389723 0.389723
0.449419 0.449419 0.449419
0.507676 0.507676 0.507676
0.566378 0.566378 0.566378
0.626709 0.626709 0.626709
0.034072 0.034072 0.034072
0.160622 0.160622 0.160622
0.270230 0.270230 0.270230
0.389723 0.389723 0.389723
0.507676 0.507676 0.507676
0.112617 0.112617 0.112617
0.213511 0.213511 0.213511
0.329466 0.329466 0.329466
0.449419 0.449419 0.449419
0.566378 0.566378 0.566378
0.213511 0.213511 0.213511
0.329466 0.329466 0.329466
0.389723 0.389723 0.389723
0.507676 0.507676 0.507676
0.626709 0.626709 0.626709
0.329466 0.329466 0.329466
0.449419 0.449419 0.449419
0.507676 0.507676 0.507676
0.566378 0.566378 0.566378
0.686544 0.686544 0.686544
0.449419 0.449419 0.449419
0.566378 0.566378 0.566378
0.626709 0.626709 0.626709
0.686544 0.686544 0.686544
0.743389 0.743389 0.743389
0.070712 0.070712 0.070712
0.213511 0.213511 0.213511
0.389723 0.389723 0.389723
0.507676 0.507676 0.507676
0.626709 0.626709 0.626709
0.160622 0.160622 0.160622
0.270230 0.270230 0.270230
0.449419 0.449419 0.449419
0.566378 0.566378 0.566378
0.686544 0.686544 0.686544
0.270230 0.270230 0.270230
0.389723 0.389723 0.389723
0.507676 0.507676 0.507676
0.626709 0.626709 0.626709
0.743389 0.743389 0.743389
0.389723 0.389723 0.389723
0.507676 0.507676 0.507676
0.626709 0.626709 0.626709
0.686544 0.686544 0.686544
0.794971 0.794971 0.794971
0.507676 0.507676 0.507676
0.626709 0.626709 0.626709
0.743389 0.743389 0.743389
0.794971 0.794971 0.794971
0.841132 0.841132 0.841132
0.112617 0.112617 0.112617
0.270230 0.270230 0.270230
0.449419 0.449419 0.449419
0.626709 0.626709 0.626709
0.743389 0.743389 0.743389
0.213511 0.213511 0.213511
0.329466 0.329466 0.329466
0.507676 0.507676 0.507676
0.686544 0.686544 0.686544
0.794971 0.794971 0.794971
0.329466 0.329466 0.329466
0.449419 0.449419 0.449419
0.566378 0.566378 0.566378
0.743389 0.743389 0.743389
0.841132 0.841132 0.841132
0.449419 0.449419 0.449419
0.566378 0.566378 0.566378
0.686544 0.686544 0.686544
0.794971 0.794971 0.794971
0.883297 0.883297 0.883297
0.566378 0.566378 0.566378
0.686544 0.686544 0.686544
0.794971 0.794971 0.794971
0.883297 0.883297 0.883297
0.922601 0.922601 0.922601
0.160622 0.160622 0.160622
0.329466 0.329466 0.329466
0.507676 0.507676 0.507676
0.686544 0.686544 0.686544
0.841132 0.841132 0.841132
0.270230 0.270230 0.270230
0.389723 0.389723 0.389723
0.566378 0.566378 0.566378
0.743389 0.743389 0.743389
0.883297 0.883297 0.883297
0.389723 0.389723 0.389723
0.507676 0.507676 0.507676
0.626709 0.626709 0.626709
0.794971 0.794971 0.794971
0.922601 0.922601 0.922601
0.507676 0.507676 0.507676
0.626709 0.626709 0.626709
0.743389 0.743389 0.743389
0.841132 0.841132 0.841132
0.959969 0.959969 0.959969
0.626709 0.626709 0.626709
0.743389 0.743389 0.743389
0.841132 0.841132 0.841132
0.922601 0.922601 0.922601
0.996078 0.996078 0.996078
